%
(Generated by SketchUcam V1.4d-80c0152)
(File: cnc.skp)
(Bit diameter: 0,1mm)
(Feed rate: 2540,0mm/min)
(Material Thickness: 6,3mm)
(Material length: 210,0mm X width: 210,0mm)
(Overhead Gantry: false)
(Plunge Depth first)
(Optimization is ON)
(www.PhlatBoyz.com)
G90 G21 G49 G17 F2540
M3 S15000
G00 Z5.000
 X31.289 Y31.289
G00 Z0.500
G01 Z-6.300 F2540
 X34.659 Y34.201
 X38.866 Y36.931
 X43.332 Y39.141
 X47.260 Y40.656
 X48.001 Y40.941
 X49.403 Y41.379
 X51.670 Y42.087
 X52.817 Y42.445
 X57.724 Y43.762
 X61.933 Y44.820
 X62.668 Y45.005
 X67.592 Y46.284
 X72.440 Y47.712
 X77.157 Y49.399
 X79.526 Y50.474
 X80.741 Y51.026
 X80.768 Y51.038
 X80.794 Y51.050
 X81.666 Y51.446
 X82.102 Y51.701
 X82.518 Y51.947
 X82.595 Y51.992
 X83.373 Y52.453
 X83.841 Y52.729
 X84.309 Y53.006
 X85.977 Y53.994
 X86.940 Y54.749
 X87.646 Y55.303
 X89.512 Y56.766
 X89.969 Y57.125
 X91.971 Y59.234
 X93.609 Y60.959
 X94.353 Y62.029
 X96.628 Y65.302
 X96.842 Y65.609
 X99.612 Y71.186
 X101.863 Y77.802
 X103.541 Y85.569
 X104.065 Y90.083
 X104.589 Y94.602
 X104.912 Y96.091
 X104.721 Y95.885
 X102.877 Y93.892
 X101.397 Y91.978
 X101.091 Y89.341
 X100.708 Y86.038
 X99.095 Y78.569
 X96.958 Y72.290
 X94.367 Y67.073
 X91.379 Y62.775
 X89.137 Y60.413
 X88.034 Y59.252
 X86.416 Y57.982
 X85.057 Y56.917
 X84.355 Y56.367
 X83.650 Y55.949
 X82.662 Y55.364
 X81.824 Y54.869
 X80.476 Y54.071
 X80.361 Y54.003
 X79.567 Y53.643
 X76.080 Y52.059
 X71.551 Y50.440
 X66.826 Y49.049
 X61.957 Y47.783
 X57.003 Y46.538
 X52.017 Y45.199
 X47.056 Y43.651
 X41.513 Y41.513
 X43.651 Y47.056
 X45.199 Y52.017
 X46.538 Y57.003
 X47.783 Y61.957
 X49.049 Y66.826
 X50.440 Y71.551
 X52.059 Y76.080
 X53.643 Y79.567
 X54.003 Y80.361
 X54.071 Y80.476
 X54.869 Y81.824
 X55.364 Y82.662
 X55.949 Y83.650
 X56.367 Y84.355
 X56.917 Y85.057
 X57.982 Y86.416
 X59.252 Y88.034
 X60.413 Y89.137
 X62.775 Y91.379
 X67.073 Y94.367
 X72.290 Y96.958
 X78.569 Y99.095
 X86.038 Y100.708
 X89.341 Y101.091
 X91.978 Y101.397
 X93.892 Y102.877
 X95.885 Y104.721
 X96.091 Y104.912
 X94.602 Y104.589
 X90.083 Y104.065
 X85.569 Y103.541
 X77.802 Y101.863
 X71.186 Y99.612
 X65.609 Y96.842
 X65.302 Y96.628
 X62.029 Y94.353
 X60.959 Y93.609
 X59.234 Y91.971
 X57.125 Y89.969
 X56.766 Y89.512
 X55.303 Y87.646
 X54.749 Y86.940
 X53.994 Y85.977
 X53.006 Y84.309
 X52.729 Y83.841
 X52.453 Y83.373
 X51.992 Y82.595
 X51.947 Y82.518
 X51.701 Y82.102
 X51.456 Y81.688
 X51.050 Y80.794
 X51.038 Y80.768
 X51.026 Y80.741
 X50.474 Y79.526
 X49.399 Y77.157
 X47.712 Y72.440
 X46.284 Y67.592
 X45.005 Y62.668
 X44.820 Y61.933
 X43.762 Y57.724
 X42.445 Y52.817
 X42.087 Y51.670
 X41.379 Y49.403
 X40.941 Y48.001
 X40.656 Y47.260
 X39.141 Y43.332
 X36.931 Y38.866
 X34.201 Y34.659
 X31.289 Y31.289
G00 Z5.000
 X40.591 Y47.371
G00 Z0.500
G01 Z-6.300 F2540
 X40.847 Y48.033
 X41.276 Y49.407
 X41.242 Y49.449
G02 X37.9042 Y53.5156 I63.675 J55.6595
 X34.6806 Y58.0141 I67.0958 J51.4844
 X31.7582 Y62.7138 I70.3193 J46.9859
 X29.1493 Y67.5946 I73.2418 J42.2862
 X26.8653 Y72.6356 I75.8506 J37.4054
 X24.9159 Y77.8151 I78.1347 J32.3644
 X23.3094 Y83.1111 I80.0841 J27.1849
 X22.0527 Y88.5007 I81.6906 J21.8889
 X21.1512 Y93.9611 I82.9473 J16.4992
 X20.9861 Y95.6374 I84.0784 J9.1273
G01 X20.951 Y95.871
G03 X20.9075 Y95.9126 I2.8156 J2.9887
 X20.4748 Y96.5081 I3.0922 J2.7016
 X20.4283 Y96.6048 I3.6759 J1.8297
G02 X19.9667 Y96.6255 I-0.0469 J4.1058
 X19.249 Y96.7893 I0.5512 J4.0689
 X18.9744 Y96.9066 I1.4755 J3.8318
 X19.2887 Y93.7159 I86.1543 J6.8746
 X20.2102 Y88.1343 I85.7113 J11.2841
 X21.4949 Y82.6249 I84.7898 J16.8657
 X23.137 Y77.2113 I83.5051 J22.3751
 X25.1298 Y71.9167 I81.863 J27.7887
 X27.4646 Y66.7637 I79.8702 J33.0833
 X30.1313 Y61.7746 I77.5354 J38.2363
 X33.1187 Y56.9705 I74.8687 J43.2254
 X36.4139 Y52.372 I71.8813 J48.0295
 X40.0028 Y47.999 I68.5861 J52.628
 X40.5913 Y47.3706 I63.3821 J58.7741
G00 Z5.000
 X41.311 Y49.522
G00 Z0.500
G01 Z-6.300 F2540
 X41.983 Y51.674
 X41.874 Y51.807
G02 X39.4797 Y54.7245 I62.6262 J53.8375
 X36.3318 Y59.1174 I65.5202 J50.2755
 X33.478 Y63.7068 I68.6681 J45.8826
 X30.9304 Y68.4729 I71.522 J41.2932
 X28.7 Y73.3955 I74.0695 J36.5271
 X26.7964 Y78.4534 I76.2999 J31.6045
 X25.2276 Y83.625 I78.2036 J26.5465
 X24.0004 Y88.8882 I79.7724 J21.3749
 X23.1203 Y94.219 I80.9997 J16.1112
G01 X23.057 Y94.635
G02 X22.7309 Y94.7089 I0.7501 J4.0370
 X22.0540 Y94.9983 I1.2688 J3.9051
 X21.4396 Y95.4038 I1.9457 J3.6158
 X21.0692 Y95.758 I2.6468 J3.1391
G01 X21.085 Y95.650
G02 X21.2504 Y93.9742 I84.1248 J7.4397
 X22.1508 Y88.5203 I83.7496 J11.0258
 X23.406 Y83.137 I82.8492 J16.4797
 X25.0106 Y77.8473 I81.594 J21.863
 X26.9578 Y72.6738 I79.9894 J27.1527
 X29.2391 Y67.6388 I78.0422 J32.3262
 X31.8448 Y62.7638 I75.7609 J37.3612
 X34.7638 Y58.0697 I73.1552 J42.2362
 X37.9836 Y53.5765 I70.2362 J46.9303
 X41.3114 Y49.5216 I66.927 J51.5326
G00 Z5.000
 X47.371 Y40.591
G00 Z0.500
G01 Z-6.300 F2540
G02 X47.999 Y40.0028 I59.4024 J62.7937
 X52.372 Y36.4139 I57.0010 J64.9972
 X56.9705 Y33.1187 I52.628 J68.5861
 X61.7746 Y30.1313 I48.0295 J71.8813
 X66.7637 Y27.4646 I43.2254 J74.8687
 X71.9167 Y25.1298 I38.2363 J77.5354
 X77.2113 Y23.137 I33.0833 J79.8702
 X82.6249 Y21.4949 I27.7887 J81.863
 X88.1343 Y20.2102 I22.3751 J83.5051
 X93.7159 Y19.2887 I16.8657 J84.7898
 X96.9066 Y18.9744 I10.0654 J85.8401
 X96.7893 Y19.249 I3.7145 J1.75
 X96.6255 Y19.9667 I3.9051 J1.2689
 X96.6048 Y20.4283 I4.0851 J0.4147
G03 X96.5081 Y20.4748 I1.7331 J3.7224
 X95.9126 Y20.9075 I2.106 J3.5249
 X95.8707 Y20.9513 I2.9468 J2.8594
G01 X95.637 Y20.986
G02 X93.9611 Y21.1512 I7.451 J84.2435
 X88.5007 Y22.0527 I11.0389 J83.8488
 X83.1111 Y23.3094 I16.4992 J82.9473
 X77.8151 Y24.9159 I21.8889 J81.6906
 X72.6356 Y26.8653 I27.1849 J80.0841
 X67.5946 Y29.1493 I32.3644 J78.1347
 X62.7138 Y31.7582 I37.4054 J75.8506
 X58.0141 Y34.6806 I42.2862 J73.2418
 X53.5156 Y37.9042 I46.9859 J70.3193
 X49.4489 Y41.2417 I51.5928 J67.0124
G01 X49.407 Y41.276
 X48.033 Y40.847
 X47.371 Y40.591
G00 Z5.000
 X49.522 Y41.311
G00 Z0.500
G01 Z-6.300 F2540
G02 X53.5765 Y37.9836 I55.5875 J63.5992
 X58.0697 Y34.7638 I51.4235 J67.0164
 X62.7638 Y31.8448 I46.9303 J70.2362
 X67.6388 Y29.2391 I42.2362 J73.1552
 X72.6738 Y26.9578 I37.3612 J75.7609
 X77.8473 Y25.0106 I32.3262 J78.0422
 X83.137 Y23.406 I27.1527 J79.9894
 X88.5203 Y22.1508 I21.863 J81.594
 X93.9742 Y21.2504 I16.4797 J82.8492
 X95.6497 Y21.0853 I9.1152 J83.9598
G01 X95.758 Y21.069
G02 X95.4038 Y21.4396 I2.785 J3.0172
 X94.9983 Y22.0540 I3.2103 J2.5601
 X94.7089 Y22.7309 I3.6158 J1.9458
 X94.6346 Y23.0566 I3.9626 J1.0758
G01 X94.219 Y23.120
G02 X88.8882 Y24.0004 I10.7804 J81.8798
 X83.625 Y25.2276 I16.1118 J80.9996
 X78.4534 Y26.7964 I21.3749 J79.7724
 X73.3955 Y28.7 I26.5465 J78.2036
 X68.4729 Y30.9304 I31.6045 J76.2999
 X63.7068 Y33.478 I36.5271 J74.0695
 X59.1174 Y36.3318 I41.2932 J71.522
 X54.7245 Y39.4797 I45.8826 J68.6681
 X51.8068 Y41.8743 I50.9197 J65.0208
G01 X51.674 Y41.983
 X49.522 Y41.311
G00 Z5.000
 X113.395 Y20.428
G00 Z0.500
G01 Z-6.300 F2540
G02 X113.3745 Y19.9667 I-4.1058 J-0.0469
 X113.2107 Y19.249 I-4.0689 J0.5512
 X113.0934 Y18.9744 I-3.8318 J1.4755
 X116.2841 Y19.2887 I-6.8746 J86.1543
 X121.8657 Y20.2102 I-11.2841 J85.7113
 X127.3751 Y21.4949 I-16.8657 J84.7898
 X132.7887 Y23.137 I-22.3751 J83.5051
 X138.0833 Y25.1298 I-27.7887 J81.863
 X143.2363 Y27.4646 I-33.0833 J79.8702
 X148.2254 Y30.1313 I-38.2363 J77.5354
 X153.0295 Y33.1187 I-43.2254 J74.8687
 X157.628 Y36.4139 I-48.0295 J71.8813
 X162.0010 Y40.0028 I-52.628 J68.5861
 X162.6294 Y40.5913 I-58.7741 J63.3821
G01 X161.967 Y40.847
 X160.593 Y41.276
 X160.551 Y41.242
G02 X156.4844 Y37.9042 I-55.6595 J63.675
 X151.9859 Y34.6806 I-51.4844 J67.0958
 X147.2862 Y31.7582 I-46.9859 J70.3193
 X142.4054 Y29.1493 I-42.2862 J73.2418
 X137.3644 Y26.8653 I-37.4054 J75.8506
 X132.1849 Y24.9159 I-32.3644 J78.1347
 X126.8889 Y23.3094 I-27.1849 J80.0841
 X121.4993 Y22.0527 I-21.8889 J81.6906
 X116.0389 Y21.1512 I-16.4992 J82.9473
 X114.3626 Y20.9861 I-9.1273 J84.0784
G01 X114.129 Y20.951
G03 X114.0874 Y20.9075 I-2.9887 J2.8156
 X113.4919 Y20.4748 I-2.7016 J3.0922
 X113.3952 Y20.4283 I-1.8297 J3.6759
G00 Z5.000
 X114.242 Y21.069
G00 Z0.500
G01 Z-6.300 F2540
 X114.350 Y21.085
G02 X116.0258 Y21.2504 I-7.4397 J84.1248
 X121.4797 Y22.1508 I-11.0258 J83.7496
 X126.863 Y23.406 I-16.4797 J82.8492
 X132.1527 Y25.0106 I-21.863 J81.594
 X137.3262 Y26.9578 I-27.1527 J79.9894
 X142.3612 Y29.2391 I-32.3262 J78.0422
 X147.2362 Y31.8448 I-37.3612 J75.7609
 X151.9303 Y34.7638 I-42.2362 J73.1552
 X156.4235 Y37.9836 I-46.9303 J70.2362
 X160.4784 Y41.3114 I-51.5326 J66.927
G01 X158.326 Y41.983
 X158.193 Y41.874
G02 X155.2755 Y39.4797 I-53.8375 J62.6262
 X150.8826 Y36.3318 I-50.2755 J65.5202
 X146.2932 Y33.478 I-45.8826 J68.6681
 X141.5271 Y30.9304 I-41.2932 J71.522
 X136.6045 Y28.7 I-36.5271 J74.0695
 X131.5466 Y26.7964 I-31.6045 J76.2999
 X126.375 Y25.2276 I-26.5465 J78.2036
 X121.1118 Y24.0004 I-21.3749 J79.7724
 X115.781 Y23.1203 I-16.1112 J80.9997
G01 X115.365 Y23.057
G02 X115.2911 Y22.7309 I-4.0370 J0.7501
 X115.0017 Y22.0540 I-3.9051 J1.2688
 X114.5962 Y21.4396 I-3.6158 J1.9457
 X114.242 Y21.0692 I-3.1391 J2.6468
G00 Z5.000
 X128.334 Y51.446
G00 Z0.500
G01 Z-6.300 F2540
 X129.206 Y51.050
 X129.232 Y51.038
 X129.259 Y51.026
 X130.474 Y50.474
 X132.843 Y49.399
 X137.560 Y47.712
 X142.408 Y46.284
 X147.332 Y45.005
 X148.067 Y44.820
 X152.276 Y43.762
 X157.183 Y42.445
 X158.330 Y42.087
 X160.597 Y41.379
 X161.999 Y40.941
 X162.740 Y40.656
 X166.668 Y39.141
 X171.134 Y36.931
 X175.341 Y34.201
 X178.711 Y31.289
 X175.799 Y34.659
 X173.069 Y38.866
 X170.859 Y43.332
 X169.344 Y47.260
 X169.059 Y48.001
 X168.621 Y49.403
 X167.913 Y51.670
 X167.555 Y52.817
 X166.238 Y57.724
 X165.180 Y61.933
 X164.995 Y62.668
 X163.716 Y67.592
 X162.288 Y72.440
 X160.601 Y77.157
 X159.526 Y79.526
 X158.974 Y80.741
 X158.962 Y80.768
 X158.950 Y80.794
 X158.544 Y81.688
 X158.299 Y82.102
 X158.053 Y82.518
 X158.008 Y82.595
 X157.547 Y83.373
 X157.271 Y83.841
 X156.994 Y84.309
 X156.006 Y85.977
 X155.251 Y86.940
 X154.697 Y87.646
 X153.234 Y89.512
 X152.875 Y89.969
 X150.766 Y91.971
 X149.041 Y93.609
 X147.971 Y94.353
 X144.698 Y96.628
 X144.391 Y96.842
 X138.814 Y99.612
 X132.198 Y101.863
 X124.431 Y103.541
 X119.917 Y104.065
 X115.398 Y104.589
 X113.909 Y104.912
 X114.115 Y104.721
 X116.108 Y102.877
 X118.022 Y101.397
 X120.659 Y101.091
 X123.962 Y100.708
 X131.431 Y99.095
 X137.710 Y96.958
 X142.927 Y94.367
 X147.225 Y91.379
 X149.587 Y89.137
 X150.748 Y88.034
 X152.018 Y86.416
 X153.083 Y85.057
 X153.633 Y84.355
 X154.051 Y83.650
 X154.636 Y82.662
 X155.131 Y81.824
 X155.929 Y80.476
 X155.997 Y80.361
 X156.357 Y79.567
 X157.941 Y76.080
 X159.560 Y71.551
 X160.951 Y66.826
 X162.217 Y61.957
 X163.462 Y57.003
 X164.801 Y52.017
 X166.349 Y47.056
 X168.487 Y41.513
 X162.944 Y43.651
 X157.983 Y45.199
 X152.997 Y46.538
 X148.043 Y47.783
 X143.174 Y49.049
 X138.449 Y50.440
 X133.920 Y52.059
 X130.433 Y53.643
 X129.639 Y54.003
 X129.524 Y54.071
 X128.176 Y54.869
 X127.338 Y55.364
 X126.350 Y55.949
 X125.645 Y56.367
 X124.943 Y56.917
 X123.584 Y57.982
 X121.966 Y59.252
 X120.863 Y60.413
 X118.621 Y62.775
 X115.633 Y67.073
 X113.042 Y72.290
 X110.905 Y78.569
 X109.292 Y86.038
 X108.909 Y89.341
 X108.603 Y91.978
 X107.123 Y93.892
 X105.279 Y95.885
 X105.088 Y96.091
 X105.411 Y94.602
 X105.935 Y90.083
 X106.459 Y85.569
 X108.137 Y77.802
 X110.388 Y71.186
 X113.158 Y65.609
 X113.372 Y65.302
 X115.647 Y62.029
 X116.391 Y60.959
 X118.029 Y59.234
 X120.031 Y57.125
 X120.488 Y56.766
 X122.354 Y55.303
 X123.060 Y54.749
 X124.023 Y53.994
 X125.691 Y53.006
 X126.159 Y52.729
 X126.627 Y52.453
 X127.407 Y51.991
 X127.478 Y51.939
 X127.897 Y51.701
 X128.334 Y51.446
G00 Z5.000
 X119.917 Y105.935
G00 Z0.500
G01 Z-6.300 F2540
 X124.431 Y106.459
 X132.198 Y108.137
 X138.814 Y110.388
 X144.391 Y113.158
 X144.698 Y113.372
 X147.971 Y115.647
 X149.041 Y116.391
 X150.766 Y118.029
 X152.875 Y120.031
 X153.234 Y120.488
 X154.697 Y122.354
 X155.251 Y123.060
 X156.006 Y124.023
 X156.994 Y125.691
 X157.271 Y126.159
 X157.547 Y126.627
 X158.008 Y127.405
 X158.053 Y127.482
 X158.299 Y127.898
 X158.554 Y128.334
 X158.950 Y129.206
 X158.962 Y129.232
 X158.974 Y129.259
 X159.526 Y130.474
 X160.601 Y132.843
 X162.288 Y137.560
 X163.716 Y142.408
 X164.995 Y147.332
 X165.180 Y148.067
 X166.238 Y152.276
 X167.555 Y157.183
 X167.913 Y158.330
 X168.621 Y160.597
 X169.059 Y161.999
 X169.344 Y162.740
 X170.859 Y166.668
 X173.069 Y171.134
 X175.799 Y175.341
 X178.711 Y178.711
 X175.341 Y175.799
 X171.134 Y173.069
 X166.668 Y170.859
 X162.740 Y169.344
 X161.999 Y169.059
 X160.597 Y168.621
 X158.330 Y167.913
 X157.183 Y167.555
 X152.276 Y166.238
 X148.067 Y165.180
 X147.332 Y164.995
 X142.408 Y163.716
 X137.560 Y162.288
 X132.843 Y160.601
 X130.474 Y159.526
 X129.259 Y158.974
 X129.232 Y158.962
 X129.206 Y158.950
 X128.312 Y158.544
 X127.898 Y158.299
 X127.482 Y158.053
 X127.405 Y158.008
 X126.627 Y157.547
 X126.159 Y157.271
 X125.691 Y156.994
 X124.023 Y156.006
 X123.060 Y155.251
 X122.354 Y154.697
 X120.488 Y153.234
 X120.031 Y152.875
 X118.029 Y150.766
 X116.391 Y149.041
 X115.647 Y147.971
 X113.372 Y144.698
 X113.158 Y144.391
 X110.388 Y138.814
 X108.137 Y132.198
 X106.459 Y124.431
 X105.935 Y119.917
 X105.411 Y115.398
 X105.088 Y113.909
 X105.279 Y114.115
 X107.123 Y116.108
 X108.603 Y118.022
 X108.909 Y120.659
 X109.292 Y123.962
 X110.905 Y131.431
 X113.042 Y137.710
 X115.633 Y142.927
 X118.621 Y147.225
 X120.863 Y149.587
 X121.966 Y150.748
 X123.584 Y152.018
 X124.943 Y153.083
 X125.645 Y153.633
 X126.350 Y154.051
 X127.338 Y154.636
 X128.176 Y155.131
 X129.524 Y155.929
 X129.639 Y155.997
 X130.433 Y156.357
 X133.920 Y157.941
 X138.449 Y159.560
 X143.174 Y160.951
 X148.043 Y162.217
 X152.997 Y163.462
 X157.983 Y164.801
 X162.944 Y166.349
 X168.487 Y168.487
 X166.349 Y162.944
 X164.801 Y157.983
 X163.462 Y152.997
 X162.217 Y148.043
 X160.951 Y143.174
 X159.560 Y138.449
 X157.941 Y133.920
 X156.357 Y130.433
 X155.997 Y129.639
 X155.929 Y129.524
 X155.131 Y128.176
 X154.636 Y127.338
 X154.051 Y126.350
 X153.633 Y125.645
 X153.083 Y124.943
 X152.018 Y123.584
 X150.748 Y121.966
 X149.587 Y120.863
 X147.225 Y118.621
 X142.927 Y115.633
 X137.710 Y113.042
 X131.431 Y110.905
 X123.962 Y109.292
 X120.659 Y108.909
 X118.022 Y108.603
 X116.108 Y107.123
 X114.115 Y105.279
 X113.909 Y105.088
 X115.398 Y105.411
 X119.917 Y105.935
G00 Z5.000
 X104.912 Y113.909
G00 Z0.500
G01 Z-6.300 F2540
 X104.589 Y115.398
 X104.065 Y119.917
 X103.541 Y124.431
 X101.863 Y132.198
 X99.612 Y138.814
 X96.842 Y144.391
 X96.628 Y144.698
 X94.353 Y147.971
 X93.609 Y149.041
 X91.971 Y150.766
 X89.969 Y152.875
 X89.512 Y153.234
 X87.646 Y154.697
 X86.940 Y155.251
 X85.977 Y156.006
 X84.309 Y156.994
 X83.841 Y157.271
 X83.373 Y157.547
 X82.593 Y158.009
 X82.522 Y158.061
 X82.102 Y158.299
 X81.688 Y158.544
 X80.794 Y158.950
 X80.768 Y158.962
 X80.741 Y158.974
 X79.526 Y159.526
 X77.157 Y160.601
 X72.440 Y162.288
 X67.592 Y163.716
 X62.668 Y164.995
 X61.933 Y165.180
 X57.724 Y166.238
 X52.817 Y167.555
 X51.670 Y167.913
 X49.403 Y168.621
 X48.001 Y169.059
 X47.260 Y169.344
 X43.332 Y170.859
 X38.866 Y173.069
 X34.659 Y175.799
 X31.289 Y178.711
 X34.201 Y175.341
 X36.931 Y171.134
 X39.141 Y166.668
 X40.656 Y162.740
 X40.941 Y161.999
 X41.379 Y160.597
 X42.087 Y158.330
 X42.445 Y157.183
 X43.762 Y152.276
 X44.820 Y148.067
 X45.005 Y147.332
 X46.284 Y142.408
 X47.712 Y137.560
 X49.399 Y132.843
 X50.474 Y130.474
 X51.026 Y129.259
 X51.038 Y129.232
 X51.050 Y129.206
 X51.449 Y128.324
 X51.701 Y127.898
 X51.939 Y127.478
 X51.991 Y127.407
 X52.453 Y126.627
 X52.729 Y126.159
 X53.006 Y125.691
 X53.994 Y124.023
 X54.749 Y123.060
 X55.303 Y122.354
 X56.766 Y120.488
 X57.125 Y120.031
 X59.234 Y118.029
 X60.959 Y116.391
 X62.029 Y115.647
 X65.302 Y113.372
 X65.609 Y113.158
 X71.186 Y110.388
 X77.802 Y108.137
 X85.569 Y106.459
 X90.083 Y105.935
 X94.602 Y105.411
 X96.091 Y105.088
 X95.885 Y105.279
 X93.892 Y107.123
 X91.978 Y108.603
 X89.341 Y108.909
 X86.038 Y109.292
 X78.569 Y110.905
 X72.290 Y113.042
 X67.073 Y115.633
 X62.775 Y118.621
 X60.413 Y120.863
 X59.252 Y121.966
 X57.982 Y123.584
 X56.917 Y124.943
 X56.367 Y125.645
 X55.949 Y126.350
 X55.364 Y127.338
 X54.869 Y128.176
 X54.071 Y129.524
 X54.003 Y129.639
 X53.643 Y130.433
 X52.059 Y133.920
 X50.440 Y138.449
 X49.049 Y143.174
 X47.783 Y148.043
 X46.538 Y152.997
 X45.199 Y157.983
 X43.651 Y162.944
 X41.513 Y168.487
 X47.056 Y166.349
 X52.017 Y164.801
 X57.003 Y163.462
 X61.957 Y162.217
 X66.826 Y160.951
 X71.551 Y159.560
 X76.080 Y157.941
 X79.567 Y156.357
 X80.361 Y155.997
 X80.476 Y155.929
 X81.824 Y155.131
 X82.662 Y154.636
 X83.650 Y154.051
 X84.355 Y153.633
 X85.057 Y153.083
 X86.416 Y152.018
 X88.034 Y150.748
 X89.137 Y149.587
 X91.379 Y147.225
 X94.367 Y142.927
 X96.958 Y137.710
 X99.095 Y131.431
 X100.708 Y123.962
 X101.091 Y120.659
 X101.397 Y118.022
 X102.877 Y116.108
 X104.721 Y114.115
 X104.912 Y113.909
G00 Z5.000
 X41.874 Y158.193
G00 Z0.500
G01 Z-6.300 F2540
 X41.983 Y158.326
 X41.311 Y160.478
G02 X37.9836 Y156.4235 I63.5992 J-55.5875
 X34.7638 Y151.9303 I67.0164 J-51.4235
 X31.8448 Y147.2362 I70.2362 J-46.9303
 X29.2391 Y142.3612 I73.1552 J-42.2362
 X26.9578 Y137.3262 I75.7609 J-37.3612
 X25.0106 Y132.1527 I78.0422 J-32.3262
 X23.406 Y126.863 I79.9894 J-27.1527
 X22.1508 Y121.4797 I81.594 J-21.863
 X21.2504 Y116.0258 I82.8492 J-16.4797
 X21.0853 Y114.3503 I83.9598 J-9.1152
G01 X21.069 Y114.242
G02 X21.4396 Y114.5962 I3.0172 J-2.785
 X22.0540 Y115.0017 I2.5601 J-3.2103
 X22.7309 Y115.2911 I1.9458 J-3.6158
 X23.0566 Y115.3654 I1.0758 J-3.9626
G01 X23.120 Y115.781
G02 X24.0004 Y121.1118 I81.8798 J-10.7804
 X25.2276 Y126.375 I80.9996 J-16.1118
 X26.7964 Y131.5466 I79.7724 J-21.3749
 X28.7 Y136.6045 I78.2036 J-26.5465
 X30.9304 Y141.5271 I76.2999 J-31.6045
 X33.478 Y146.2932 I74.0695 J-36.5271
 X36.3318 Y150.8826 I71.522 J-41.2932
 X39.4797 Y155.2755 I68.6681 J-45.8826
 X41.8743 Y158.1932 I65.0208 J-50.9197
G00 Z5.000
 X41.242 Y160.551
G00 Z0.500
G01 Z-6.300 F2540
 X41.276 Y160.593
 X40.847 Y161.967
 X40.591 Y162.629
G02 X40.0028 Y162.0010 I62.7937 J-59.4024
 X36.4139 Y157.628 I64.9972 J-57.0010
 X33.1187 Y153.0295 I68.5861 J-52.628
 X30.1313 Y148.2254 I71.8813 J-48.0295
 X27.4646 Y143.2363 I74.8687 J-43.2254
 X25.1298 Y138.0833 I77.5354 J-38.2363
 X23.137 Y132.7887 I79.8702 J-33.0833
 X21.4949 Y127.3751 I81.863 J-27.7887
 X20.2102 Y121.8657 I83.5051 J-22.3751
 X19.2887 Y116.2841 I84.7898 J-16.8657
 X18.9744 Y113.0934 I85.8401 J-10.0654
 X19.249 Y113.2107 I1.75 J-3.7145
 X19.9667 Y113.3745 I1.2689 J-3.9051
 X20.4283 Y113.3952 I0.4147 J-4.0851
G03 X20.4748 Y113.4919 I3.7224 J-1.7331
 X20.9075 Y114.0874 I3.5249 J-2.106
 X20.9513 Y114.1293 I2.8594 J-2.9468
G01 X20.986 Y114.363
G02 X21.1512 Y116.0389 I84.2435 J-7.451
 X22.0527 Y121.4993 I83.8488 J-11.0389
 X23.3094 Y126.8889 I82.9473 J-16.4992
 X24.9159 Y132.1849 I81.6906 J-21.8889
 X26.8653 Y137.3644 I80.0841 J-27.1849
 X29.1493 Y142.4054 I78.1347 J-32.3644
 X31.7582 Y147.2862 I75.8506 J-37.4054
 X34.6806 Y151.9859 I73.2418 J-42.2862
 X37.9042 Y156.4844 I70.3193 J-46.9859
 X41.2417 Y160.5511 I67.0124 J-51.5928
G00 Z5.000
 X47.371 Y169.409
G00 Z0.500
G01 Z-6.300 F2540
 X48.033 Y169.153
 X49.407 Y168.724
 X49.449 Y168.758
G02 X53.5156 Y172.0958 I55.6595 J-63.675
 X58.0141 Y175.3194 I51.4844 J-67.0958
 X62.7138 Y178.2418 I46.9859 J-70.3193
 X67.5946 Y180.8507 I42.2862 J-73.2418
 X72.6356 Y183.1347 I37.4054 J-75.8506
 X77.8151 Y185.0841 I32.3644 J-78.1347
 X83.1111 Y186.6906 I27.1849 J-80.0841
 X88.5007 Y187.9473 I21.8889 J-81.6906
 X93.9611 Y188.8488 I16.4992 J-82.9473
 X95.6374 Y189.0139 I9.1273 J-84.0784
G01 X95.871 Y189.049
G03 X95.9126 Y189.0925 I2.9887 J-2.8156
 X96.5081 Y189.5252 I2.7016 J-3.0922
 X96.6048 Y189.5717 I1.8297 J-3.6759
G02 X96.6255 Y190.0333 I4.1058 J0.0469
 X96.7893 Y190.751 I4.0689 J-0.5512
 X96.9066 Y191.0256 I3.8318 J-1.4755
 X93.7159 Y190.7113 I6.8746 J-86.1543
 X88.1343 Y189.7898 I11.2841 J-85.7113
 X82.6249 Y188.5051 I16.8657 J-84.7898
 X77.2113 Y186.863 I22.3751 J-83.5051
 X71.9167 Y184.8702 I27.7887 J-81.863
 X66.7637 Y182.5354 I33.0833 J-79.8702
 X61.7746 Y179.8687 I38.2363 J-77.5354
 X56.9705 Y176.8813 I43.2254 J-74.8687
 X52.372 Y173.5861 I48.0295 J-71.8813
 X47.999 Y169.9972 I52.628 J-68.5861
 X47.3706 Y169.4087 I58.7741 J-63.3821
G00 Z5.000
 X49.522 Y168.689
G00 Z0.500
G01 Z-6.300 F2540
 X51.674 Y168.017
 X51.807 Y168.126
G02 X54.7245 Y170.5203 I53.8375 J-62.6262
 X59.1174 Y173.6682 I50.2755 J-65.5202
 X63.7068 Y176.522 I45.8826 J-68.6681
 X68.4729 Y179.0696 I41.2932 J-71.522
 X73.3955 Y181.3 I36.5271 J-74.0695
 X78.4534 Y183.2036 I31.6045 J-76.2999
 X83.625 Y184.7724 I26.5465 J-78.2036
 X88.8882 Y185.9996 I21.3749 J-79.7724
 X94.219 Y186.8797 I16.1112 J-80.9997
G01 X94.635 Y186.943
G02 X94.7089 Y187.2691 I4.0370 J-0.7501
 X94.9983 Y187.946 I3.9051 J-1.2688
 X95.4038 Y188.5604 I3.6158 J-1.9457
 X95.758 Y188.9308 I3.1391 J-2.6468
G01 X95.650 Y188.915
G02 X93.9742 Y188.7496 I7.4397 J-84.1248
 X88.5203 Y187.8492 I11.0258 J-83.7496
 X83.137 Y186.594 I16.4797 J-82.8492
 X77.8473 Y184.9894 I21.863 J-81.594
 X72.6738 Y183.0422 I27.1527 J-79.9894
 X67.6388 Y180.7609 I32.3262 J-78.0422
 X62.7638 Y178.1552 I37.3612 J-75.7609
 X58.0697 Y175.2362 I42.2362 J-73.1552
 X53.5765 Y172.0164 I46.9303 J-70.2362
 X49.5216 Y168.6886 I51.5326 J-66.927
G00 Z5.000
 X113.395 Y189.572
G00 Z0.500
G01 Z-6.300 F2540
G03 X113.4919 Y189.5252 I-1.7331 J-3.7224
 X114.0874 Y189.0925 I-2.106 J-3.5249
 X114.1293 Y189.0487 I-2.9468 J-2.8594
G01 X114.363 Y189.014
G02 X116.0389 Y188.8488 I-7.451 J-84.2435
 X121.4993 Y187.9473 I-11.0389 J-83.8488
 X126.8889 Y186.6906 I-16.4992 J-82.9473
 X132.1849 Y185.0841 I-21.8889 J-81.6906
 X137.3644 Y183.1347 I-27.1849 J-80.0841
 X142.4054 Y180.8507 I-32.3644 J-78.1347
 X147.2862 Y178.2418 I-37.4054 J-75.8506
 X151.9859 Y175.3194 I-42.2862 J-73.2418
 X156.4844 Y172.0958 I-46.9859 J-70.3193
 X160.5511 Y168.7583 I-51.5928 J-67.0124
G01 X160.593 Y168.724
 X161.967 Y169.153
 X162.629 Y169.409
G02 X162.0010 Y169.9972 I-59.4024 J-62.7937
 X157.628 Y173.5861 I-57.0010 J-64.9972
 X153.0295 Y176.8813 I-52.628 J-68.5861
 X148.2254 Y179.8687 I-48.0295 J-71.8813
 X143.2363 Y182.5354 I-43.2254 J-74.8687
 X138.0833 Y184.8702 I-38.2363 J-77.5354
 X132.7887 Y186.863 I-33.0833 J-79.8702
 X127.3751 Y188.5051 I-27.7887 J-81.863
 X121.8657 Y189.7898 I-22.3751 J-83.5051
 X116.2841 Y190.7113 I-16.8657 J-84.7898
 X113.0934 Y191.0256 I-10.0654 J-85.8401
 X113.2107 Y190.751 I-3.7145 J-1.75
 X113.3745 Y190.0333 I-3.9051 J-1.2689
 X113.3952 Y189.5717 I-4.0851 J-0.4147
G00 Z5.000
 X114.350 Y188.915
G00 Z0.500
G01 Z-6.300 F2540
 X114.242 Y188.931
G02 X114.5962 Y188.5604 I-2.785 J-3.0172
 X115.0017 Y187.946 I-3.2103 J-2.5601
 X115.2911 Y187.2691 I-3.6158 J-1.9458
 X115.3654 Y186.9434 I-3.9626 J-1.0758
G01 X115.781 Y186.880
G02 X121.1118 Y185.9996 I-10.7804 J-81.8798
 X126.375 Y184.7724 I-16.1118 J-80.9996
 X131.5466 Y183.2036 I-21.3749 J-79.7724
 X136.6045 Y181.3 I-26.5465 J-78.2036
 X141.5271 Y179.0696 I-31.6045 J-76.2999
 X146.2932 Y176.522 I-36.5271 J-74.0695
 X150.8826 Y173.6682 I-41.2932 J-71.522
 X155.2755 Y170.5203 I-45.8826 J-68.6681
 X158.1932 Y168.1257 I-50.9197 J-65.0208
G01 X158.326 Y168.017
 X160.478 Y168.689
G02 X156.4235 Y172.0164 I-55.5875 J-63.5992
 X151.9303 Y175.2362 I-51.4235 J-67.0164
 X147.2362 Y178.1552 I-46.9303 J-70.2362
 X142.3612 Y180.7609 I-42.2362 J-73.1552
 X137.3262 Y183.0422 I-37.3612 J-75.7609
 X132.1527 Y184.9894 I-32.3262 J-78.0422
 X126.863 Y186.594 I-27.1527 J-79.9894
 X121.4797 Y187.8492 I-21.863 J-81.594
 X116.0258 Y188.7496 I-16.4797 J-82.8492
 X114.3503 Y188.9147 I-9.1152 J-83.9598
G00 Z5.000
 X168.689 Y160.478
G00 Z0.500
G01 Z-6.300 F2540
 X168.017 Y158.326
 X168.126 Y158.193
G02 X170.5203 Y155.2755 I-62.6262 J-53.8375
 X173.6682 Y150.8826 I-65.5202 J-50.2755
 X176.522 Y146.2932 I-68.6681 J-45.8826
 X179.0696 Y141.5271 I-71.522 J-41.2932
 X181.3 Y136.6045 I-74.0695 J-36.5271
 X183.2036 Y131.5466 I-76.2999 J-31.6045
 X184.7724 Y126.375 I-78.2036 J-26.5465
 X185.9996 Y121.1118 I-79.7724 J-21.3749
 X186.8797 Y115.781 I-80.9997 J-16.1112
G01 X186.943 Y115.365
G02 X187.2691 Y115.2911 I-0.7501 J-4.0370
 X187.946 Y115.0017 I-1.2688 J-3.9051
 X188.5604 Y114.5962 I-1.9457 J-3.6158
 X188.9308 Y114.242 I-2.6468 J-3.1391
G01 X188.915 Y114.350
G02 X188.7496 Y116.0258 I-84.1248 J-7.4397
 X187.8492 Y121.4797 I-83.7496 J-11.0258
 X186.594 Y126.863 I-82.8492 J-16.4797
 X184.9894 Y132.1527 I-81.594 J-21.863
 X183.0422 Y137.3262 I-79.9894 J-27.1527
 X180.7609 Y142.3612 I-78.0422 J-32.3262
 X178.1552 Y147.2362 I-75.7609 J-37.3612
 X175.2362 Y151.9303 I-73.1552 J-42.2362
 X172.0164 Y156.4235 I-70.2362 J-46.9303
 X168.6886 Y160.4784 I-66.927 J-51.5326
G00 Z5.000
 X168.724 Y160.593
G00 Z0.500
G01 Z-6.300 F2540
 X168.758 Y160.551
G02 X172.0958 Y156.4844 I-63.675 J-55.6595
 X175.3194 Y151.9859 I-67.0958 J-51.4844
 X178.2418 Y147.2862 I-70.3193 J-46.9859
 X180.8507 Y142.4054 I-73.2418 J-42.2862
 X183.1347 Y137.3644 I-75.8506 J-37.4054
 X185.0841 Y132.1849 I-78.1347 J-32.3644
 X186.6906 Y126.8889 I-80.0841 J-27.1849
 X187.9473 Y121.4993 I-81.6906 J-21.8889
 X188.8488 Y116.0389 I-82.9473 J-16.4992
 X189.0139 Y114.3626 I-84.0784 J-9.1273
G01 X189.049 Y114.129
G03 X189.0925 Y114.0874 I-2.8156 J-2.9887
 X189.5252 Y113.4919 I-3.0922 J-2.7016
 X189.5717 Y113.3952 I-3.6759 J-1.8297
G02 X190.0333 Y113.3745 I0.0469 J-4.1058
 X190.751 Y113.2107 I-0.5512 J-4.0689
 X191.0256 Y113.0934 I-1.4755 J-3.8318
 X190.7113 Y116.2841 I-86.1543 J-6.8746
 X189.7898 Y121.8657 I-85.7113 J-11.2841
 X188.5051 Y127.3751 I-84.7898 J-16.8657
 X186.863 Y132.7887 I-83.5051 J-22.3751
 X184.8702 Y138.0833 I-81.863 J-27.7887
 X182.5354 Y143.2363 I-79.8702 J-33.0833
 X179.8687 Y148.2254 I-77.5354 J-38.2363
 X176.8813 Y153.0295 I-74.8687 J-43.2254
 X173.5861 Y157.628 I-71.8813 J-48.0295
 X169.9972 Y162.0010 I-68.5861 J-52.628
 X169.4087 Y162.6294 I-63.3821 J-58.7741
G01 X169.153 Y161.967
 X168.724 Y160.593
G00 Z5.000
 X188.931 Y95.758
G00 Z0.500
G01 Z-6.300 F2540
G02 X188.5604 Y95.4038 I-3.0172 J2.785
 X187.946 Y94.9983 I-2.5601 J3.2103
 X187.2691 Y94.7089 I-1.9458 J3.6158
 X186.9434 Y94.6346 I-1.0758 J3.9626
G01 X186.880 Y94.219
G02 X185.9996 Y88.8882 I-81.8798 J10.7804
 X184.7724 Y83.625 I-80.9996 J16.1118
 X183.2036 Y78.4534 I-79.7724 J21.3749
 X181.3 Y73.3955 I-78.2036 J26.5465
 X179.0696 Y68.4729 I-76.2999 J31.6045
 X176.522 Y63.7068 I-74.0695 J36.5271
 X173.6682 Y59.1174 I-71.522 J41.2932
 X170.5203 Y54.7245 I-68.6681 J45.8826
 X168.1257 Y51.8068 I-65.0208 J50.9197
G01 X168.017 Y51.674
 X168.689 Y49.522
G02 X172.0164 Y53.5765 I-63.5992 J55.5875
 X175.2362 Y58.0697 I-67.0164 J51.4235
 X178.1552 Y62.7638 I-70.2362 J46.9303
 X180.7609 Y67.6388 I-73.1552 J42.2362
 X183.0422 Y72.6738 I-75.7609 J37.3612
 X184.9894 Y77.8473 I-78.0422 J32.3262
 X186.594 Y83.137 I-79.9894 J27.1527
 X187.8492 Y88.5203 I-81.594 J21.863
 X188.7496 Y93.9742 I-82.8492 J16.4797
 X188.9147 Y95.6497 I-83.9598 J9.1152
G01 X188.931 Y95.758
G00 Z5.000
 X189.093 Y95.913
G00 Z0.500
G01 Z-6.300 F2540
G03 X189.0487 Y95.8707 I-2.8594 J2.9468
G01 X189.014 Y95.637
G02 X188.8488 Y93.9611 I-84.2435 J7.451
 X187.9473 Y88.5007 I-83.8488 J11.0389
 X186.6906 Y83.1111 I-82.9473 J16.4992
 X185.0841 Y77.8151 I-81.6906 J21.8889
 X183.1347 Y72.6356 I-80.0841 J27.1849
 X180.8507 Y67.5946 I-78.1347 J32.3644
 X178.2418 Y62.7138 I-75.8506 J37.4054
 X175.3194 Y58.0141 I-73.2418 J42.2862
 X172.0958 Y53.5156 I-70.3193 J46.9859
 X168.7583 Y49.4489 I-67.0124 J51.5928
G01 X168.724 Y49.407
 X169.153 Y48.033
 X169.409 Y47.371
G02 X169.9972 Y47.999 I-62.7937 J59.4024
 X173.5861 Y52.372 I-64.9972 J57.0010
 X176.8813 Y56.9705 I-68.5861 J52.628
 X179.8687 Y61.7746 I-71.8813 J48.0295
 X182.5354 Y66.7637 I-74.8687 J43.2254
 X184.8702 Y71.9167 I-77.5354 J38.2363
 X186.863 Y77.2113 I-79.8702 J33.0833
 X188.5051 Y82.6249 I-81.863 J27.7887
 X189.7898 Y88.1343 I-83.5051 J22.3751
 X190.7113 Y93.7159 I-84.7898 J16.8657
 X191.0256 Y96.9066 I-85.8401 J10.0654
 X190.751 Y96.7893 I-1.75 J3.7145
 X190.0333 Y96.6255 I-1.2689 J3.9051
 X189.5717 Y96.6048 I-0.4147 J4.0851
G03 X189.5252 Y96.5081 I-3.7224 J1.7331
 X189.0925 Y95.9126 I-3.5249 J2.106
G00 Z5.000
G00 X0 Y0 (home)
M05
M30
%
