%
(Generated by SketchUcam V1.4d-80c0152)
(File: cnc.skp)
(Bit diameter: 0,1mm)
(Feed rate: 2540,0mm/min)
(Material Thickness: 6,3mm)
(Material length: 210,0mm X width: 210,0mm)
(Overhead Gantry: false)
(Plunge Depth first)
(Optimization is ON)
(www.PhlatBoyz.com)
G90 G21 G49 G17 F2540
M3 S15000
G00 Z5.000
 X41.687 Y41.687
G00 Z0.500
G01 Z-6.300 F2540
 X47.023 Y43.745
 X51.989 Y45.296
 X56.978 Y46.635
 X61.933 Y47.880
 X66.799 Y49.145
 X71.521 Y50.535
 X76.043 Y52.152
 X79.526 Y53.734
 X80.315 Y54.092
 X80.425 Y54.157
 X81.773 Y54.955
 X82.611 Y55.450
 X83.599 Y56.035
 X84.299 Y56.449
 X84.995 Y56.996
 X86.354 Y58.061
 X87.967 Y59.326
 X89.064 Y60.482
 X91.301 Y62.838
 X94.280 Y67.124
 X96.866 Y72.329
 X98.999 Y78.596
 X100.609 Y86.054
 X100.992 Y89.353
 X101.279 Y91.825
 X97.904 Y87.461
 X97.881 Y87.423
 X97.777 Y86.523
 X96.230 Y79.363
 X94.212 Y73.434
 X91.806 Y68.588
 X89.123 Y64.730
 X89.071 Y64.655
 X86.072 Y61.495
 X86.031 Y61.453
 X83.283 Y59.297
 X82.677 Y58.822
 X78.988 Y56.639
 X74.965 Y54.813
 X70.632 Y53.263
 X66.033 Y51.909
 X61.222 Y50.659
 X56.256 Y49.410
 X46.898 Y46.898
 X49.410 Y56.256
 X50.659 Y61.222
 X51.909 Y66.033
 X53.263 Y70.632
 X54.813 Y74.965
 X56.639 Y78.988
 X58.822 Y82.677
 X59.297 Y83.283
 X61.453 Y86.031
 X61.495 Y86.072
 X64.655 Y89.071
 X64.730 Y89.123
 X68.588 Y91.806
 X73.434 Y94.212
 X79.363 Y96.230
 X86.523 Y97.777
 X87.423 Y97.881
 X87.461 Y97.904
 X91.825 Y101.279
 X89.353 Y100.992
 X86.054 Y100.609
 X78.596 Y98.999
 X72.329 Y96.866
 X67.124 Y94.280
 X62.838 Y91.301
 X60.482 Y89.064
 X59.326 Y87.967
 X58.061 Y86.354
 X56.996 Y84.995
 X56.449 Y84.299
 X56.035 Y83.599
 X55.450 Y82.611
 X54.955 Y81.773
 X54.157 Y80.425
 X54.092 Y80.315
 X53.734 Y79.526
 X52.152 Y76.043
 X50.535 Y71.521
 X49.145 Y66.799
 X47.880 Y61.933
 X46.635 Y56.978
 X45.296 Y51.989
 X43.745 Y47.023
 X41.687 Y41.687
G00 Z5.000
 X50.944 Y84.847
G00 Z0.500
G01 Z-6.300 F2540
 X50.999 Y84.850
 X51.926 Y84.631
 X52.939 Y84.391
 X53.911 Y86.034
 X54.622 Y86.940
 X51.813 Y87.605
 X47.336 Y89.166
 X42.981 Y91.102
 X38.734 Y93.315
 X34.579 Y95.700
 X30.500 Y98.153
 X26.476 Y100.565
 X22.480 Y102.828
 X18.479 Y104.827
 X18.045 Y105.000
 X18.479 Y105.173
 X22.480 Y107.172
 X26.476 Y109.435
 X30.500 Y111.847
 X34.579 Y114.300
 X38.734 Y116.685
 X42.981 Y118.898
 X47.336 Y120.834
 X51.813 Y122.395
 X54.622 Y123.060
 X53.911 Y123.966
 X52.939 Y125.609
 X51.926 Y125.369
 X51.008 Y125.152
 X50.959 Y125.135
 X50.025 Y124.809
 X49.075 Y124.478
 X48.141 Y124.152
 X47.209 Y123.827
 X46.280 Y123.503
 X45.297 Y123.060
 X44.310 Y122.622
 X43.409 Y122.223
 X42.497 Y121.844
 X41.736 Y121.483
 X41.588 Y121.406
 X40.701 Y120.943
 X39.801 Y120.475
 X38.894 Y120.003
 X38.038 Y119.556
 X38.003 Y119.538
 X37.357 Y119.202
 X37.108 Y119.059
 X36.216 Y118.547
 X35.345 Y118.047
 X34.485 Y117.553
 X33.613 Y117.052
 X33.126 Y116.773
 X32.760 Y116.553
 X31.912 Y116.043
 X30.995 Y115.492
 X30.073 Y114.937
 X29.221 Y114.425
 X29.024 Y114.306
 X28.369 Y113.914
 X27.517 Y113.403
 X26.668 Y112.894
 X25.819 Y112.385
 X25.032 Y111.913
 X24.968 Y111.877
 X24.024 Y111.342
 X23.090 Y110.813
 X22.227 Y110.324
 X21.364 Y109.836
 X21.132 Y109.704
 X20.482 Y109.380
 X19.591 Y108.951
 X18.713 Y108.496
 X17.827 Y108.054
 X17.305 Y107.792
 X17.075 Y107.701
 X16.847 Y107.610
 X15.852 Y107.213
 X14.929 Y106.845
 X14.005 Y106.477
 X13.531 Y106.288
 X13.060 Y106.164
 X12.103 Y105.912
 X11.146 Y105.660
 X10.189 Y105.407
 X9.793 Y105.303
 X9.116 Y105.239
 X8.012 Y105.134
 X7.027 Y105.041
 X6.600 Y105.000
 X7.027 Y104.959
 X8.012 Y104.866
 X9.116 Y104.761
 X9.793 Y104.697
 X10.189 Y104.593
 X11.146 Y104.340
 X12.103 Y104.088
 X13.060 Y103.836
 X13.531 Y103.712
 X14.005 Y103.523
 X14.929 Y103.155
 X15.852 Y102.787
 X16.847 Y102.390
 X17.075 Y102.299
 X17.305 Y102.208
 X17.827 Y101.946
 X18.713 Y101.504
 X19.598 Y101.062
 X20.483 Y100.620
 X21.132 Y100.296
 X21.364 Y100.164
 X22.227 Y99.676
 X23.090 Y99.187
 X24.010 Y98.666
 X24.968 Y98.123
 X25.032 Y98.087
 X25.819 Y97.615
 X26.668 Y97.106
 X27.517 Y96.597
 X28.369 Y96.086
 X29.024 Y95.694
 X29.221 Y95.575
 X30.072 Y95.063
 X31.004 Y94.527
 X31.913 Y93.957
 X32.760 Y93.447
 X33.126 Y93.227
 X33.613 Y92.948
 X34.471 Y92.455
 X35.345 Y91.953
 X36.216 Y91.453
 X37.108 Y90.941
 X37.357 Y90.798
 X38.003 Y90.462
 X38.038 Y90.444
 X38.894 Y89.997
 X39.801 Y89.525
 X40.701 Y89.057
 X41.569 Y88.604
 X41.608 Y88.584
 X41.735 Y88.518
 X42.506 Y88.176
 X43.409 Y87.776
 X44.310 Y87.378
 X45.297 Y86.940
 X46.280 Y86.497
 X47.209 Y86.173
 X48.141 Y85.848
 X49.075 Y85.522
 X50.026 Y85.191
 X50.944 Y84.847
G00 Z5.000
 X67.124 Y115.720
G00 Z0.500
G01 Z-6.300 F2540
 X72.329 Y113.134
 X78.596 Y111.001
 X86.054 Y109.391
 X89.353 Y109.008
 X91.825 Y108.721
 X87.461 Y112.096
 X87.423 Y112.119
 X86.523 Y112.223
 X79.363 Y113.770
 X73.434 Y115.788
 X68.588 Y118.194
 X64.730 Y120.877
 X64.655 Y120.929
 X61.495 Y123.928
 X61.453 Y123.969
 X59.297 Y126.717
 X58.822 Y127.323
 X56.639 Y131.012
 X54.813 Y135.035
 X53.263 Y139.368
 X51.909 Y143.967
 X50.659 Y148.778
 X49.410 Y153.744
 X46.898 Y163.102
 X56.256 Y160.590
 X61.222 Y159.341
 X66.033 Y158.091
 X70.632 Y156.737
 X74.965 Y155.187
 X78.988 Y153.361
 X82.677 Y151.178
 X83.283 Y150.703
 X86.031 Y148.547
 X86.072 Y148.505
 X89.071 Y145.345
 X89.123 Y145.270
 X91.806 Y141.412
 X94.212 Y136.566
 X96.230 Y130.637
 X97.777 Y123.477
 X97.881 Y122.577
 X97.904 Y122.539
 X101.279 Y118.175
 X100.992 Y120.647
 X100.609 Y123.946
 X98.999 Y131.404
 X96.866 Y137.671
 X94.280 Y142.876
 X91.301 Y147.162
 X89.064 Y149.518
 X87.967 Y150.674
 X86.354 Y151.939
 X84.995 Y153.004
 X84.299 Y153.551
 X83.599 Y153.965
 X82.611 Y154.550
 X81.773 Y155.045
 X80.425 Y155.843
 X80.315 Y155.908
 X79.526 Y156.266
 X76.043 Y157.848
 X71.521 Y159.465
 X66.799 Y160.855
 X61.933 Y162.120
 X56.978 Y163.365
 X51.989 Y164.704
 X47.023 Y166.255
 X41.687 Y168.313
 X43.745 Y162.977
 X45.296 Y158.011
 X46.635 Y153.022
 X47.880 Y148.067
 X49.145 Y143.201
 X50.535 Y138.479
 X52.152 Y133.957
 X53.734 Y130.474
 X54.092 Y129.685
 X54.157 Y129.575
 X54.955 Y128.227
 X55.450 Y127.389
 X56.035 Y126.401
 X56.449 Y125.701
 X56.996 Y125.005
 X58.061 Y123.646
 X59.326 Y122.033
 X60.482 Y120.936
 X62.838 Y118.699
 X67.124 Y115.720
G00 Z5.000
 X97.257 Y108.189
G00 Z0.500
G01 Z-6.300 F2540
 X100.493 Y105.195
 X100.704 Y105.000
 X100.493 Y104.805
 X97.257 Y101.811
 X99.560 Y101.891
 X101.663 Y101.964
 X101.975 Y101.975
 X101.964 Y101.663
 X101.891 Y99.560
 X101.811 Y97.257
 X104.805 Y100.493
 X105.000 Y100.704
 X105.195 Y100.493
 X108.189 Y97.257
 X108.109 Y99.560
 X108.036 Y101.663
 X108.025 Y101.975
 X108.337 Y101.964
 X110.440 Y101.891
 X112.743 Y101.811
 X109.507 Y104.805
 X109.296 Y105.000
 X109.507 Y105.195
 X112.743 Y108.189
 X110.440 Y108.109
 X108.337 Y108.036
 X108.025 Y108.025
 X108.036 Y108.337
 X108.109 Y110.440
 X108.189 Y112.743
 X105.195 Y109.507
 X105.000 Y109.296
 X104.805 Y109.507
 X101.811 Y112.743
 X101.891 Y110.440
 X101.964 Y108.337
 X101.975 Y108.025
 X101.663 Y108.036
 X99.560 Y108.109
 X97.257 Y108.189
G00 Z5.000
 X98.329 Y111.121
G00 Z0.500
G01 Z-6.300 F2540
 X95.292 Y111.227
 X95.036 Y111.236
 X93.154 Y111.454
 X93.020 Y111.470
 X87.661 Y112.067
 X92.028 Y108.690
 X93.957 Y107.199
 X95.953 Y105.352
 X96.334 Y105.000
 X95.953 Y104.648
 X93.957 Y102.801
 X92.028 Y101.310
 X87.661 Y97.933
 X93.020 Y98.530
 X93.154 Y98.546
 X95.036 Y98.764
 X95.292 Y98.773
 X98.329 Y98.879
 X98.899 Y98.899
 X98.879 Y98.329
 X98.773 Y95.292
 X98.764 Y95.036
 X98.546 Y93.154
 X98.530 Y93.020
 X97.933 Y87.661
 X101.310 Y92.028
 X102.801 Y93.957
 X104.648 Y95.953
 X105.000 Y96.334
 X105.352 Y95.953
 X107.199 Y93.957
 X108.690 Y92.028
 X112.067 Y87.661
 X111.470 Y93.020
 X111.454 Y93.154
 X111.236 Y95.036
 X111.227 Y95.292
 X111.121 Y98.329
 X111.101 Y98.899
 X111.671 Y98.879
 X114.708 Y98.773
 X114.964 Y98.764
 X116.846 Y98.546
 X116.980 Y98.530
 X122.339 Y97.933
 X117.972 Y101.310
 X116.043 Y102.801
 X114.047 Y104.648
 X113.666 Y105.000
 X114.047 Y105.352
 X116.043 Y107.199
 X117.972 Y108.690
 X122.339 Y112.067
 X116.980 Y111.470
 X116.846 Y111.454
 X114.964 Y111.236
 X114.708 Y111.227
 X111.671 Y111.121
 X111.101 Y111.101
 X111.121 Y111.671
 X111.227 Y114.708
 X111.236 Y114.964
 X111.454 Y116.846
 X111.470 Y116.980
 X112.067 Y122.339
 X108.690 Y117.972
 X107.199 Y116.043
 X105.352 Y114.047
 X105.000 Y113.666
 X104.648 Y114.047
 X102.801 Y116.043
 X101.310 Y117.972
 X97.933 Y122.339
 X98.530 Y116.980
 X98.546 Y116.846
 X98.764 Y114.964
 X98.773 Y114.708
 X98.879 Y111.671
 X98.899 Y111.101
 X98.329 Y111.121
G00 Z5.000
 X108.721 Y118.175
G00 Z0.500
G01 Z-6.300 F2540
 X112.096 Y122.539
 X112.119 Y122.577
 X112.223 Y123.477
 X113.770 Y130.637
 X115.788 Y136.566
 X118.194 Y141.412
 X120.877 Y145.270
 X120.929 Y145.345
 X123.928 Y148.505
 X123.969 Y148.547
 X126.717 Y150.703
 X127.323 Y151.178
 X131.012 Y153.361
 X135.035 Y155.187
 X139.368 Y156.737
 X143.967 Y158.091
 X148.778 Y159.341
 X153.744 Y160.590
 X163.102 Y163.102
 X160.590 Y153.744
 X159.341 Y148.778
 X158.091 Y143.967
 X156.737 Y139.368
 X155.187 Y135.035
 X153.361 Y131.012
 X151.178 Y127.323
 X150.703 Y126.717
 X148.547 Y123.969
 X148.505 Y123.928
 X145.345 Y120.929
 X145.270 Y120.877
 X141.412 Y118.194
 X136.566 Y115.788
 X130.637 Y113.770
 X123.477 Y112.223
 X122.577 Y112.119
 X122.539 Y112.096
 X118.175 Y108.721
 X120.647 Y109.008
 X123.946 Y109.391
 X131.404 Y111.001
 X137.671 Y113.134
 X142.876 Y115.720
 X147.162 Y118.699
 X149.518 Y120.936
 X150.674 Y122.033
 X151.939 Y123.646
 X153.004 Y125.005
 X153.551 Y125.701
 X153.965 Y126.401
 X154.550 Y127.389
 X155.045 Y128.227
 X155.843 Y129.575
 X155.908 Y129.685
 X156.266 Y130.474
 X157.848 Y133.957
 X159.465 Y138.479
 X160.855 Y143.201
 X162.120 Y148.067
 X163.365 Y153.022
 X164.704 Y158.011
 X166.255 Y162.977
 X168.313 Y168.313
 X162.977 Y166.255
 X158.011 Y164.704
 X153.022 Y163.365
 X148.067 Y162.120
 X143.201 Y160.855
 X138.479 Y159.465
 X133.957 Y157.848
 X130.474 Y156.266
 X129.685 Y155.908
 X129.575 Y155.843
 X128.227 Y155.045
 X127.389 Y154.550
 X126.401 Y153.965
 X125.701 Y153.551
 X125.005 Y153.004
 X123.646 Y151.939
 X122.033 Y150.674
 X120.936 Y149.518
 X118.699 Y147.162
 X115.720 Y142.876
 X113.134 Y137.671
 X111.001 Y131.404
 X109.391 Y123.946
 X109.008 Y120.647
 X108.721 Y118.175
G00 Z5.000
 X123.060 Y155.378
G00 Z0.500
G01 Z-6.300 F2540
 X123.966 Y156.089
 X125.609 Y157.061
 X125.369 Y158.074
 X125.152 Y158.992
 X125.135 Y159.041
 X124.809 Y159.975
 X124.478 Y160.925
 X124.152 Y161.859
 X123.827 Y162.791
 X123.503 Y163.720
 X123.060 Y164.703
 X122.622 Y165.690
 X122.224 Y166.591
 X121.824 Y167.494
 X121.482 Y168.265
 X121.406 Y168.412
 X120.943 Y169.299
 X120.475 Y170.199
 X120.003 Y171.106
 X119.556 Y171.962
 X119.538 Y171.997
 X119.202 Y172.643
 X119.059 Y172.892
 X118.547 Y173.784
 X118.047 Y174.655
 X117.545 Y175.529
 X117.052 Y176.387
 X116.773 Y176.874
 X116.553 Y177.240
 X116.043 Y178.087
 X115.473 Y178.996
 X114.937 Y179.928
 X114.425 Y180.779
 X114.306 Y180.976
 X113.914 Y181.631
 X113.403 Y182.483
 X112.894 Y183.332
 X112.385 Y184.181
 X111.913 Y184.968
 X111.877 Y185.032
 X111.334 Y185.990
 X110.813 Y186.910
 X110.324 Y187.773
 X109.836 Y188.636
 X109.704 Y188.868
 X109.380 Y189.518
 X108.951 Y190.409
 X108.496 Y191.287
 X108.054 Y192.173
 X107.792 Y192.695
 X107.701 Y192.925
 X107.610 Y193.153
 X107.213 Y194.148
 X106.845 Y195.071
 X106.477 Y195.995
 X106.288 Y196.469
 X106.164 Y196.940
 X105.912 Y197.897
 X105.660 Y198.854
 X105.407 Y199.811
 X105.303 Y200.207
 X105.239 Y200.884
 X105.134 Y201.988
 X105.041 Y202.973
 X105.000 Y203.400
 X104.959 Y202.973
 X104.866 Y201.988
 X104.761 Y200.884
 X104.697 Y200.207
 X104.593 Y199.811
 X104.340 Y198.854
 X104.088 Y197.897
 X103.836 Y196.940
 X103.712 Y196.469
 X103.523 Y195.995
 X103.155 Y195.071
 X102.787 Y194.148
 X102.390 Y193.153
 X102.299 Y192.925
 X102.208 Y192.695
 X101.946 Y192.173
 X101.504 Y191.287
 X101.062 Y190.402
 X100.620 Y189.517
 X100.296 Y188.868
 X100.164 Y188.636
 X99.676 Y187.773
 X99.187 Y186.910
 X98.666 Y185.990
 X98.123 Y185.032
 X98.087 Y184.968
 X97.615 Y184.181
 X97.106 Y183.332
 X96.597 Y182.483
 X96.086 Y181.631
 X95.694 Y180.976
 X95.575 Y180.779
 X95.063 Y179.927
 X94.508 Y179.005
 X93.957 Y178.088
 X93.447 Y177.240
 X93.227 Y176.874
 X92.948 Y176.387
 X92.447 Y175.515
 X91.953 Y174.655
 X91.453 Y173.784
 X90.941 Y172.892
 X90.798 Y172.643
 X90.462 Y171.997
 X90.444 Y171.962
 X89.997 Y171.106
 X89.525 Y170.199
 X89.057 Y169.299
 X88.594 Y168.412
 X88.518 Y168.265
 X88.176 Y167.494
 X87.776 Y166.591
 X87.378 Y165.690
 X86.940 Y164.703
 X86.497 Y163.720
 X86.173 Y162.791
 X85.848 Y161.859
 X85.517 Y160.909
 X85.191 Y159.975
 X84.865 Y159.041
 X84.848 Y158.992
 X84.631 Y158.074
 X84.391 Y157.061
 X86.034 Y156.089
 X86.940 Y155.378
 X87.605 Y158.187
 X89.166 Y162.664
 X91.102 Y167.019
 X93.315 Y171.266
 X95.700 Y175.421
 X98.153 Y179.500
 X100.565 Y183.524
 X102.828 Y187.520
 X104.827 Y191.521
 X105.000 Y191.955
 X105.173 Y191.521
 X107.172 Y187.520
 X109.435 Y183.524
 X111.847 Y179.500
 X114.300 Y175.421
 X116.685 Y171.266
 X118.898 Y167.019
 X120.834 Y162.664
 X122.395 Y158.187
 X123.060 Y155.378
G00 Z5.000
 X118.175 Y101.279
G00 Z0.500
G01 Z-6.300 F2540
 X122.539 Y97.904
 X122.577 Y97.881
 X123.477 Y97.777
 X130.637 Y96.230
 X136.566 Y94.212
 X141.412 Y91.806
 X145.270 Y89.123
 X145.345 Y89.071
 X148.505 Y86.072
 X148.547 Y86.031
 X150.703 Y83.283
 X151.178 Y82.677
 X153.361 Y78.988
 X155.187 Y74.965
 X156.737 Y70.632
 X158.091 Y66.033
 X159.341 Y61.222
 X160.590 Y56.256
 X163.102 Y46.898
 X153.744 Y49.410
 X148.778 Y50.659
 X143.967 Y51.909
 X139.368 Y53.263
 X135.035 Y54.813
 X131.012 Y56.639
 X127.323 Y58.822
 X126.717 Y59.297
 X123.969 Y61.453
 X123.928 Y61.495
 X120.929 Y64.655
 X120.877 Y64.730
 X118.194 Y68.588
 X115.788 Y73.434
 X113.770 Y79.363
 X112.223 Y86.523
 X112.119 Y87.423
 X112.096 Y87.461
 X108.721 Y91.825
 X109.008 Y89.353
 X109.391 Y86.054
 X111.001 Y78.596
 X113.134 Y72.329
 X115.720 Y67.124
 X118.699 Y62.838
 X120.936 Y60.482
 X122.033 Y59.326
 X123.646 Y58.061
 X125.005 Y56.996
 X125.701 Y56.449
 X126.401 Y56.035
 X127.389 Y55.450
 X128.227 Y54.955
 X129.575 Y54.157
 X129.685 Y54.092
 X130.474 Y53.734
 X133.957 Y52.152
 X138.479 Y50.535
 X143.201 Y49.145
 X148.067 Y47.880
 X153.022 Y46.635
 X158.011 Y45.296
 X162.977 Y43.745
 X168.313 Y41.687
 X166.255 Y47.023
 X164.704 Y51.989
 X163.365 Y56.978
 X162.120 Y61.933
 X160.855 Y66.799
 X159.465 Y71.521
 X157.848 Y76.043
 X156.266 Y79.526
 X155.908 Y80.315
 X155.843 Y80.425
 X155.045 Y81.773
 X154.550 Y82.611
 X153.965 Y83.599
 X153.551 Y84.299
 X153.004 Y84.995
 X151.939 Y86.354
 X150.674 Y87.967
 X149.518 Y89.064
 X147.162 Y91.301
 X142.876 Y94.280
 X137.671 Y96.866
 X131.404 Y98.999
 X123.946 Y100.609
 X120.647 Y100.992
 X118.175 Y101.279
G00 Z5.000
 X123.060 Y54.622
G00 Z0.500
G01 Z-6.300 F2540
 X122.395 Y51.813
 X120.834 Y47.336
 X118.898 Y42.981
 X116.685 Y38.734
 X114.300 Y34.579
 X111.847 Y30.500
 X109.435 Y26.476
 X107.172 Y22.480
 X105.173 Y18.479
 X105.000 Y18.045
 X104.827 Y18.479
 X102.828 Y22.480
 X100.565 Y26.476
 X98.153 Y30.500
 X95.700 Y34.579
 X93.315 Y38.734
 X91.102 Y42.981
 X89.166 Y47.336
 X87.605 Y51.813
 X86.940 Y54.622
 X86.034 Y53.911
 X84.391 Y52.939
 X84.631 Y51.926
 X84.848 Y51.008
 X84.865 Y50.959
 X85.191 Y50.025
 X85.522 Y49.075
 X85.848 Y48.141
 X86.173 Y47.209
 X86.497 Y46.280
 X86.940 Y45.297
 X87.378 Y44.310
 X87.777 Y43.409
 X88.156 Y42.497
 X88.517 Y41.736
 X88.584 Y41.608
 X88.604 Y41.569
 X89.057 Y40.701
 X89.525 Y39.801
 X89.997 Y38.894
 X90.444 Y38.038
 X90.462 Y38.003
 X90.798 Y37.357
 X90.941 Y37.108
 X91.453 Y36.216
 X91.953 Y35.345
 X92.455 Y34.471
 X92.948 Y33.613
 X93.227 Y33.126
 X93.447 Y32.760
 X93.957 Y31.912
 X94.508 Y30.995
 X95.063 Y30.073
 X95.575 Y29.221
 X95.694 Y29.024
 X96.086 Y28.369
 X96.597 Y27.517
 X97.106 Y26.668
 X97.615 Y25.819
 X98.087 Y25.032
 X98.123 Y24.968
 X98.658 Y24.024
 X99.187 Y23.090
 X99.676 Y22.227
 X100.164 Y21.364
 X100.296 Y21.132
 X100.620 Y20.482
 X101.049 Y19.591
 X101.504 Y18.713
 X101.946 Y17.827
 X102.208 Y17.305
 X102.299 Y17.075
 X102.390 Y16.847
 X102.787 Y15.852
 X103.155 Y14.929
 X103.523 Y14.005
 X103.712 Y13.531
 X103.840 Y13.044
 X104.088 Y12.103
 X104.340 Y11.146
 X104.593 Y10.189
 X104.697 Y9.793
 X104.761 Y9.116
 X104.866 Y8.012
 X104.959 Y7.027
 X105.000 Y6.600
 X105.041 Y7.027
 X105.134 Y8.012
 X105.239 Y9.116
 X105.303 Y9.793
 X105.407 Y10.189
 X105.660 Y11.146
 X105.912 Y12.103
 X106.164 Y13.060
 X106.288 Y13.531
 X106.477 Y14.005
 X106.845 Y14.929
 X107.213 Y15.852
 X107.610 Y16.847
 X107.701 Y17.075
 X107.792 Y17.305
 X108.054 Y17.827
 X108.496 Y18.713
 X108.951 Y19.591
 X109.380 Y20.482
 X109.704 Y21.132
 X109.836 Y21.364
 X110.324 Y22.227
 X110.813 Y23.090
 X111.342 Y24.024
 X111.877 Y24.968
 X111.913 Y25.032
 X112.385 Y25.819
 X112.894 Y26.668
 X113.395 Y27.505
 X113.914 Y28.369
 X114.306 Y29.024
 X114.425 Y29.221
 X114.937 Y30.073
 X115.492 Y30.995
 X116.043 Y31.912
 X116.553 Y32.760
 X116.773 Y33.126
 X117.052 Y33.613
 X117.545 Y34.471
 X118.047 Y35.345
 X118.547 Y36.216
 X119.059 Y37.108
 X119.202 Y37.357
 X119.538 Y38.003
 X119.556 Y38.038
 X120.003 Y38.894
 X120.475 Y39.801
 X120.943 Y40.701
 X121.406 Y41.588
 X121.482 Y41.735
 X121.824 Y42.506
 X122.224 Y43.409
 X122.622 Y44.310
 X123.060 Y45.297
 X123.503 Y46.280
 X123.827 Y47.209
 X124.152 Y48.141
 X124.478 Y49.075
 X124.809 Y50.026
 X125.153 Y50.944
 X125.150 Y50.999
 X125.369 Y51.926
 X125.609 Y52.939
 X123.966 Y53.911
 X123.060 Y54.622
G00 Z5.000
 X157.061 Y84.391
G00 Z0.500
G01 Z-6.300 F2540
 X158.074 Y84.631
 X158.992 Y84.848
 X159.041 Y84.865
 X159.975 Y85.191
 X160.925 Y85.522
 X161.859 Y85.848
 X162.791 Y86.173
 X163.720 Y86.497
 X164.703 Y86.940
 X165.690 Y87.378
 X166.591 Y87.776
 X167.494 Y88.176
 X168.265 Y88.518
 X168.412 Y88.594
 X169.299 Y89.057
 X170.199 Y89.525
 X171.106 Y89.997
 X171.962 Y90.444
 X171.997 Y90.462
 X172.643 Y90.798
 X172.892 Y90.941
 X173.784 Y91.453
 X174.655 Y91.953
 X175.529 Y92.455
 X176.387 Y92.948
 X176.874 Y93.227
 X177.240 Y93.447
 X178.087 Y93.957
 X178.996 Y94.527
 X179.928 Y95.063
 X180.779 Y95.575
 X180.976 Y95.694
 X181.631 Y96.086
 X182.483 Y96.597
 X183.332 Y97.106
 X184.181 Y97.615
 X184.968 Y98.087
 X185.032 Y98.123
 X185.990 Y98.666
 X186.910 Y99.187
 X187.773 Y99.676
 X188.636 Y100.164
 X188.868 Y100.296
 X189.518 Y100.620
 X190.409 Y101.049
 X191.287 Y101.504
 X192.173 Y101.946
 X192.695 Y102.208
 X192.925 Y102.299
 X193.153 Y102.390
 X194.148 Y102.787
 X195.071 Y103.155
 X195.995 Y103.523
 X196.469 Y103.712
 X196.956 Y103.840
 X197.897 Y104.088
 X198.854 Y104.340
 X199.811 Y104.593
 X200.207 Y104.697
 X200.884 Y104.761
 X201.988 Y104.866
 X202.973 Y104.959
 X203.400 Y105.000
 X202.973 Y105.041
 X201.988 Y105.134
 X200.884 Y105.239
 X200.207 Y105.303
 X199.811 Y105.407
 X198.854 Y105.660
 X197.897 Y105.912
 X196.956 Y106.160
 X196.469 Y106.288
 X195.995 Y106.477
 X195.071 Y106.845
 X194.148 Y107.213
 X193.153 Y107.610
 X192.925 Y107.701
 X192.695 Y107.792
 X192.173 Y108.054
 X191.287 Y108.496
 X190.402 Y108.938
 X189.517 Y109.380
 X188.868 Y109.704
 X188.636 Y109.836
 X187.773 Y110.324
 X186.910 Y110.813
 X185.976 Y111.342
 X185.032 Y111.877
 X184.968 Y111.913
 X184.181 Y112.385
 X183.332 Y112.894
 X182.483 Y113.403
 X181.631 Y113.914
 X180.976 Y114.306
 X180.779 Y114.425
 X179.927 Y114.937
 X179.005 Y115.492
 X178.088 Y116.043
 X177.240 Y116.553
 X176.874 Y116.773
 X176.387 Y117.052
 X175.515 Y117.553
 X174.655 Y118.047
 X173.784 Y118.547
 X172.892 Y119.059
 X172.643 Y119.202
 X171.997 Y119.538
 X171.962 Y119.556
 X171.106 Y120.003
 X170.199 Y120.475
 X169.299 Y120.943
 X168.431 Y121.396
 X168.392 Y121.416
 X168.265 Y121.482
 X167.494 Y121.824
 X166.591 Y122.224
 X165.690 Y122.622
 X164.703 Y123.060
 X163.720 Y123.503
 X162.791 Y123.827
 X161.859 Y124.152
 X160.909 Y124.483
 X159.975 Y124.809
 X159.041 Y125.135
 X158.992 Y125.152
 X158.074 Y125.369
 X157.061 Y125.609
 X156.089 Y123.966
 X155.378 Y123.060
 X158.187 Y122.395
 X162.664 Y120.834
 X167.019 Y118.898
 X171.266 Y116.685
 X175.421 Y114.300
 X179.500 Y111.847
 X183.524 Y109.435
 X187.520 Y107.172
 X191.521 Y105.173
 X191.955 Y105.000
 X191.521 Y104.827
 X187.520 Y102.828
 X183.524 Y100.565
 X179.500 Y98.153
 X175.421 Y95.700
 X171.266 Y93.315
 X167.019 Y91.102
 X162.664 Y89.166
 X158.187 Y87.605
 X155.378 Y86.940
 X156.089 Y86.034
 X157.061 Y84.391
G00 Z5.000
G00 X0 Y0 (home)
M05
M30
%
