%
(Generated by SketchUcam V1.4d-80c0152)
(File: cnc.skp)
(Bit diameter: 0,1mm)
(Feed rate: 2540,0mm/min)
(Material Thickness: 6,3mm)
(Material length: 210,0mm X width: 210,0mm)
(Overhead Gantry: false)
(Plunge Depth first)
(Optimization is ON)
(www.PhlatBoyz.com)
G90 G21 G49 G17 F2540
M3 S15000
G00 Z5.000
 X91.192 Y43.025
G00 Z0.500
G01 Z-6.300 F2540
 X93.402 Y38.782
 X95.786 Y34.630
 X98.239 Y30.551
 X100.652 Y26.526
 X102.916 Y22.527
 X104.918 Y18.520
 X105.000 Y18.315
 X105.082 Y18.520
 X107.084 Y22.527
 X109.348 Y26.526
 X111.761 Y30.551
 X114.214 Y34.630
 X116.598 Y38.782
 X118.808 Y43.025
 X120.741 Y47.373
 X122.299 Y51.841
 X122.973 Y54.690
 X122.292 Y55.224
 X120.488 Y56.639
 X119.543 Y52.646
 X118.072 Y48.429
 X116.223 Y44.271
 X114.081 Y40.159
 X111.741 Y36.083
 X109.303 Y32.028
 X106.870 Y27.970
 X105.000 Y24.667
 X103.130 Y27.970
 X100.697 Y32.028
 X98.259 Y36.083
 X95.919 Y40.159
 X93.777 Y44.271
 X91.928 Y48.429
 X90.457 Y52.646
 X89.512 Y56.639
 X87.708 Y55.224
 X87.027 Y54.690
 X87.701 Y51.841
 X89.259 Y47.373
 X91.192 Y43.025
G00 Z5.000
 X93.867 Y44.314
G00 Z0.500
G01 Z-6.300 F2540
 X96.006 Y40.207
 X98.345 Y36.133
 X100.783 Y32.079
 X103.216 Y28.021
 X105.000 Y24.870
 X106.784 Y28.021
 X109.217 Y32.079
 X111.655 Y36.133
 X113.994 Y40.207
 X116.133 Y44.314
 X117.979 Y48.466
 X119.446 Y52.674
 X120.401 Y56.707
 X119.963 Y57.050
 X118.020 Y59.098
 X117.618 Y57.399
 X116.690 Y53.478
 X115.310 Y49.523
 X113.548 Y45.560
 X111.477 Y41.583
 X109.182 Y37.586
 X106.758 Y33.556
 X105.000 Y30.623
 X103.242 Y33.556
 X100.818 Y37.586
 X98.523 Y41.583
 X96.452 Y45.560
 X94.690 Y49.523
 X93.310 Y53.478
 X92.382 Y57.399
 X91.980 Y59.098
 X90.037 Y57.050
 X89.599 Y56.707
 X90.554 Y52.674
 X92.021 Y48.466
 X93.867 Y44.314
G00 Z5.000
 X96.542 Y45.604
G00 Z0.500
G01 Z-6.300 F2540
 X98.611 Y41.632
 X100.904 Y37.637
 X103.327 Y33.607
 X105.000 Y30.817
 X106.673 Y33.607
 X109.096 Y37.637
 X111.389 Y41.632
 X113.458 Y45.604
 X115.217 Y49.560
 X116.594 Y53.506
 X117.520 Y57.422
 X117.938 Y59.184
 X116.313 Y60.896
 X115.629 Y61.880
 X114.730 Y58.082
 X113.837 Y54.311
 X112.548 Y50.616
 X110.874 Y46.850
 X108.873 Y43.008
 X106.623 Y39.090
 X105.000 Y36.391
 X103.377 Y39.090
 X101.127 Y43.008
 X99.126 Y46.850
 X97.452 Y50.616
 X96.163 Y54.311
 X95.270 Y58.082
 X94.371 Y61.880
 X93.687 Y60.896
 X92.062 Y59.184
 X92.480 Y57.422
 X93.406 Y53.506
 X94.783 Y49.560
 X96.542 Y45.604
G00 Z5.000
 X148.120 Y94.371
G00 Z0.500
G01 Z-6.300 F2540
 X149.104 Y93.687
 X150.816 Y92.062
 X152.578 Y92.480
 X156.494 Y93.406
 X160.440 Y94.783
 X164.396 Y96.542
 X168.368 Y98.611
 X172.363 Y100.904
 X176.393 Y103.327
 X179.183 Y105.000
 X176.393 Y106.673
 X172.363 Y109.096
 X168.368 Y111.389
 X164.396 Y113.458
 X160.440 Y115.217
 X156.494 Y116.594
 X152.578 Y117.520
 X150.816 Y117.938
 X149.104 Y116.313
 X148.120 Y115.629
 X151.918 Y114.730
 X155.689 Y113.837
 X159.384 Y112.548
 X163.150 Y110.874
 X166.992 Y108.873
 X170.910 Y106.623
 X173.609 Y105.000
 X170.910 Y103.377
 X166.992 Y101.127
 X163.150 Y99.126
 X159.384 Y97.452
 X155.689 Y96.163
 X151.918 Y95.270
 X148.120 Y94.371
G00 Z5.000
 X150.902 Y91.980
G00 Z0.500
G01 Z-6.300 F2540
 X152.950 Y90.037
 X153.293 Y89.599
 X157.326 Y90.554
 X161.534 Y92.021
 X165.686 Y93.867
 X169.793 Y96.006
 X173.867 Y98.345
 X177.921 Y100.783
 X181.979 Y103.216
 X185.130 Y105.000
 X181.979 Y106.784
 X177.921 Y109.217
 X173.867 Y111.655
 X169.793 Y113.994
 X165.686 Y116.133
 X161.534 Y117.979
 X157.326 Y119.446
 X153.293 Y120.401
 X152.950 Y119.963
 X150.902 Y118.020
 X152.601 Y117.618
 X156.522 Y116.690
 X160.477 Y115.310
 X164.440 Y113.548
 X168.417 Y111.477
 X172.414 Y109.182
 X176.444 Y106.758
 X179.377 Y105.000
 X176.444 Y103.242
 X172.414 Y100.818
 X168.417 Y98.523
 X164.440 Y96.452
 X160.477 Y94.690
 X156.522 Y93.310
 X152.601 Y92.382
 X150.902 Y91.980
G00 Z5.000
 X153.361 Y89.512
G00 Z0.500
G01 Z-6.300 F2540
 X154.776 Y87.708
 X155.310 Y87.027
 X158.159 Y87.701
 X162.627 Y89.259
 X166.975 Y91.192
 X171.218 Y93.402
 X175.370 Y95.786
 X179.449 Y98.239
 X183.474 Y100.652
 X187.473 Y102.916
 X191.480 Y104.918
 X191.685 Y105.000
 X191.480 Y105.082
 X187.473 Y107.084
 X183.474 Y109.348
 X179.449 Y111.761
 X175.370 Y114.214
 X171.218 Y116.598
 X166.975 Y118.808
 X162.627 Y120.741
 X158.159 Y122.299
 X155.310 Y122.973
 X154.776 Y122.292
 X153.361 Y120.488
 X157.354 Y119.543
 X161.571 Y118.072
 X165.729 Y116.223
 X169.841 Y114.081
 X173.917 Y111.741
 X177.972 Y109.303
 X182.030 Y106.870
 X185.333 Y105.000
 X182.030 Y103.130
 X177.972 Y100.697
 X173.917 Y98.259
 X169.841 Y95.919
 X165.729 Y93.777
 X161.571 Y91.928
 X157.354 Y90.457
 X153.361 Y89.512
G00 Z5.000
 X113.353 Y144.847
G00 Z0.500
G01 Z-6.300 F2540
 X115.552 Y148.009
 X114.632 Y151.895
 X113.741 Y155.661
 X112.455 Y159.347
 X110.784 Y163.107
 X108.785 Y166.944
 X106.537 Y170.859
 X105.000 Y173.415
 X103.463 Y170.859
 X101.215 Y166.944
 X99.216 Y163.107
 X97.545 Y159.347
 X96.259 Y155.661
 X95.368 Y151.895
 X94.448 Y148.009
 X96.647 Y144.847
 X98.158 Y151.234
 X99.016 Y154.856
 X100.213 Y158.290
 X101.801 Y161.861
 X103.731 Y165.567
 X105.000 Y167.777
 X106.269 Y165.567
 X108.199 Y161.861
 X109.787 Y158.290
 X110.984 Y154.856
 X111.842 Y151.234
 X113.353 Y144.847
G00 Z5.000
 X115.629 Y148.120
G00 Z0.500
G01 Z-6.300 F2540
 X116.313 Y149.104
 X117.938 Y150.816
 X117.520 Y152.578
 X116.594 Y156.494
 X115.217 Y160.440
 X113.458 Y164.396
 X111.389 Y168.368
 X109.096 Y172.363
 X106.673 Y176.393
 X105.000 Y179.183
 X103.327 Y176.393
 X100.904 Y172.363
 X98.611 Y168.368
 X96.542 Y164.396
 X94.783 Y160.440
 X93.406 Y156.494
 X92.480 Y152.578
 X92.062 Y150.816
 X93.687 Y149.104
 X94.371 Y148.120
 X95.270 Y151.918
 X96.163 Y155.689
 X97.452 Y159.384
 X99.126 Y163.150
 X101.127 Y166.992
 X103.377 Y170.910
 X105.000 Y173.609
 X106.623 Y170.910
 X108.873 Y166.992
 X110.874 Y163.150
 X112.548 Y159.384
 X113.837 Y155.689
 X114.730 Y151.918
 X115.629 Y148.120
G00 Z5.000
 X118.020 Y150.902
G00 Z0.500
G01 Z-6.300 F2540
 X119.963 Y152.950
 X120.401 Y153.293
 X119.446 Y157.326
 X117.979 Y161.534
 X116.133 Y165.686
 X113.994 Y169.793
 X111.655 Y173.867
 X109.217 Y177.921
 X106.784 Y181.979
 X105.000 Y185.130
 X103.216 Y181.979
 X100.783 Y177.921
 X98.345 Y173.867
 X96.006 Y169.793
 X93.867 Y165.686
 X92.021 Y161.534
 X90.554 Y157.326
 X89.599 Y153.293
 X90.037 Y152.950
 X91.980 Y150.902
 X92.382 Y152.601
 X93.310 Y156.522
 X94.690 Y160.477
 X96.452 Y164.440
 X98.523 Y168.417
 X100.818 Y172.414
 X103.242 Y176.444
 X105.000 Y179.377
 X106.758 Y176.444
 X109.182 Y172.414
 X111.477 Y168.417
 X113.548 Y164.440
 X115.310 Y160.477
 X116.690 Y156.522
 X117.618 Y152.601
 X118.020 Y150.902
G00 Z5.000
 X65.153 Y113.353
G00 Z0.500
G01 Z-6.300 F2540
 X61.991 Y115.552
 X58.105 Y114.632
 X54.339 Y113.741
 X50.653 Y112.455
 X46.893 Y110.784
 X43.056 Y108.785
 X39.141 Y106.537
 X36.585 Y105.000
 X39.141 Y103.463
 X43.056 Y101.215
 X46.893 Y99.216
 X50.653 Y97.545
 X54.339 Y96.259
 X58.105 Y95.368
 X61.991 Y94.448
 X65.153 Y96.647
 X58.766 Y98.158
 X55.144 Y99.016
 X51.710 Y100.213
 X48.139 Y101.801
 X44.433 Y103.731
 X42.223 Y105.000
 X44.433 Y106.269
 X48.139 Y108.199
 X51.710 Y109.787
 X55.144 Y110.984
 X58.766 Y111.842
 X65.153 Y113.353
G00 Z5.000
 X61.880 Y115.629
G00 Z0.500
G01 Z-6.300 F2540
 X60.896 Y116.313
 X59.184 Y117.938
 X57.422 Y117.520
 X53.506 Y116.594
 X49.560 Y115.217
 X45.604 Y113.458
 X41.632 Y111.389
 X37.637 Y109.096
 X33.607 Y106.673
 X30.817 Y105.000
 X33.607 Y103.327
 X37.637 Y100.904
 X41.632 Y98.611
 X45.604 Y96.542
 X49.560 Y94.783
 X53.506 Y93.406
 X57.422 Y92.480
 X59.184 Y92.062
 X60.896 Y93.687
 X61.880 Y94.371
 X58.082 Y95.270
 X54.311 Y96.163
 X50.616 Y97.452
 X46.850 Y99.126
 X43.008 Y101.127
 X39.090 Y103.377
 X36.391 Y105.000
 X39.090 Y106.623
 X43.008 Y108.873
 X46.850 Y110.874
 X50.616 Y112.548
 X54.311 Y113.837
 X58.082 Y114.730
 X61.880 Y115.629
G00 Z5.000
 X59.098 Y118.020
G00 Z0.500
G01 Z-6.300 F2540
 X57.050 Y119.963
 X56.707 Y120.401
 X52.674 Y119.446
 X48.466 Y117.979
 X44.314 Y116.133
 X40.207 Y113.994
 X36.133 Y111.655
 X32.079 Y109.217
 X28.021 Y106.784
 X24.870 Y105.000
 X28.021 Y103.216
 X32.079 Y100.783
 X36.133 Y98.345
 X40.207 Y96.006
 X44.314 Y93.867
 X48.466 Y92.021
 X52.674 Y90.554
 X56.707 Y89.599
 X57.050 Y90.037
 X59.098 Y91.980
 X57.399 Y92.382
 X53.478 Y93.310
 X49.523 Y94.690
 X45.560 Y96.452
 X41.583 Y98.523
 X37.586 Y100.818
 X33.556 Y103.242
 X30.623 Y105.000
 X33.556 Y106.758
 X37.586 Y109.182
 X41.583 Y111.477
 X45.560 Y113.548
 X49.523 Y115.310
 X53.478 Y116.690
 X57.399 Y117.618
 X59.098 Y118.020
G00 Z5.000
G00 X0 Y0 (home)
M05
M30
%
