%
(Generated by SketchUcam V1.4d-80c0152)
(File: cnc.skp)
(Bit diameter: 0,1mm)
(Feed rate: 2540,0mm/min)
(Material Thickness: 6,3mm)
(Material length: 210,0mm X width: 210,0mm)
(Overhead Gantry: false)
(Plunge Depth first)
(Optimization is ON)
(www.PhlatBoyz.com)
G90 G21 G49 G17 F2540
M3 S15000
G00 Z5.000
 X52.315 Y55.522
G00 Z0.500
G01 Z-6.300 F2540
 X52.457 Y55.461
 X52.651 Y55.439
 X52.860 Y55.424
 X53.064 Y55.382
 X53.258 Y55.318
 X53.445 Y55.233
 X53.624 Y55.131
 X53.799 Y55.015
 X53.970 Y54.888
 X54.138 Y54.753
 X54.306 Y54.612
 X54.474 Y54.470
 X54.644 Y54.327
 X54.818 Y54.188
 X54.996 Y54.056
 X55.180 Y53.932
 X55.371 Y53.820
 X55.571 Y53.722
 X55.781 Y53.641
 X56.002 Y53.580
 X56.236 Y53.541
 X56.485 Y53.528
 X56.854 Y53.541
 X57.173 Y53.576
 X57.443 Y53.632
 X57.666 Y53.708
 X57.845 Y53.802
 X57.983 Y53.911
 X58.084 Y54.035
 X58.150 Y54.173
 X58.185 Y54.326
 X58.191 Y54.493
 X58.168 Y54.675
 X58.119 Y54.870
 X58.045 Y55.077
 X57.949 Y55.293
 X57.832 Y55.517
 X57.698 Y55.749
 X57.547 Y55.986
 X57.383 Y56.228
 X57.208 Y56.473
 X57.025 Y56.720
 X56.710 Y57.136
 X56.461 Y57.503
 X56.270 Y57.825
 X56.129 Y58.107
 X56.032 Y58.356
 X55.972 Y58.576
 X55.940 Y58.772
 X55.930 Y58.949
 X55.934 Y59.111
 X55.943 Y59.263
 X55.951 Y59.411
 Y59.559
 X55.931 Y59.713
 X55.890 Y59.881
 X55.818 Y60.068
 X55.707 Y60.281
 X55.549 Y60.525
 X55.336 Y60.804
 X55.062 Y61.125
 X54.722 Y61.487
 X54.468 Y61.620
 X54.201 Y61.696
 X53.929 Y61.719
 X53.654 Y61.695
 X53.379 Y61.627
 X53.111 Y61.522
 X52.851 Y61.383
 X52.605 Y61.217
 X52.376 Y61.029
 X52.169 Y60.823
 X51.988 Y60.606
 X51.836 Y60.384
 X51.719 Y60.162
 X51.639 Y59.945
 X51.600 Y59.741
 X51.604 Y59.555
 X51.655 Y59.392
 X51.753 Y59.253
 X51.907 Y59.141
 X52.134 Y59.058
 X52.263 Y58.966
 X52.350 Y58.832
 X52.399 Y58.668
 X52.418 Y58.479
 X52.412 Y58.268
 X52.388 Y58.041
 X52.349 Y57.799
 X52.302 Y57.548
 X52.249 Y57.292
 X52.197 Y57.036
 X52.150 Y56.783
 X52.112 Y56.539
 X52.088 Y56.308
 X52.082 Y56.095
 X52.099 Y55.905
 X52.142 Y55.745
 X52.212 Y55.616
 X52.315 Y55.522
G00 Z5.000
 X56.587 Y63.006
G00 Z0.500
G01 Z-6.300 F2540
 X57.190 Y62.692
 X57.743 Y62.442
 X58.246 Y62.249
 X58.701 Y62.109
 X59.108 Y62.016
 X59.468 Y61.964
 X59.782 Y61.949
 X60.052 Y61.965
 X60.277 Y62.007
 X60.460 Y62.068
 X60.601 Y62.143
 X60.701 Y62.225
 X60.762 Y62.309
 X60.788 Y62.387
 X60.783 Y62.456
 X60.751 Y62.516
 X60.688 Y62.567
 X60.591 Y62.604
 X60.438 Y62.620
 X60.064 Y62.923
 X59.746 Y63.210
 X59.473 Y63.490
 X59.246 Y63.762
 X59.065 Y64.026
 X58.930 Y64.280
 X58.842 Y64.525
 X58.803 Y64.760
 X58.813 Y64.983
 X58.873 Y65.193
 X58.984 Y65.386
 X59.145 Y65.562
 X59.353 Y65.718
 X59.610 Y65.855
 X59.915 Y65.973
 X60.268 Y66.071
 X60.671 Y66.148
 X61.123 Y66.204
 X61.624 Y66.238
 X62.154 Y66.250
 X62.378 Y66.485
 X62.508 Y66.689
 X62.545 Y66.850
 X62.509 Y66.979
 X62.404 Y67.095
 X62.232 Y67.201
 X62.000 Y67.297
 X61.721 Y67.388
 X61.405 Y67.477
 X61.064 Y67.570
 X60.707 Y67.672
 X60.343 Y67.788
 X59.984 Y67.923
 X59.639 Y68.083
 X59.319 Y68.275
 X59.032 Y68.503
 X58.790 Y68.773
 X58.605 Y69.092
 X58.486 Y69.462
 X58.446 Y69.883
 X58.413 Y70.166
 X58.320 Y70.402
 X58.176 Y70.600
 X57.986 Y70.762
 X57.756 Y70.889
 X57.496 Y70.983
 X57.212 Y71.044
 X56.913 Y71.074
 X56.608
 X56.304 Y71.044
 X56.011 Y70.988
 X55.736 Y70.906
 X55.487 Y70.802
 X55.275 Y70.676
 X55.106 Y70.531
 X54.987 Y70.372
 X54.925 Y70.199
 Y70.012
 X54.994 Y69.807
 X55.151 Y69.577
 X55.385 Y68.990
 X55.545 Y68.491
 X55.639 Y68.067
 X55.678 Y67.709
 X55.669 Y67.406
 X55.621 Y67.151
 X55.543 Y66.934
 X55.444 Y66.747
 X55.335 Y66.582
 X55.225 Y66.429
 X55.124 Y66.278
 X55.039 Y66.121
 X54.978 Y65.947
 X54.949 Y65.746
 X54.960 Y65.505
 X55.020 Y65.215
 X55.140 Y64.866
 X55.329 Y64.449
 X55.595 Y63.954
 X55.942 Y63.382
 X56.587 Y63.006
G00 Z5.000
 X62.700 Y63.249
G00 Z0.500
G01 Z-6.300 F2540
 X62.688 Y63.053
 X62.753 Y62.698
 X62.816 Y62.375
 X62.877 Y62.086
 X62.937 Y61.832
 X62.996 Y61.610
 X63.055 Y61.418
 X63.115 Y61.255
 X63.176 Y61.119
 X63.238 Y61.010
 X63.301 Y60.925
 X63.367 Y60.861
 X63.435 Y60.817
 X63.507 Y60.790
 X63.586 Y60.776
 X63.673
 X63.770 Y60.789
 X63.877 Y60.812
 X63.994 Y60.846
 X64.122 Y60.888
 X64.255 Y60.934
 X64.388 Y61.029
 X64.544 Y61.111
 X64.711 Y61.175
 X64.888 Y61.224
 X65.072 Y61.261
 X65.262 Y61.288
 X65.456 Y61.309
 X65.651 Y61.325
 X65.847 Y61.340
 X66.041 Y61.355
 X66.231 Y61.373
 X66.415 Y61.398
 X66.592 Y61.430
 X66.759 Y61.473
 X66.914 Y61.528
 X67.056 Y61.598
 X67.183 Y61.685
 X67.294 Y61.791
 X67.388 Y61.919
 X67.463 Y62.072
 X67.489 Y62.156
 Y62.249
 X67.468 Y62.356
 X67.423 Y62.473
 X67.357 Y62.598
 X67.272 Y62.731
 X67.170 Y62.868
 X67.053 Y63.008
 X66.924 Y63.150
 X66.784 Y63.292
 X66.636 Y63.433
 X66.482 Y63.570
 X66.325 Y63.704
 X66.166 Y63.831
 X66.009 Y63.952
 X65.854 Y64.063
 X65.704 Y64.165
 X65.562 Y64.255
 X65.430 Y64.332
 X65.310 Y64.396
 X65.161 Y64.468
 X65.004 Y64.525
 X64.841 Y64.566
 X64.671 Y64.592
 X64.497 Y64.603
 X64.322 Y64.600
 X64.146 Y64.581
 X63.972 Y64.547
 X63.802 Y64.499
 X63.638 Y64.436
 X63.480 Y64.359
 X63.332 Y64.268
 X63.195 Y64.163
 X63.071 Y64.045
 X62.961 Y63.912
 X62.867 Y63.767
 X62.791 Y63.608
 X62.735 Y63.435
 X62.700 Y63.249
G00 Z5.000
 X65.339 Y66.916
G00 Z0.500
G01 Z-6.300 F2540
 X65.509 Y66.836
 X65.727 Y66.779
 X65.977 Y66.735
 X66.248 Y66.731
 X66.538 Y66.762
 X66.840 Y66.825
 X67.149 Y66.918
 X67.460 Y67.036
 X67.767 Y67.176
 X68.064 Y67.335
 X68.347 Y67.508
 X68.608 Y67.692
 X68.844 Y67.884
 X69.049 Y68.078
 X69.216 Y68.272
 X69.341 Y68.461
 X69.419 Y68.640
 X69.446 Y68.804
 X69.421 Y68.950
 X69.339 Y69.081
 X69.192 Y69.197
 X68.971 Y69.292
 X68.770 Y69.310
 X68.590 Y69.365
 X68.440 Y69.451
 X68.319 Y69.565
 X68.222 Y69.701
 X68.147 Y69.853
 X68.086 Y70.019
 X68.037 Y70.194
 X67.995 Y70.375
 X67.956 Y70.559
 X67.915 Y70.741
 X67.869 Y70.918
 X67.815 Y71.086
 X67.748 Y71.242
 X67.665 Y71.382
 X67.563 Y71.503
 X67.439 Y71.603
 X67.286 Y71.678
 X67.100 Y71.727
 X66.872 Y71.744
 X66.675 Y71.757
 X66.513 Y71.795
 X66.382 Y71.857
 X66.280 Y71.939
 X66.201 Y72.037
 X66.140 Y72.147
 X66.089 Y72.264
 X66.042 Y72.386
 X65.991 Y72.511
 X65.932 Y72.637
 X65.857 Y72.762
 X65.761 Y72.883
 X65.638 Y73.000
 X65.481 Y73.110
 X65.283 Y73.210
 X65.037 Y73.299
 X64.737 Y73.372
 X64.377 Y73.428
 X63.951 Y73.464
 X63.454 Y73.476
 X63.174 Y73.453
 X62.945 Y73.388
 X62.763 Y73.286
 X62.623 Y73.153
 X62.523 Y72.992
 X62.460 Y72.806
 X62.434 Y72.599
 X62.443 Y72.377
 X62.485 Y72.143
 X62.561 Y71.903
 X62.667 Y71.663
 X62.802 Y71.427
 X62.964 Y71.200
 X63.151 Y70.988
 X63.361 Y70.796
 X63.592 Y70.628
 X63.843 Y70.489
 X64.111 Y70.384
 X64.394 Y70.318
 X64.715 Y70.293
 X64.866 Y70.122
 X64.970 Y69.945
 X65.040 Y69.753
 X65.082 Y69.550
 X65.101 Y69.339
 Y69.121
 X65.089 Y68.900
 X65.068 Y68.677
 X65.042 Y68.454
 X65.017 Y68.236
 X64.996 Y68.023
 X64.985 Y67.819
 Y67.626
 X65.007 Y67.447
 X65.049 Y67.286
 X65.115 Y67.143
 X65.210 Y67.019
 X65.339 Y66.916
G00 Z5.000
 X69.735 Y71.226
G00 Z0.500
G01 Z-6.300 F2540
 X69.827 Y71.214
 X69.951 Y71.227
 X70.104 Y71.263
 X70.280 Y71.317
 X70.477 Y71.384
 X70.693 Y71.461
 X70.924 Y71.541
 X71.169 Y71.620
 X71.425 Y71.694
 X71.691 Y71.756
 X71.964 Y71.803
 X72.242 Y71.829
 X72.523
 X72.805 Y71.800
 X73.086 Y71.734
 X73.362 Y71.627
 X73.628 Y71.478
 X73.730 Y71.428
 X73.837 Y71.392
 X73.948 Y71.368
 X74.064 Y71.355
 X74.183
 X74.304 Y71.362
 X74.426 Y71.381
 X74.548 Y71.409
 X74.670 Y71.446
 X74.789 Y71.491
 X74.905 Y71.544
 X75.017 Y71.603
 X75.124 Y71.669
 X75.224 Y71.741
 X75.318 Y71.817
 X75.403 Y71.898
 X75.479 Y71.982
 X75.545 Y72.069
 X75.600 Y72.158
 X75.648 Y72.259
 X75.868 Y72.471
 X76.040 Y72.683
 X76.173 Y72.901
 X76.269 Y73.122
 X76.330 Y73.345
 X76.357 Y73.568
 X76.353 Y73.789
 X76.317 Y74.007
 X76.252 Y74.219
 X76.159 Y74.424
 X76.040 Y74.619
 X75.894 Y74.803
 X75.725 Y74.973
 X75.532 Y75.127
 X75.318 Y75.263
 X75.085 Y75.379
 X74.832 Y75.473
 X74.563 Y75.543
 X74.277 Y75.586
 X73.977 Y75.601
 X73.536 Y75.589
 X73.153 Y75.553
 X72.822 Y75.497
 X72.539 Y75.423
 X72.297 Y75.334
 X72.090 Y75.233
 X71.913 Y75.122
 X71.760 Y75.003
 X71.626 Y74.878
 X71.504 Y74.751
 X71.389 Y74.622
 X71.276 Y74.494
 X71.159 Y74.371
 X71.032 Y74.254
 X70.890 Y74.148
 X70.729 Y74.054
 X70.541 Y73.977
 X70.324 Y73.919
 X70.072 Y73.883
 X69.783 Y73.871
 X69.511 Y73.848
 X69.309 Y73.809
 X69.171 Y73.756
 X69.090 Y73.694
 X69.053 Y73.626
 X69.048 Y73.544
 X69.073 Y73.443
 X69.126 Y73.327
 X69.202 Y73.197
 X69.293 Y73.058
 X69.394 Y72.910
 X69.497 Y72.755
 X69.597 Y72.594
 X69.686 Y72.429
 X69.758 Y72.260
 X69.806 Y72.088
 X69.823 Y71.913
 X69.800 Y71.738
 X69.731 Y71.565
 X69.625 Y71.420
 X69.638 Y71.324
 X69.675 Y71.261
 X69.735 Y71.226
G00 Z5.000
 X72.961 Y68.737
G00 Z0.500
G01 Z-6.300 F2540
 X72.850 Y68.631
 X72.756 Y68.503
 X72.680 Y68.349
 X72.655 Y68.265
 Y68.172
 X72.676 Y68.066
 X72.720 Y67.949
 X72.786 Y67.823
 X72.872 Y67.691
 X72.974 Y67.554
 X73.091 Y67.413
 X73.220 Y67.271
 X73.360 Y67.129
 X73.508 Y66.989
 X73.661 Y66.851
 X73.819 Y66.718
 X73.977 Y66.590
 X74.135 Y66.470
 X74.290 Y66.358
 X74.440 Y66.257
 X74.582 Y66.166
 X74.714 Y66.089
 X74.834 Y66.026
 X74.983 Y65.953
 X75.139 Y65.897
 X75.303 Y65.855
 X75.473 Y65.829
 X75.647 Y65.818
 X75.822 Y65.822
 X75.998 Y65.841
 X76.171 Y65.875
 X76.342 Y65.923
 X76.506 Y65.986
 X76.664 Y66.063
 X76.812 Y66.154
 X76.949 Y66.259
 X77.073 Y66.377
 X77.183 Y66.509
 X77.277 Y66.655
 X77.353 Y66.814
 X77.409 Y66.986
 X77.444 Y67.172
 X77.456 Y67.369
 X77.391 Y67.724
 X77.328 Y68.047
 X77.267 Y68.335
 X77.207 Y68.590
 X77.148 Y68.812
 X77.089 Y69.004
 X77.029 Y69.167
 X76.968 Y69.302
 X76.906 Y69.412
 X76.843 Y69.497
 X76.777 Y69.560
 X76.709 Y69.604
 X76.637 Y69.632
 X76.558 Y69.645
 X76.471
 X76.374 Y69.633
 X76.267 Y69.609
 X76.150 Y69.576
 X76.022 Y69.534
 X75.889 Y69.488
 X75.756 Y69.392
 X75.600 Y69.311
 X75.432 Y69.247
 X75.256 Y69.198
 X75.072 Y69.161
 X74.882 Y69.133
 X74.688 Y69.113
 X74.493 Y69.097
 X74.297 Y69.082
 X74.103 Y69.067
 X73.913 Y69.048
 X73.729 Y69.024
 X73.552 Y68.992
 X73.385 Y68.949
 X73.230 Y68.894
 X73.088 Y68.824
 X72.961 Y68.737
G00 Z5.000
 X80.016 Y67.829
G00 Z0.500
G01 Z-6.300 F2540
 X79.979 Y67.668
 X80.015 Y67.539
 X80.120 Y67.424
 X80.293 Y67.318
 X80.524 Y67.221
 X80.803 Y67.130
 X81.119 Y67.041
 X81.460 Y66.948
 X81.818 Y66.846
 X82.181 Y66.731
 X82.540 Y66.595
 X82.885 Y66.435
 X83.206 Y66.243
 X83.492 Y66.015
 X83.734 Y65.745
 X83.919 Y65.427
 X84.038 Y65.056
 X84.078 Y64.635
 X84.112 Y64.352
 X84.204 Y64.116
 X84.348 Y63.918
 X84.539 Y63.756
 X84.768 Y63.629
 X85.028 Y63.535
 X85.312 Y63.474
 X85.611 Y63.444
 X85.917
 X86.220 Y63.474
 X86.514 Y63.530
 X86.789 Y63.612
 X87.037 Y63.717
 X87.249 Y63.842
 X87.419 Y63.987
 X87.537 Y64.147
 X87.599 Y64.319
 Y64.507
 X87.530 Y64.711
 X87.373 Y64.942
 X87.139 Y65.529
 X86.980 Y66.027
 X86.885 Y66.451
 X86.846 Y66.809
 X86.855 Y67.112
 X86.903 Y67.368
 X86.981 Y67.584
 X87.080 Y67.771
 X87.189 Y67.936
 X87.299 Y68.090
 X87.400 Y68.240
 X87.485 Y68.397
 X87.546 Y68.571
 X87.575 Y68.773
 X87.564 Y69.013
 X87.504 Y69.303
 X87.384 Y69.652
 X87.195 Y70.070
 X86.929 Y70.564
 X86.583 Y71.136
 X85.938 Y71.512
 X85.334 Y71.826
 X84.781 Y72.076
 X84.278 Y72.269
 X83.823 Y72.409
 X83.416 Y72.503
 X83.056 Y72.554
 X82.742 Y72.569
 X82.472 Y72.553
 X82.247 Y72.512
 X82.064 Y72.451
 X81.924 Y72.376
 X81.824 Y72.293
 X81.762 Y72.210
 X81.737 Y72.132
 X81.741 Y72.063
 X81.773 Y72.002
 X81.836 Y71.951
 X81.933 Y71.914
 X82.086 Y71.898
 X82.460 Y71.596
 X82.778 Y71.308
 X83.051 Y71.028
 X83.278 Y70.756
 X83.459 Y70.493
 X83.594 Y70.238
 X83.682 Y69.993
 X83.721 Y69.758
 X83.711 Y69.535
 X83.651 Y69.325
 X83.540 Y69.132
 X83.380 Y68.957
 X83.171 Y68.800
 X82.914 Y68.663
 X82.609 Y68.545
 X82.256 Y68.448
 X81.853 Y68.370
 X81.402 Y68.314
 X80.900 Y68.280
 X80.370 Y68.269
 X80.146 Y68.033
 X80.016 Y67.829
G00 Z5.000
 X78.646 Y64.113
G00 Z0.500
G01 Z-6.300 F2540
 X78.544 Y64.162
 X78.437 Y64.199
 X78.326 Y64.223
 X78.210 Y64.235
 X78.091
 X77.970 Y64.228
 X77.848 Y64.210
 X77.726 Y64.182
 X77.604 Y64.145
 X77.485 Y64.100
 X77.369 Y64.047
 X77.257 Y63.987
 X77.150 Y63.921
 X77.050 Y63.850
 X76.956 Y63.773
 X76.871 Y63.693
 X76.795 Y63.609
 X76.729 Y63.522
 X76.674 Y63.433
 X76.626 Y63.332
 X76.406 Y63.119
 X76.234 Y62.908
 X76.101 Y62.690
 X76.005 Y62.469
 X75.944 Y62.246
 X75.917 Y62.023
 X75.921 Y61.801
 X75.957 Y61.584
 X76.022 Y61.371
 X76.115 Y61.167
 X76.235 Y60.971
 X76.380 Y60.788
 X76.549 Y60.618
 X76.742 Y60.464
 X76.956 Y60.328
 X77.189 Y60.212
 X77.442 Y60.118
 X77.711 Y60.048
 X77.997 Y60.004
 X78.297 Y59.989
 X78.738 Y60.002
 X79.121 Y60.037
 X79.452 Y60.094
 X79.735 Y60.167
 X79.977 Y60.256
 X80.184 Y60.358
 X80.361 Y60.469
 X80.514 Y60.588
 X80.648 Y60.712
 X80.770 Y60.840
 X80.885 Y60.969
 X80.998 Y61.096
 X81.115 Y61.220
 X81.242 Y61.336
 X81.384 Y61.443
 X81.546 Y61.537
 X81.733 Y61.614
 X81.950 Y61.672
 X82.202 Y61.708
 X82.491 Y61.720
 X82.763 Y61.742
 X82.965 Y61.781
 X83.103 Y61.835
 X83.184 Y61.897
 X83.221 Y61.965
 X83.226 Y62.047
 X83.201 Y62.147
 X83.148 Y62.264
 X83.072 Y62.394
 X82.981 Y62.533
 X82.880 Y62.681
 X82.777 Y62.836
 X82.677 Y62.996
 X82.588 Y63.161
 X82.516 Y63.331
 X82.468 Y63.503
 X82.451 Y63.678
 X82.474 Y63.853
 X82.543 Y64.025
 X82.649 Y64.171
 X82.636 Y64.266
 X82.599 Y64.330
 X82.539 Y64.365
 X82.447 Y64.377
 X82.323 Y64.364
 X82.170 Y64.328
 X81.994 Y64.274
 X81.797 Y64.206
 X81.581 Y64.130
 X81.350 Y64.050
 X81.105 Y63.971
 X80.849 Y63.897
 X80.583 Y63.835
 X80.310 Y63.788
 X80.032 Y63.761
 X79.751
 X79.469 Y63.791
 X79.188 Y63.857
 X78.912 Y63.963
 X78.646 Y64.113
G00 Z5.000
 X73.820 Y62.129
G00 Z0.500
G01 Z-6.300 F2540
 X73.779 Y62.291
 X73.712 Y62.434
 X73.617 Y62.557
 X73.488 Y62.660
 X73.318 Y62.741
 X73.101 Y62.797
 X72.850 Y62.841
 X72.579 Y62.846
 X72.290 Y62.815
 X71.987 Y62.751
 X71.678 Y62.659
 X71.367 Y62.540
 X71.060 Y62.400
 X70.763 Y62.242
 X70.481 Y62.068
 X70.219 Y61.884
 X69.983 Y61.693
 X69.779 Y61.498
 X69.611 Y61.304
 X69.486 Y61.115
 X69.408 Y60.936
 X69.381 Y60.773
 X69.406 Y60.627
 X69.488 Y60.496
 X69.636 Y60.380
 X69.856 Y60.284
 X70.057 Y60.266
 X70.238 Y60.212
 X70.387 Y60.125
 X70.509 Y60.012
 X70.605 Y59.876
 X70.681 Y59.723
 X70.741 Y59.558
 X70.790 Y59.382
 X70.832 Y59.201
 X70.872 Y59.018
 X70.912 Y58.836
 X70.958 Y58.659
 X71.013 Y58.490
 X71.080 Y58.334
 X71.162 Y58.194
 X71.264 Y58.073
 X71.389 Y57.974
 X71.542 Y57.898
 X71.728 Y57.850
 X71.955 Y57.833
 X72.152 Y57.819
 X72.315 Y57.781
 X72.445 Y57.719
 X72.547 Y57.637
 X72.626 Y57.539
 X72.687 Y57.430
 X72.738 Y57.313
 X72.786 Y57.190
 X72.836 Y57.065
 X72.896 Y56.939
 X72.970 Y56.815
 X73.066 Y56.693
 X73.189 Y56.577
 X73.346 Y56.467
 X73.545 Y56.367
 X73.790 Y56.278
 X74.090 Y56.204
 X74.450 Y56.148
 X74.877 Y56.113
 X75.374 Y56.100
 X75.653 Y56.123
 X75.882 Y56.189
 X76.065 Y56.290
 X76.204 Y56.423
 X76.304 Y56.584
 X76.367 Y56.770
 X76.394 Y56.977
 X76.385 Y57.200
 X76.342 Y57.434
 X76.267 Y57.674
 X76.161 Y57.914
 X76.026 Y58.150
 X75.864 Y58.376
 X75.677 Y58.588
 X75.466 Y58.781
 X75.235 Y58.949
 X74.985 Y59.088
 X74.717 Y59.193
 X74.433 Y59.259
 X74.112 Y59.284
 X73.961 Y59.454
 X73.858 Y59.632
 X73.787 Y59.823
 X73.745 Y60.026
 X73.726 Y60.238
 Y60.456
 X73.738 Y60.677
 X73.760 Y60.900
 X73.785 Y61.122
 X73.811 Y61.341
 X73.831 Y61.554
 X73.842 Y61.758
 Y61.950
 X73.820 Y62.129
G00 Z5.000
 X67.002 Y58.471
G00 Z0.500
G01 Z-6.300 F2540
 X66.947 Y58.587
 X66.872 Y58.705
 X66.777 Y58.821
 X66.666 Y58.935
 X66.539 Y59.043
 X66.398 Y59.144
 X66.244 Y59.236
 X66.079 Y59.318
 X65.906 Y59.386
 X65.724 Y59.439
 X65.537 Y59.476
 X65.345 Y59.494
 X65.151
 X64.955 Y59.467
 X64.759 Y59.419
 X64.564 Y59.345
 X64.373 Y59.243
 X64.216 Y59.133
 X64.318 Y58.899
 X64.371 Y58.635
 X64.364 Y58.382
 X64.305 Y58.140
 X64.202 Y57.908
 X64.063 Y57.686
 X63.896 Y57.471
 X63.707 Y57.261
 X63.505 Y57.056
 X63.297 Y56.852
 X63.089 Y56.649
 X62.889 Y56.445
 X62.703 Y56.240
 X62.540 Y56.031
 X62.406 Y55.819
 X62.308 Y55.601
 X62.252 Y55.378
 X62.243 Y55.146
 X62.290 Y54.902
 X62.404 Y54.633
 X62.421 Y54.446
 X62.467 Y54.269
 X62.540 Y54.093
 X62.637 Y53.918
 X62.755 Y53.746
 X62.891 Y53.579
 X63.040 Y53.420
 X63.200 Y53.268
 X63.367 Y53.126
 X63.538 Y52.996
 X63.708 Y52.879
 X63.875 Y52.776
 X64.035 Y52.689
 X64.183 Y52.620
 X64.317 Y52.570
 X64.431 Y52.541
 X64.520 Y52.532
 X64.576 Y52.543
 X64.611 Y52.602
 X64.553 Y52.872
 X64.542 Y53.117
 X64.577 Y53.326
 X64.654 Y53.502
 X64.768 Y53.645
 X64.911 Y53.760
 X65.077 Y53.850
 X65.260 Y53.920
 X65.456 Y53.976
 X65.660 Y54.021
 X65.866 Y54.060
 X66.071 Y54.097
 X66.269 Y54.136
 X66.455 Y54.180
 X66.623 Y54.234
 X66.769 Y54.300
 X66.887 Y54.381
 X66.974 Y54.480
 X67.028 Y54.601
 X67.048 Y54.765
 X67.132 Y54.984
 X67.175 Y55.192
 X67.186 Y55.397
 X67.169 Y55.600
 X67.129 Y55.801
 X67.070 Y55.999
 X66.997 Y56.194
 X66.915 Y56.386
 X66.828 Y56.574
 X66.743 Y56.757
 X66.663 Y56.937
 X66.594 Y57.112
 X66.541 Y57.282
 X66.508 Y57.448
 X66.504 Y57.610
 X66.532 Y57.766
 X66.600 Y57.915
 X66.711 Y58.054
 X66.868 Y58.181
 X67.044 Y58.280
 X67.035 Y58.359
 X67.002 Y58.471
G00 Z5.000
 X60.464 Y73.416
G00 Z0.500
G01 Z-6.300 F2540
 X60.658 Y73.491
 X60.850 Y73.592
 X61.006 Y73.702
 X60.905 Y73.936
 X60.851 Y74.200
 X60.858 Y74.453
 X60.917 Y74.695
 X61.020 Y74.927
 X61.159 Y75.149
 X61.327 Y75.364
 X61.515 Y75.574
 X61.717 Y75.780
 X61.926 Y75.983
 X62.134 Y76.186
 X62.334 Y76.390
 X62.519 Y76.595
 X62.682 Y76.804
 X62.816 Y77.016
 X62.915 Y77.234
 X62.971 Y77.457
 X62.979 Y77.689
 X62.933 Y77.933
 X62.819 Y78.202
 X62.802 Y78.389
 X62.756 Y78.566
 X62.682 Y78.742
 X62.585 Y78.917
 X62.467 Y79.089
 X62.332 Y79.256
 X62.182 Y79.416
 X62.022 Y79.567
 X61.855 Y79.709
 X61.685 Y79.839
 X61.514 Y79.957
 X61.347 Y80.059
 X61.188 Y80.146
 X61.039 Y80.215
 X60.906 Y80.265
 X60.791 Y80.295
 X60.703 Y80.303
 X60.646 Y80.292
 X60.611 Y80.233
 X60.669 Y79.963
 X60.681 Y79.718
 X60.646 Y79.509
 X60.568 Y79.334
 X60.455 Y79.190
 X60.312 Y79.076
 X60.146 Y78.985
 X59.962 Y78.915
 X59.766 Y78.859
 X59.563 Y78.814
 X59.356 Y78.775
 X59.151 Y78.738
 X58.953 Y78.700
 X58.768 Y78.655
 X58.599 Y78.602
 X58.454 Y78.536
 X58.336 Y78.454
 X58.249 Y78.356
 X58.195 Y78.234
 X58.175 Y78.070
 X58.090 Y77.851
 X58.047 Y77.643
 X58.036 Y77.438
 X58.053 Y77.235
 X58.094 Y77.035
 X58.153 Y76.836
 X58.226 Y76.641
 X58.308 Y76.449
 X58.394 Y76.261
 X58.480 Y76.078
 X58.560 Y75.898
 X58.629 Y75.724
 X58.682 Y75.553
 X58.714 Y75.387
 X58.719 Y75.226
 X58.690 Y75.069
 X58.623 Y74.920
 X58.512 Y74.781
 X58.355 Y74.654
 X58.179 Y74.555
 X58.187 Y74.476
 X58.221 Y74.364
 X58.276 Y74.248
 X58.351 Y74.131
 X58.445 Y74.014
 X58.557 Y73.901
 X58.684 Y73.792
 X58.825 Y73.691
 X58.979 Y73.599
 X59.143 Y73.518
 X59.317 Y73.450
 X59.498 Y73.396
 X59.686 Y73.360
 X59.877 Y73.342
 X60.072
 X60.268 Y73.368
 X60.464 Y73.416
G00 Z5.000
 X65.415 Y78.131
G00 Z0.500
G01 Z-6.300 F2540
 X65.628 Y77.851
 X65.903 Y77.531
 X66.242 Y77.169
 X66.496 Y77.036
 X66.763 Y76.960
 X67.035 Y76.936
 X67.311 Y76.961
 X67.585 Y77.028
 X67.854 Y77.134
 X68.113 Y77.272
 X68.360 Y77.439
 X68.588 Y77.627
 X68.795 Y77.832
 X68.976 Y78.049
 X69.128 Y78.272
 X69.245 Y78.494
 X69.325 Y78.710
 X69.364 Y78.914
 X69.360 Y79.100
 X69.310 Y79.264
 X69.211 Y79.402
 X69.057 Y79.514
 X68.830 Y79.598
 X68.702 Y79.690
 X68.614 Y79.824
 X68.565 Y79.988
 X68.547 Y80.177
 X68.552 Y80.387
 X68.577 Y80.615
 X68.615 Y80.856
 X68.663 Y81.107
 X68.715 Y81.363
 X68.767 Y81.620
 X68.814 Y81.873
 X68.852 Y82.117
 X68.876 Y82.348
 X68.882 Y82.561
 X68.865 Y82.750
 X68.822 Y82.911
 X68.752 Y83.039
 X68.649 Y83.134
 X68.508 Y83.195
 X68.313 Y83.217
 X68.104 Y83.232
 X67.900 Y83.273
 X67.706 Y83.338
 X67.520 Y83.423
 X67.340 Y83.525
 X67.165 Y83.641
 X66.995 Y83.768
 X66.826 Y83.903
 X66.658 Y84.043
 X66.490 Y84.186
 X66.320 Y84.328
 X66.146 Y84.467
 X65.968 Y84.600
 X65.784 Y84.724
 X65.593 Y84.836
 X65.393 Y84.934
 X65.184 Y85.015
 X64.962 Y85.076
 X64.728 Y85.114
 X64.479 Y85.128
 X64.110 Y85.115
 X63.792 Y85.080
 X63.522 Y85.023
 X63.298 Y84.947
 X63.119 Y84.854
 X62.981 Y84.745
 X62.880 Y84.621
 X62.814 Y84.483
 X62.779 Y84.330
 X62.773 Y84.162
 X62.796 Y83.980
 X62.845 Y83.785
 X62.919 Y83.579
 X63.015 Y83.363
 X63.132 Y83.139
 X63.266 Y82.907
 X63.417 Y82.670
 X63.581 Y82.428
 X63.756 Y82.183
 X63.940 Y81.935
 X64.254 Y81.519
 X64.503 Y81.153
 X64.695 Y80.831
 X64.835 Y80.548
 X64.932 Y80.300
 X64.992 Y80.080
 X65.024 Y79.884
 X65.034 Y79.707
 X65.030 Y79.544
 X65.021 Y79.392
 X65.014 Y79.245
 Y79.097
 X65.033 Y78.943
 X65.074 Y78.775
 X65.146 Y78.587
 X65.257 Y78.375
 X65.415 Y78.131
G00 Z5.000
 X71.157 Y79.753
G00 Z0.500
G01 Z-6.300 F2540
 X71.222 Y79.399
 X71.285 Y79.075
 X71.346 Y78.787
 X71.406 Y78.532
 X71.465 Y78.310
 X71.524 Y78.118
 X71.584 Y77.955
 X71.644 Y77.820
 X71.706 Y77.710
 X71.770 Y77.625
 X71.836 Y77.562
 X71.904 Y77.518
 X71.976 Y77.490
 X72.055 Y77.477
 X72.142
 X72.239 Y77.489
 X72.346 Y77.513
 X72.463 Y77.546
 X72.591 Y77.588
 X72.723 Y77.634
 X72.857 Y77.730
 X73.013 Y77.811
 X73.180 Y77.875
 X73.357 Y77.924
 X73.541 Y77.961
 X73.731 Y77.989
 X73.924 Y78.009
 X74.120 Y78.025
 X74.316 Y78.040
 X74.509 Y78.055
 X74.699 Y78.074
 X74.884 Y78.098
 X75.060 Y78.130
 X75.227 Y78.173
 X75.383 Y78.228
 X75.525 Y78.298
 X75.652 Y78.385
 X75.763 Y78.491
 X75.857 Y78.619
 X75.932 Y78.773
 X75.958 Y78.857
 Y78.950
 X75.937 Y79.056
 X75.892 Y79.173
 X75.826 Y79.299
 X75.741 Y79.431
 X75.639 Y79.568
 X75.522 Y79.709
 X75.392 Y79.851
 X75.253 Y79.993
 X75.105 Y80.133
 X74.951 Y80.271
 X74.794 Y80.404
 X74.635 Y80.532
 X74.477 Y80.652
 X74.322 Y80.764
 X74.173 Y80.865
 X74.031 Y80.956
 X73.899 Y81.033
 X73.778 Y81.096
 X73.629 Y81.169
 X73.473 Y81.225
 X73.309 Y81.267
 X73.140 Y81.293
 X72.966 Y81.304
 X72.791 Y81.300
 X72.615 Y81.281
 X72.441 Y81.247
 X72.271 Y81.199
 X72.106 Y81.137
 X71.949 Y81.060
 X71.801 Y80.968
 X71.664 Y80.864
 X71.540 Y80.745
 X71.430 Y80.613
 X71.336 Y80.467
 X71.260 Y80.308
 X71.204 Y80.136
 X71.169 Y79.950
 X71.157 Y79.753
G00 Z5.000
 X77.369 Y76.990
G00 Z0.500
G01 Z-6.300 F2540
 X77.288 Y76.859
 X77.263 Y76.713
 X77.290 Y76.549
 X77.368 Y76.371
 X77.493 Y76.182
 X77.660 Y75.988
 X77.865 Y75.793
 X78.100 Y75.602
 X78.362 Y75.417
 X78.644 Y75.244
 X78.942 Y75.086
 X79.248 Y74.945
 X79.559 Y74.827
 X79.869 Y74.735
 X80.171 Y74.671
 X80.461 Y74.640
 X80.732 Y74.645
 X80.982 Y74.689
 X81.200 Y74.745
 X81.369 Y74.826
 X81.499 Y74.929
 X81.594 Y75.052
 X81.660 Y75.195
 X81.701 Y75.357
 X81.721 Y75.535
 Y75.728
 X81.712 Y75.932
 X81.692 Y76.145
 X81.667 Y76.364
 X81.641 Y76.586
 X81.620 Y76.809
 X81.607 Y77.030
 Y77.248
 X81.627 Y77.460
 X81.669 Y77.662
 X81.739 Y77.854
 X81.842 Y78.031
 X81.993 Y78.202
 X82.315 Y78.227
 X82.598 Y78.293
 X82.866 Y78.398
 X83.116 Y78.537
 X83.348 Y78.705
 X83.558 Y78.898
 X83.745 Y79.109
 X83.907 Y79.336
 X84.042 Y79.572
 X84.148 Y79.812
 X84.223 Y80.052
 X84.266 Y80.286
 X84.275 Y80.509
 X84.249 Y80.715
 X84.186 Y80.901
 X84.086 Y81.063
 X83.946 Y81.196
 X83.763 Y81.297
 X83.534 Y81.362
 X83.255 Y81.386
 X82.758 Y81.373
 X82.332 Y81.338
 X81.972 Y81.282
 X81.672 Y81.208
 X81.426 Y81.119
 X81.228 Y81.019
 X81.070 Y80.909
 X80.947 Y80.793
 X80.852 Y80.671
 X80.777 Y80.547
 X80.718 Y80.421
 X80.667 Y80.296
 X80.619 Y80.173
 X80.569 Y80.056
 X80.507 Y79.947
 X80.429 Y79.849
 X80.326 Y79.766
 X80.196 Y79.705
 X80.033 Y79.666
 X79.837 Y79.653
 X79.609 Y79.636
 X79.423 Y79.587
 X79.270 Y79.512
 X79.145 Y79.412
 X79.044 Y79.291
 X78.961 Y79.152
 X78.894 Y78.996
 X78.839 Y78.827
 X78.794 Y78.650
 X78.753 Y78.468
 X78.714 Y78.284
 X78.671 Y78.103
 X78.622 Y77.928
 X78.562 Y77.763
 X78.486 Y77.610
 X78.390 Y77.474
 X78.269 Y77.361
 X78.119 Y77.274
 X77.939 Y77.220
 X77.738 Y77.201
 X77.517 Y77.106
 X77.369 Y76.990
G00 Z5.000
 X76.846 Y81.895
G00 Z0.500
G01 Z-6.300 F2540
 X77.042 Y81.901
 X77.248 Y81.917
 X77.461 Y81.945
 X77.677 Y81.984
 X77.891 Y82.035
 X78.100 Y82.099
 X78.301 Y82.176
 X78.489 Y82.265
 X78.661 Y82.368
 X78.813 Y82.485
 X78.941 Y82.614
 X79.049 Y82.768
 X79.282 Y82.944
 X79.444 Y83.132
 X79.553 Y83.337
 X79.616 Y83.559
 X79.640 Y83.796
 X79.630 Y84.047
 X79.593 Y84.309
 X79.535 Y84.580
 X79.464 Y84.856
 X79.385 Y85.136
 X79.306 Y85.417
 X79.234 Y85.696
 X79.176 Y85.972
 X79.139 Y86.242
 X79.129 Y86.504
 X79.156 Y86.756
 X79.226 Y86.995
 X79.346 Y87.218
 X79.525 Y87.420
 X79.729 Y87.571
 X79.649 Y87.745
 X79.534 Y87.929
 X79.402 Y88.090
 X79.257 Y88.230
 X79.099 Y88.349
 X78.932 Y88.448
 X78.757 Y88.528
 X78.577 Y88.590
 X78.393 Y88.635
 X78.208 Y88.663
 X78.025 Y88.675
 X77.846 Y88.672
 X77.673 Y88.655
 X77.509 Y88.624
 X77.355 Y88.582
 X77.216 Y88.528
 X77.092 Y88.464
 X76.986 Y88.391
 X76.901 Y88.311
 X76.854 Y88.246
 X76.957 Y88.073
 X77.030 Y87.884
 X77.056 Y87.708
 X77.040 Y87.545
 X76.987 Y87.396
 X76.902 Y87.258
 X76.791 Y87.130
 X76.660 Y87.010
 X76.512 Y86.893
 X76.354 Y86.777
 X76.188 Y86.661
 X76.019 Y86.541
 X75.852 Y86.416
 X75.691 Y86.284
 X75.541 Y86.142
 X75.406 Y85.988
 X75.289 Y85.821
 X75.196 Y85.638
 X75.130 Y85.436
 X75.093 Y85.204
 X75.028 Y85.052
 X75.015 Y84.920
 X75.041 Y84.791
 X75.102 Y84.662
 X75.195 Y84.532
 X75.314 Y84.401
 X75.453 Y84.270
 X75.605 Y84.138
 X75.764 Y84.003
 X75.923 Y83.866
 X76.077 Y83.725
 X76.219 Y83.579
 X76.343 Y83.426
 X76.441 Y83.265
 X76.508 Y83.094
 X76.534 Y82.913
 X76.514 Y82.723
 X76.439 Y82.524
 X76.307 Y82.317
 X76.122 Y82.113
 X76.111 Y82.075
 X76.123 Y82.044
 X76.166 Y82.007
 X76.247 Y81.970
 X76.361 Y81.938
 X76.501 Y81.914
 X76.665 Y81.900
 X76.846 Y81.895
G00 Z5.000
 X82.644 Y84.455
G00 Z0.500
G01 Z-6.300 F2540
 X82.670 Y84.371
 X82.745 Y84.218
 X82.839 Y84.089
 X82.950 Y83.983
 X83.077 Y83.897
 X83.219 Y83.827
 X83.375 Y83.771
 X83.542 Y83.729
 X83.719 Y83.696
 X83.903 Y83.672
 X84.093 Y83.654
 X84.287 Y83.638
 X84.482 Y83.624
 X84.678 Y83.608
 X84.871 Y83.587
 X85.061 Y83.560
 X85.245 Y83.523
 X85.422 Y83.474
 X85.589 Y83.410
 X85.746 Y83.328
 X85.879 Y83.232
 X86.011 Y83.186
 X86.139 Y83.145
 X86.257 Y83.111
 X86.363 Y83.087
 X86.460 Y83.075
 X86.548
 X86.626 Y83.088
 X86.699 Y83.116
 X86.767 Y83.160
 X86.832 Y83.223
 X86.896 Y83.309
 X86.958 Y83.418
 X87.019 Y83.554
 X87.078 Y83.716
 X87.137 Y83.908
 X87.196 Y84.131
 X87.256 Y84.385
 X87.317 Y84.673
 X87.381 Y84.997
 X87.446 Y85.352
 X87.434 Y85.548
 X87.399 Y85.734
 X87.342 Y85.907
 X87.266 Y86.066
 X87.173 Y86.211
 X87.063 Y86.343
 X86.938 Y86.462
 X86.801 Y86.567
 X86.653 Y86.658
 X86.496 Y86.735
 X86.331 Y86.798
 X86.161 Y86.846
 X85.987 Y86.879
 X85.812 Y86.898
 X85.636 Y86.902
 X85.463 Y86.891
 X85.293 Y86.865
 X85.129 Y86.824
 X84.973 Y86.767
 X84.824 Y86.694
 X84.703 Y86.631
 X84.571 Y86.554
 X84.429 Y86.464
 X84.280 Y86.362
 X84.125 Y86.250
 X83.967 Y86.130
 X83.808 Y86.002
 X83.651 Y85.869
 X83.497 Y85.731
 X83.350 Y85.591
 X83.210 Y85.449
 X83.080 Y85.307
 X82.963 Y85.167
 X82.861 Y85.029
 X82.776 Y84.897
 X82.710 Y84.771
 X82.665 Y84.654
 X82.643 Y84.548
 Y84.455
G00 Z5.000
 X82.725 Y88.937
G00 Z0.500
G01 Z-6.300 F2540
 X83.166 Y88.925
 X83.466 Y88.940
 X83.752 Y88.983
 X84.021 Y89.053
 X84.274 Y89.147
 X84.508 Y89.263
 X84.721 Y89.399
 X84.914 Y89.553
 X85.083 Y89.723
 X85.229 Y89.907
 X85.349 Y90.102
 X85.442 Y90.307
 X85.506 Y90.519
 X85.542 Y90.737
 X85.547 Y90.958
 X85.519 Y91.181
 X85.458 Y91.404
 X85.362 Y91.625
 X85.229 Y91.843
 X85.058 Y92.055
 X84.838 Y92.267
 X84.789 Y92.368
 X84.734 Y92.457
 X84.669 Y92.544
 X84.592 Y92.628
 X84.507 Y92.709
 X84.414 Y92.785
 X84.313 Y92.857
 X84.206 Y92.923
 X84.094 Y92.982
 X83.978 Y93.035
 X83.859 Y93.080
 X83.738 Y93.117
 X83.615 Y93.145
 X83.493 Y93.164
 X83.372 Y93.172
 X83.253
 X83.138 Y93.158
 X83.026 Y93.134
 X82.919 Y93.098
 X82.817 Y93.048
 X82.552 Y92.899
 X82.275 Y92.792
 X81.995 Y92.726
 X81.713 Y92.696
 X81.431
 X81.153 Y92.723
 X80.880 Y92.770
 X80.614 Y92.832
 X80.358 Y92.906
 X80.113 Y92.985
 X79.882 Y93.065
 X79.666 Y93.142
 X79.469 Y93.209
 X79.293 Y93.263
 X79.140 Y93.299
 X79.016 Y93.312
 X78.924 Y93.300
 X78.865 Y93.265
 X78.827 Y93.202
 X78.814 Y93.106
 X78.920 Y92.961
 X78.990 Y92.788
 X79.012 Y92.613
 X78.996 Y92.438
 X78.948 Y92.266
 X78.875 Y92.097
 X78.786 Y91.932
 X78.686 Y91.771
 X78.583 Y91.616
 X78.482 Y91.468
 X78.391 Y91.329
 X78.315 Y91.199
 X78.262 Y91.083
 X78.237 Y90.982
 X78.243 Y90.900
 X78.280 Y90.832
 X78.360 Y90.770
 X78.498 Y90.717
 X78.700 Y90.678
 X78.972 Y90.655
 X79.261 Y90.643
 X79.513 Y90.607
 X79.731 Y90.549
 X79.918 Y90.472
 X80.080 Y90.378
 X80.221 Y90.272
 X80.348 Y90.155
 X80.465 Y90.032
 X80.578 Y89.904
 X80.693 Y89.775
 X80.815 Y89.648
 X80.950 Y89.523
 X81.102 Y89.404
 X81.279 Y89.293
 X81.486 Y89.192
 X81.728 Y89.103
 X82.012 Y89.029
 X82.342 Y88.973
 X82.725 Y88.937
G00 Z5.000
 X86.868 Y92.622
G00 Z0.500
G01 Z-6.300 F2540
 X86.973 Y92.497
 X87.098 Y92.365
 X87.240 Y92.231
 X87.398 Y92.096
 X87.568 Y91.965
 X87.748 Y91.841
 X87.936 Y91.725
 X88.129 Y91.622
 X88.325 Y91.535
 X88.522 Y91.465
 X88.716 Y91.416
 X88.905 Y91.391
 X89.087
 X89.273 Y91.425
 X89.562 Y91.384
 X89.810 Y91.402
 X90.032 Y91.470
 X90.233 Y91.582
 X90.418 Y91.734
 X90.588 Y91.918
 X90.747 Y92.130
 X90.898 Y92.362
 X91.043 Y92.608
 X91.185 Y92.861
 X91.328 Y93.116
 X91.474 Y93.364
 X91.628 Y93.600
 X91.792 Y93.817
 X91.971 Y94.009
 X92.168 Y94.169
 X92.386 Y94.289
 X92.629 Y94.361
 X92.898 Y94.378
 X93.150 Y94.340
 X93.216 Y94.519
 X93.265 Y94.731
 X93.286 Y94.938
 X93.282 Y95.140
 X93.255 Y95.335
 X93.207 Y95.524
 X93.139 Y95.704
 X93.056 Y95.876
 X92.957 Y96.037
 X92.846 Y96.187
 X92.726 Y96.325
 X92.597 Y96.450
 X92.462 Y96.560
 X92.325 Y96.655
 X92.186 Y96.733
 X92.049 Y96.794
 X91.916 Y96.836
 X91.790 Y96.859
 X91.673 Y96.863
 X91.595 Y96.850
 X91.545 Y96.655
 X91.462 Y96.470
 X91.357 Y96.327
 X91.231 Y96.223
 X91.087 Y96.155
 X90.929 Y96.118
 X90.761 Y96.106
 X90.582 Y96.113
 X90.396 Y96.135
 X90.202 Y96.165
 X90.002 Y96.201
 X89.799 Y96.235
 X89.592 Y96.265
 X89.385 Y96.285
 X89.178 Y96.291
 X88.973 Y96.278
 X88.773 Y96.242
 X88.577 Y96.178
 X88.388 Y96.083
 X88.198 Y95.944
 X88.045 Y95.883
 X87.942 Y95.799
 X87.869 Y95.689
 X87.821 Y95.554
 X87.795 Y95.397
 X87.787 Y95.220
 X87.792 Y95.029
 X87.806 Y94.828
 X87.823 Y94.621
 X87.839 Y94.411
 X87.848 Y94.203
 X87.845 Y93.999
 X87.824 Y93.804
 X87.780 Y93.620
 X87.707 Y93.452
 X87.597 Y93.305
 X87.448 Y93.185
 X87.255 Y93.097
 X87.015 Y93.045
 X86.740 Y93.031
 X86.705 Y93.012
 X86.692 Y92.982
 X86.696 Y92.925
 X86.727 Y92.841
 X86.785 Y92.738
 X86.868 Y92.622
G00 Z5.000
 X89.534 Y88.811
G00 Z0.500
G01 Z-6.300 F2540
 X89.361 Y88.705
 X89.256 Y88.589
 X89.220 Y88.460
 X89.258 Y88.299
 X89.387 Y88.096
 X89.611 Y87.860
 X90.141 Y87.849
 X90.643 Y87.814
 X91.094 Y87.758
 X91.497 Y87.681
 X91.850 Y87.583
 X92.155 Y87.465
 X92.412 Y87.328
 X92.621 Y87.172
 X92.781 Y86.996
 X92.892 Y86.803
 X92.952 Y86.593
 X92.962 Y86.370
 X92.923 Y86.135
 X92.835 Y85.890
 X92.701 Y85.636
 X92.519 Y85.372
 X92.292 Y85.100
 X92.019 Y84.820
 X91.701 Y84.533
 X91.327 Y84.230
 X91.174 Y84.214
 X91.077 Y84.177
 X91.014 Y84.126
 X90.982 Y84.066
 X90.978 Y83.997
 X91.004 Y83.919
 X91.065 Y83.835
 X91.165 Y83.753
 X91.305 Y83.678
 X91.488 Y83.617
 X91.713 Y83.575
 X91.983 Y83.559
 X92.297 Y83.574
 X92.657 Y83.626
 X93.064 Y83.719
 X93.519 Y83.859
 X94.022 Y84.052
 X94.575 Y84.303
 X95.179 Y84.616
 X95.824 Y84.993
 X96.170 Y85.564
 X96.436 Y86.059
 X96.625 Y86.476
 X96.745 Y86.825
 X96.805 Y87.115
 X96.816 Y87.356
 X96.787 Y87.557
 X96.726 Y87.731
 X96.641 Y87.888
 X96.540 Y88.039
 X96.430 Y88.192
 X96.321 Y88.357
 X96.222 Y88.544
 X96.144 Y88.761
 X96.096 Y89.016
 X96.087 Y89.319
 X96.126 Y89.677
 X96.221 Y90.101
 X96.380 Y90.600
 X96.614 Y91.187
 X96.771 Y91.417
 X96.841 Y91.622
 Y91.809
 X96.778 Y91.982
 X96.660 Y92.142
 X96.490 Y92.286
 X96.278 Y92.412
 X96.030 Y92.517
 X95.755 Y92.598
 X95.461 Y92.654
 X95.158 Y92.683
 X94.852
 X94.553 Y92.654
 X94.270 Y92.593
 X94.009 Y92.500
 X93.780 Y92.372
 X93.589 Y92.210
 X93.445 Y92.012
 X93.353 Y91.776
 X93.319 Y91.493
 X93.279 Y91.072
 X93.160 Y90.702
 X92.975 Y90.384
 X92.733 Y90.113
 X92.447 Y89.885
 X92.126 Y89.694
 X91.781 Y89.533
 X91.422 Y89.398
 X91.059 Y89.282
 X90.701 Y89.180
 X90.360 Y89.087
 X90.044 Y88.998
 X89.765 Y88.907
 X89.534 Y88.811
G00 Z5.000
 X90.443 Y81.924
G00 Z0.500
G01 Z-6.300 F2540
 X90.171 Y81.901
 X89.904 Y81.825
 X89.650 Y81.692
 X89.310 Y81.330
 X89.036 Y81.009
 X88.823 Y80.730
 X88.665 Y80.486
 X88.554 Y80.273
 X88.482 Y80.086
 X88.441 Y79.918
 X88.423 Y79.764
 Y79.616
 X88.429 Y79.469
 X88.438 Y79.316
 X88.442 Y79.154
 X88.432 Y78.977
 X88.400 Y78.781
 X88.339 Y78.561
 X88.243 Y78.312
 X88.102 Y78.030
 X87.911 Y77.708
 X87.662 Y77.341
 X87.347 Y76.926
 X87.163 Y76.678
 X86.988 Y76.433
 X86.825 Y76.191
 X86.674 Y75.954
 X86.540 Y75.722
 X86.423 Y75.498
 X86.327 Y75.282
 X86.253 Y75.075
 X86.204 Y74.881
 X86.181 Y74.698
 X86.187 Y74.531
 X86.222 Y74.378
 X86.288 Y74.240
 X86.389 Y74.116
 X86.527 Y74.007
 X86.706 Y73.913
 X86.929 Y73.837
 X87.199 Y73.781
 X87.518 Y73.746
 X87.887 Y73.733
 X88.136 Y73.746
 X88.370 Y73.785
 X88.591 Y73.846
 X88.801 Y73.927
 X89.001 Y74.025
 X89.192 Y74.137
 X89.376 Y74.261
 X89.554 Y74.394
 X89.728 Y74.532
 X89.898 Y74.675
 X90.066 Y74.817
 X90.234 Y74.958
 X90.402 Y75.093
 X90.573 Y75.220
 X90.748 Y75.336
 X90.927 Y75.438
 X91.114 Y75.523
 X91.308 Y75.588
 X91.512 Y75.629
 X91.721 Y75.644
 X91.915 Y75.666
 X92.057 Y75.727
 X92.160 Y75.822
 X92.230 Y75.950
 X92.273 Y76.110
 X92.289 Y76.300
 X92.284 Y76.513
 X92.260 Y76.744
 X92.222 Y76.988
 X92.174 Y77.241
 X92.122 Y77.497
 X92.070 Y77.753
 X92.023 Y78.004
 X91.984 Y78.246
 X91.960 Y78.473
 X91.954 Y78.684
 X91.973 Y78.873
 X92.022 Y79.037
 X92.109 Y79.171
 X92.238 Y79.263
 X92.465 Y79.347
 X92.619 Y79.458
 X92.717 Y79.597
 X92.768 Y79.760
 X92.772 Y79.946
 X92.733 Y80.151
 X92.653 Y80.367
 X92.536 Y80.589
 X92.384 Y80.812
 X92.203 Y81.028
 X91.996 Y81.234
 X91.767 Y81.422
 X91.521 Y81.588
 X91.261 Y81.727
 X90.992 Y81.832
 X90.718 Y81.900
 X90.443 Y81.924
G00 Z5.000
 X74.641 Y87.349
G00 Z0.500
G01 Z-6.300 F2540
 X74.722 Y87.518
 X74.779 Y87.736
 X74.823 Y87.986
 X74.827 Y88.258
 X74.796 Y88.547
 X74.733 Y88.849
 X74.640 Y89.159
 X74.522 Y89.470
 X74.382 Y89.777
 X74.223 Y90.074
 X74.050 Y90.356
 X73.866 Y90.618
 X73.674 Y90.854
 X73.480 Y91.058
 X73.285 Y91.225
 X73.097 Y91.351
 X72.918 Y91.428
 X72.754 Y91.456
 X72.608 Y91.430
 X72.477 Y91.349
 X72.361 Y91.201
 X72.266 Y90.980
 X72.248 Y90.779
 X72.193 Y90.599
 X72.107 Y90.450
 X71.993 Y90.328
 X71.857 Y90.232
 X71.705 Y90.156
 X71.539 Y90.096
 X71.364 Y90.047
 X71.183 Y90.005
 X70.999 Y89.965
 X70.817 Y89.925
 X70.640 Y89.879
 X70.472 Y89.824
 X70.316 Y89.757
 X70.176 Y89.675
 X70.055 Y89.573
 X69.955 Y89.448
 X69.880 Y89.295
 X69.831 Y89.109
 X69.814 Y88.882
 X69.801 Y88.685
 X69.763 Y88.522
 X69.701 Y88.392
 X69.619 Y88.290
 X69.520 Y88.211
 X69.411 Y88.150
 X69.294 Y88.099
 X69.172 Y88.051
 X69.046 Y88.001
 X68.921 Y87.941
 X68.796 Y87.866
 X68.675 Y87.771
 X68.558 Y87.648
 X68.448 Y87.490
 X68.348 Y87.292
 X68.259 Y87.046
 X68.186 Y86.747
 X68.130 Y86.387
 X68.094 Y85.960
 X68.082 Y85.463
 X68.105 Y85.184
 X68.170 Y84.955
 X68.272 Y84.772
 X68.405 Y84.633
 X68.566 Y84.532
 X68.752 Y84.470
 X68.959 Y84.443
 X69.181 Y84.452
 X69.415 Y84.495
 X69.655 Y84.570
 X69.895 Y84.676
 X70.131 Y84.811
 X70.358 Y84.973
 X70.570 Y85.160
 X70.762 Y85.370
 X70.930 Y85.602
 X71.069 Y85.852
 X71.174 Y86.120
 X71.240 Y86.404
 X71.265 Y86.725
 X71.436 Y86.876
 X71.613 Y86.979
 X71.805 Y87.049
 X72.008 Y87.092
 X72.219 Y87.110
 X72.437
 X72.658 Y87.098
 X72.881 Y87.077
 X73.104 Y87.051
 X73.322 Y87.026
 X73.535 Y87.006
 X73.739 Y86.995
 X73.932
 X74.111 Y87.017
 X74.272 Y87.058
 X74.415 Y87.124
 X74.539 Y87.220
 X74.641 Y87.349
G00 Z5.000
 X113.788 Y86.970
G00 Z0.500
G01 Z-6.300 F2540
 X113.799 Y86.730
 X113.860 Y86.440
 X113.980 Y86.091
 X114.168 Y85.673
 X114.434 Y85.178
 X114.781 Y84.607
 X115.426 Y84.231
 X116.029 Y83.917
 X116.582 Y83.666
 X117.086 Y83.474
 X117.540 Y83.333
 X117.947 Y83.240
 X118.307 Y83.189
 X118.622 Y83.174
 X118.891 Y83.190
 X119.117 Y83.231
 X119.300 Y83.292
 X119.440 Y83.367
 X119.540 Y83.450
 X119.601 Y83.533
 X119.627 Y83.611
 X119.623 Y83.680
 X119.591 Y83.740
 X119.528 Y83.792
 X119.430 Y83.828
 X119.278 Y83.844
 X118.904 Y84.147
 X118.586 Y84.434
 X118.313 Y84.714
 X118.085 Y84.987
 X117.904 Y85.250
 X117.769 Y85.504
 X117.682 Y85.749
 X117.642 Y85.984
 X117.652 Y86.208
 X117.713 Y86.417
 X117.824 Y86.611
 X117.984 Y86.786
 X118.193 Y86.942
 X118.450 Y87.080
 X118.755 Y87.197
 X119.108 Y87.295
 X119.510 Y87.372
 X119.962 Y87.429
 X120.464 Y87.463
 X120.993 Y87.474
 X121.217 Y87.710
 X121.347 Y87.914
 X121.385 Y88.074
 X121.349 Y88.204
 X121.244 Y88.319
 X121.071 Y88.425
 X120.839 Y88.522
 X120.560 Y88.613
 X120.245 Y88.702
 X119.903 Y88.795
 X119.546 Y88.896
 X119.183 Y89.012
 X118.824 Y89.147
 X118.479 Y89.308
 X118.158 Y89.499
 X117.872 Y89.727
 X117.630 Y89.998
 X117.444 Y90.316
 X117.326 Y90.687
 X117.285 Y91.108
 X117.252 Y91.391
 X117.160 Y91.627
 X117.015 Y91.825
 X116.825 Y91.986
 X116.596 Y92.114
 X116.335 Y92.208
 X116.051 Y92.269
 X115.753 Y92.298
 X115.447
 X115.143 Y92.269
 X114.850 Y92.212
 X114.575 Y92.131
 X114.327 Y92.026
 X114.114 Y91.900
 X113.945 Y91.756
 X113.827 Y91.596
 X113.765 Y91.423
 Y91.236
 X113.834 Y91.032
 X113.990 Y90.801
 X114.225 Y90.214
 X114.384 Y89.715
 X114.479 Y89.292
 X114.518 Y88.933
 X114.509 Y88.631
 X114.461 Y88.375
 X114.382 Y88.158
 X114.284 Y87.972
 X114.175 Y87.806
 X114.065 Y87.653
 X113.963 Y87.503
 X113.879 Y87.345
 X113.818 Y87.171
 X113.788 Y86.970
G00 Z5.000
 X123.263 Y85.521
G00 Z0.500
G01 Z-6.300 F2540
 X123.206 Y85.348
 X123.171 Y85.163
 X123.159 Y84.966
 X123.224 Y84.611
 X123.287 Y84.288
 X123.348 Y84.000
 X123.408 Y83.745
 X123.467 Y83.523
 X123.526 Y83.331
 X123.586 Y83.168
 X123.647 Y83.032
 X123.709 Y82.923
 X123.773 Y82.838
 X123.838 Y82.775
 X123.906 Y82.730
 X123.978 Y82.703
 X124.057 Y82.689
 X124.145
 X124.241 Y82.702
 X124.348 Y82.725
 X124.465 Y82.759
 X124.593 Y82.801
 X124.726 Y82.847
 X124.859 Y82.942
 X125.015 Y83.024
 X125.183 Y83.088
 X125.359 Y83.137
 X125.544 Y83.174
 X125.733 Y83.201
 X125.927 Y83.222
 X126.122 Y83.238
 X126.318 Y83.253
 X126.512 Y83.268
 X126.702 Y83.287
 X126.886 Y83.311
 X127.063 Y83.343
 X127.230 Y83.386
 X127.385 Y83.441
 X127.527 Y83.511
 X127.655 Y83.598
 X127.766 Y83.704
 X127.859 Y83.832
 X127.935 Y83.985
 X127.960 Y84.069
 Y84.163
 X127.939 Y84.269
 X127.895 Y84.386
 X127.829 Y84.511
 X127.743 Y84.644
 X127.641 Y84.781
 X127.524 Y84.921
 X127.395 Y85.063
 X127.255 Y85.205
 X127.107 Y85.346
 X126.954 Y85.483
 X126.796 Y85.617
 X126.638 Y85.744
 X126.480 Y85.865
 X126.325 Y85.976
 X126.175 Y86.078
 X126.033 Y86.168
 X125.901 Y86.245
 X125.781 Y86.309
 X125.632 Y86.381
 X125.476 Y86.438
 X125.312 Y86.479
 X125.142 Y86.505
 X124.969 Y86.517
 X124.793 Y86.513
 X124.617 Y86.494
 X124.444 Y86.460
 X124.273 Y86.412
 X124.109 Y86.349
 X123.952 Y86.272
 X123.803 Y86.181
 X123.666 Y86.076
 X123.542 Y85.958
 X123.432 Y85.825
 X123.338 Y85.680
 X123.263 Y85.521
G00 Z5.000
 X125.691 Y89.167
G00 Z0.500
G01 Z-6.300 F2540
 X125.883 Y89.013
 X126.097 Y88.877
 X126.331 Y88.761
 X126.583 Y88.667
 X126.853 Y88.598
 X127.138 Y88.554
 X127.439 Y88.539
 X127.879 Y88.551
 X128.263 Y88.587
 X128.593 Y88.643
 X128.877 Y88.717
 X129.119 Y88.806
 X129.326 Y88.907
 X129.502 Y89.019
 X129.655 Y89.138
 X129.790 Y89.262
 X129.912 Y89.390
 X130.027 Y89.519
 X130.140 Y89.646
 X130.257 Y89.770
 X130.383 Y89.886
 X130.525 Y89.993
 X130.687 Y90.086
 X130.874 Y90.163
 X131.091 Y90.221
 X131.344 Y90.258
 X131.633 Y90.270
 X131.905 Y90.292
 X132.107 Y90.331
 X132.245 Y90.384
 X132.325 Y90.446
 X132.362 Y90.515
 X132.367 Y90.597
 X132.342 Y90.697
 X132.289 Y90.814
 X132.214 Y90.943
 X132.123 Y91.083
 X132.022 Y91.231
 X131.918 Y91.385
 X131.819 Y91.546
 X131.729 Y91.711
 X131.657 Y91.880
 X131.609 Y92.053
 X131.592 Y92.228
 X131.615 Y92.403
 X131.684 Y92.575
 X131.791 Y92.720
 X131.778 Y92.816
 X131.740 Y92.880
 X131.681 Y92.914
 X131.589 Y92.926
 X131.464 Y92.913
 X131.312 Y92.878
 X131.136 Y92.824
 X130.938 Y92.756
 X130.723 Y92.680
 X130.492 Y92.599
 X130.247 Y92.520
 X129.990 Y92.447
 X129.725 Y92.384
 X129.452 Y92.337
 X129.173 Y92.311
 X128.892
 X128.610 Y92.341
 X128.330 Y92.406
 X128.053 Y92.513
 X127.788 Y92.663
 X127.685 Y92.712
 X127.579 Y92.748
 X127.467 Y92.772
 X127.351 Y92.785
 X127.232
 X127.111 Y92.778
 X126.989 Y92.759
 X126.867 Y92.731
 X126.746 Y92.694
 X126.627 Y92.649
 X126.511 Y92.597
 X126.399 Y92.537
 X126.292 Y92.471
 X126.191 Y92.400
 X126.098 Y92.323
 X126.012 Y92.242
 X125.936 Y92.158
 X125.870 Y92.071
 X125.815 Y91.982
 X125.767 Y91.881
 X125.547 Y91.669
 X125.376 Y91.457
 X125.243 Y91.240
 X125.147 Y91.019
 X125.086 Y90.796
 X125.058 Y90.572
 X125.063 Y90.351
 X125.098 Y90.133
 X125.163 Y89.921
 X125.256 Y89.716
 X125.376 Y89.521
 X125.521 Y89.337
 X125.691 Y89.167
G00 Z5.000
 X130.956 Y87.359
G00 Z0.500
G01 Z-6.300 F2540
 X130.875 Y87.186
 X131.080 Y87.034
 X131.258 Y86.832
 X131.379 Y86.609
 X131.449 Y86.370
 X131.475 Y86.118
 X131.466 Y85.856
 X131.429 Y85.586
 X131.370 Y85.311
 X131.298 Y85.031
 X131.219 Y84.751
 X131.141 Y84.471
 X131.069 Y84.194
 X131.012 Y83.924
 X130.975 Y83.662
 X130.965 Y83.411
 X130.988 Y83.173
 X131.051 Y82.951
 X131.160 Y82.746
 X131.322 Y82.559
 X131.556 Y82.382
 X131.664 Y82.229
 X131.792 Y82.099
 X131.944 Y81.983
 X132.115 Y81.880
 X132.304 Y81.790
 X132.504 Y81.714
 X132.714 Y81.650
 X132.928 Y81.598
 X133.144 Y81.559
 X133.356 Y81.532
 X133.563 Y81.515
 X133.759 Y81.510
 X133.940 Y81.514
 X134.103 Y81.529
 X134.244 Y81.552
 X134.357 Y81.584
 X134.438 Y81.621
 X134.482 Y81.659
 X134.493 Y81.689
 X134.483 Y81.727
 X134.298 Y81.932
 X134.165 Y82.138
 X134.091 Y82.337
 X134.070 Y82.528
 X134.097 Y82.709
 X134.163 Y82.880
 X134.262 Y83.041
 X134.386 Y83.193
 X134.528 Y83.339
 X134.681 Y83.480
 X134.841 Y83.618
 X135.000 Y83.752
 X135.152 Y83.884
 X135.290 Y84.016
 X135.409 Y84.146
 X135.502 Y84.276
 X135.564 Y84.405
 X135.590 Y84.534
 X135.576 Y84.667
 X135.512 Y84.819
 X135.475 Y85.051
 X135.409 Y85.252
 X135.315 Y85.435
 X135.199 Y85.602
 X135.064 Y85.756
 X134.913 Y85.898
 X134.753 Y86.031
 X134.586 Y86.156
 X134.417 Y86.275
 X134.251 Y86.392
 X134.092 Y86.507
 X133.945 Y86.624
 X133.814 Y86.745
 X133.703 Y86.872
 X133.618 Y87.010
 X133.564 Y87.160
 X133.548 Y87.323
 X133.575 Y87.498
 X133.647 Y87.687
 X133.750 Y87.861
 X133.704 Y87.925
 X133.618 Y88.005
 X133.513 Y88.078
 X133.389 Y88.142
 X133.249 Y88.196
 X133.096 Y88.239
 X132.932 Y88.269
 X132.759 Y88.286
 X132.580 Y88.289
 X132.396 Y88.277
 X132.212 Y88.249
 X132.028 Y88.205
 X131.848 Y88.143
 X131.673 Y88.062
 X131.505 Y87.963
 X131.348 Y87.844
 X131.202 Y87.704
 X131.071 Y87.543
 X130.956 Y87.359
G00 Z5.000
 X136.432 Y80.480
G00 Z0.500
G01 Z-6.300 F2540
 X136.282 Y80.378
 X136.127 Y80.266
 X135.970 Y80.146
 X135.811 Y80.018
 X135.654 Y79.885
 X135.500 Y79.747
 X135.352 Y79.607
 X135.212 Y79.465
 X135.083 Y79.323
 X134.966 Y79.183
 X134.864 Y79.046
 X134.779 Y78.913
 X134.713 Y78.787
 X134.668 Y78.670
 X134.646 Y78.564
 Y78.471
 X134.673 Y78.387
 X134.748 Y78.234
 X134.842 Y78.105
 X134.953 Y77.999
 X135.080 Y77.913
 X135.222 Y77.843
 X135.377 Y77.787
 X135.544 Y77.745
 X135.721 Y77.713
 X135.905 Y77.688
 X136.095 Y77.670
 X136.289 Y77.654
 X136.485 Y77.640
 X136.680 Y77.624
 X136.874 Y77.603
 X137.064 Y77.576
 X137.248 Y77.539
 X137.425 Y77.490
 X137.592 Y77.426
 X137.748 Y77.344
 X137.881 Y77.248
 X138.014 Y77.202
 X138.142 Y77.161
 X138.259 Y77.127
 X138.366 Y77.103
 X138.463 Y77.091
 X138.550
 X138.629 Y77.104
 X138.701 Y77.132
 X138.769 Y77.176
 X138.835 Y77.239
 X138.898 Y77.325
 X138.960 Y77.434
 X139.021 Y77.570
 X139.081 Y77.732
 X139.140 Y77.924
 X139.199 Y78.147
 X139.259 Y78.401
 X139.320 Y78.689
 X139.383 Y79.013
 X139.448 Y79.368
 X139.436 Y79.564
 X139.401 Y79.750
 X139.345 Y79.923
 X139.269 Y80.082
 X139.175 Y80.227
 X139.065 Y80.359
 X138.941 Y80.478
 X138.804 Y80.583
 X138.656 Y80.674
 X138.498 Y80.751
 X138.334 Y80.814
 X138.164 Y80.862
 X137.990 Y80.895
 X137.814 Y80.914
 X137.639 Y80.918
 X137.465 Y80.907
 X137.295 Y80.881
 X137.132 Y80.840
 X136.975 Y80.783
 X136.826 Y80.710
 X136.706 Y80.647
 X136.574 Y80.570
 X136.432 Y80.480
G00 Z5.000
 X136.628 Y75.216
G00 Z0.500
G01 Z-6.300 F2540
 X136.328 Y75.201
 X136.042 Y75.157
 X135.773 Y75.087
 X135.520 Y74.993
 X135.286 Y74.877
 X135.073 Y74.741
 X134.880 Y74.587
 X134.711 Y74.417
 X134.565 Y74.234
 X134.445 Y74.038
 X134.352 Y73.834
 X134.287 Y73.621
 X134.252 Y73.404
 X134.247 Y73.182
 X134.275 Y72.959
 X134.336 Y72.736
 X134.432 Y72.515
 X134.565 Y72.297
 X134.736 Y72.086
 X134.956 Y71.874
 X135.005 Y71.772
 X135.059 Y71.683
 X135.125 Y71.596
 X135.202 Y71.512
 X135.287 Y71.432
 X135.380 Y71.355
 X135.481 Y71.284
 X135.588 Y71.218
 X135.700 Y71.158
 X135.816 Y71.106
 X135.935 Y71.060
 X136.056 Y71.024
 X136.179 Y70.995
 X136.301 Y70.977
 X136.422 Y70.968
 X136.541
 X136.656 Y70.982
 X136.768 Y71.006
 X136.875 Y71.043
 X136.977 Y71.092
 X137.242 Y71.242
 X137.519 Y71.348
 X137.799 Y71.414
 X138.081 Y71.444
 X138.363
 X138.641 Y71.417
 X138.914 Y71.370
 X139.180 Y71.308
 X139.436 Y71.235
 X139.681 Y71.155
 X139.912 Y71.075
 X140.128 Y70.999
 X140.325 Y70.931
 X140.501 Y70.877
 X140.654 Y70.841
 X140.778 Y70.829
 X140.870 Y70.840
 X140.929 Y70.875
 X140.967 Y70.939
 X140.980 Y71.034
 X140.874 Y71.180
 X140.804 Y71.352
 X140.782 Y71.527
 X140.798 Y71.702
 X140.846 Y71.874
 X140.919 Y72.044
 X141.008 Y72.209
 X141.108 Y72.369
 X141.211 Y72.524
 X141.312 Y72.672
 X141.403 Y72.812
 X141.479 Y72.941
 X141.532 Y73.058
 X141.557 Y73.158
 X141.551 Y73.240
 X141.514 Y73.308
 X141.434 Y73.370
 X141.296 Y73.424
 X141.094 Y73.463
 X140.822 Y73.485
 X140.533 Y73.497
 X140.281 Y73.533
 X140.063 Y73.591
 X139.876 Y73.668
 X139.714 Y73.762
 X139.573 Y73.869
 X139.446 Y73.985
 X139.329 Y74.109
 X139.216 Y74.236
 X139.101 Y74.365
 X138.979 Y74.493
 X138.844 Y74.617
 X138.692 Y74.736
 X138.515 Y74.847
 X138.308 Y74.949
 X138.066 Y75.038
 X137.782 Y75.111
 X137.452 Y75.168
 X137.069 Y75.203
 X136.628 Y75.216
G00 Z5.000
 X133.237 Y75.985
G00 Z0.500
G01 Z-6.300 F2540
 X133.315 Y76.164
 X133.342 Y76.327
 X133.317 Y76.474
 X133.235 Y76.605
 X133.088 Y76.721
 X132.867 Y76.816
 X132.666 Y76.834
 X132.486 Y76.888
 X132.336 Y76.975
 X132.215 Y77.089
 X132.118 Y77.224
 X132.043 Y77.377
 X131.982 Y77.543
 X131.933 Y77.718
 X131.891 Y77.899
 X131.852 Y78.082
 X131.811 Y78.264
 X131.765 Y78.441
 X131.711 Y78.610
 X131.644 Y78.766
 X131.561 Y78.906
 X131.459 Y79.027
 X131.334 Y79.126
 X131.182 Y79.202
 X130.996 Y79.250
 X130.768 Y79.268
 X130.571 Y79.281
 X130.409 Y79.319
 X130.278 Y79.381
 X130.176 Y79.463
 X130.097 Y79.561
 X130.036 Y79.670
 X129.985 Y79.788
 X129.938 Y79.910
 X129.887 Y80.035
 X129.828 Y80.161
 X129.753 Y80.286
 X129.657 Y80.407
 X129.534 Y80.524
 X129.377 Y80.633
 X129.179 Y80.734
 X128.933 Y80.822
 X128.633 Y80.896
 X128.273 Y80.952
 X127.847 Y80.988
 X127.350 Y81.000
 X127.070 Y80.977
 X126.841 Y80.912
 X126.659 Y80.810
 X126.519 Y80.677
 X126.419 Y80.516
 X126.356 Y80.330
 X126.330 Y80.123
 X126.339 Y79.900
 X126.381 Y79.666
 X126.457 Y79.427
 X126.563 Y79.186
 X126.698 Y78.950
 X126.860 Y78.724
 X127.047 Y78.512
 X127.257 Y78.319
 X127.488 Y78.151
 X127.739 Y78.013
 X128.007 Y77.908
 X128.290 Y77.841
 X128.611 Y77.816
 X128.762 Y77.646
 X128.866 Y77.468
 X128.936 Y77.277
 X128.978 Y77.074
 X128.997 Y76.862
 Y76.645
 X128.985 Y76.423
 X128.964 Y76.200
 X128.938 Y75.978
 X128.913 Y75.759
 X128.892 Y75.547
 X128.881 Y75.342
 Y75.150
 X128.903 Y74.971
 X128.945 Y74.809
 X129.011 Y74.666
 X129.106 Y74.543
 X129.235 Y74.440
 X129.405 Y74.359
 X129.623 Y74.303
 X129.873 Y74.259
 X130.144 Y74.254
 X130.434 Y74.285
 X130.736 Y74.349
 X131.045 Y74.442
 X131.356 Y74.560
 X131.663 Y74.700
 X131.960 Y74.859
 X132.243 Y75.032
 X132.504 Y75.216
 X132.740 Y75.407
 X132.945 Y75.602
 X133.112 Y75.796
 X133.237 Y75.985
G00 Z5.000
 X134.047 Y69.260
G00 Z0.500
G01 Z-6.300 F2540
 X133.968 Y69.246
 X133.896 Y69.219
 X133.828 Y69.175
 X133.762 Y69.111
 X133.699 Y69.026
 X133.636 Y68.917
 X133.576 Y68.781
 X133.516 Y68.618
 X133.457 Y68.426
 X133.398 Y68.204
 X133.338 Y67.950
 X133.277 Y67.661
 X133.214 Y67.338
 X133.149 Y66.983
 X133.161 Y66.787
 X133.196 Y66.601
 X133.252 Y66.428
 X133.328 Y66.269
 X133.422 Y66.124
 X133.532 Y65.991
 X133.656 Y65.873
 X133.793 Y65.768
 X133.941 Y65.677
 X134.098 Y65.600
 X134.263 Y65.537
 X134.433 Y65.489
 X134.607 Y65.455
 X134.783 Y65.436
 X134.958 Y65.433
 X135.132 Y65.444
 X135.301 Y65.470
 X135.465 Y65.511
 X135.622 Y65.568
 X135.770 Y65.640
 X135.891 Y65.704
 X136.023 Y65.781
 X136.165 Y65.871
 X136.315 Y65.973
 X136.469 Y66.084
 X136.627 Y66.205
 X136.786 Y66.332
 X136.943 Y66.466
 X137.097 Y66.603
 X137.245 Y66.744
 X137.384 Y66.886
 X137.514 Y67.028
 X137.631 Y67.168
 X137.733 Y67.305
 X137.818 Y67.438
 X137.884 Y67.563
 X137.929 Y67.680
 X137.951 Y67.786
 Y67.880
 X137.924 Y67.964
 X137.849 Y68.117
 X137.755 Y68.245
 X137.644 Y68.351
 X137.517 Y68.438
 X137.375 Y68.508
 X137.220 Y68.563
 X137.052 Y68.606
 X136.876 Y68.638
 X136.691 Y68.662
 X136.501 Y68.681
 X136.308 Y68.696
 X136.112 Y68.711
 X135.917 Y68.727
 X135.723 Y68.748
 X135.533 Y68.775
 X135.349 Y68.812
 X135.172 Y68.861
 X135.005 Y68.925
 X134.849 Y69.007
 X134.715 Y69.102
 X134.583 Y69.148
 X134.455 Y69.190
 X134.338 Y69.224
 X134.231 Y69.247
 X134.134 Y69.260
 X134.047
G00 Z5.000
 X133.000 Y63.759
G00 Z0.500
G01 Z-6.300 F2540
 X132.879 Y63.796
 X132.757 Y63.824
 X132.635 Y63.843
 X132.514 Y63.851
 X132.395
 X132.279 Y63.837
 X132.167 Y63.813
 X132.061 Y63.777
 X131.958 Y63.727
 X131.693 Y63.578
 X131.417 Y63.471
 X131.136 Y63.405
 X130.854 Y63.375
 X130.573
 X130.295 Y63.402
 X130.022 Y63.449
 X129.756 Y63.512
 X129.500 Y63.585
 X129.255 Y63.664
 X129.023 Y63.744
 X128.808 Y63.821
 X128.611 Y63.888
 X128.434 Y63.942
 X128.282 Y63.978
 X128.157 Y63.991
 X128.066 Y63.979
 X128.006 Y63.944
 X127.969 Y63.881
 X127.956 Y63.785
 X128.062 Y63.640
 X128.131 Y63.467
 X128.154 Y63.292
 X128.137 Y63.117
 X128.089 Y62.945
 X128.017 Y62.776
 X127.928 Y62.611
 X127.828 Y62.450
 X127.724 Y62.295
 X127.624 Y62.147
 X127.532 Y62.008
 X127.457 Y61.878
 X127.404 Y61.762
 X127.379 Y61.661
 X127.384 Y61.579
 X127.421 Y61.511
 X127.502 Y61.449
 X127.639 Y61.396
 X127.841 Y61.357
 X128.113 Y61.334
 X128.403 Y61.322
 X128.655 Y61.286
 X128.872 Y61.228
 X129.059 Y61.151
 X129.221 Y61.058
 X129.363 Y60.951
 X129.489 Y60.834
 X129.607 Y60.711
 X129.720 Y60.583
 X129.835 Y60.454
 X129.956 Y60.327
 X130.091 Y60.202
 X130.244 Y60.083
 X130.421 Y59.972
 X130.627 Y59.871
 X130.869 Y59.782
 X131.153 Y59.708
 X131.484 Y59.652
 X131.867 Y59.616
 X132.307 Y59.604
 X132.608 Y59.619
 X132.893 Y59.662
 X133.163 Y59.732
 X133.415 Y59.826
 X133.649 Y59.942
 X133.863 Y60.078
 X134.055 Y60.232
 X134.225 Y60.402
 X134.370 Y60.586
 X134.490 Y60.781
 X134.583 Y60.986
 X134.648 Y61.198
 X134.683 Y61.416
 X134.688 Y61.637
 X134.661 Y61.860
 X134.600 Y62.083
 X134.503 Y62.304
 X134.370 Y62.522
 X134.199 Y62.734
 X133.979 Y62.946
 X133.931 Y63.047
 X133.876 Y63.136
 X133.810 Y63.223
 X133.734 Y63.307
 X133.649 Y63.388
 X133.555 Y63.464
 X133.454 Y63.536
 X133.348 Y63.602
 X133.236 Y63.661
 X133.119 Y63.714
 X133.000 Y63.759
G00 Z5.000
 X130.312 Y66.932
G00 Z0.500
G01 Z-6.300 F2540
 X130.485 Y67.038
 X130.590 Y67.153
 X130.626 Y67.283
 X130.588 Y67.443
 X130.458 Y67.647
 X130.234 Y67.883
 X129.705 Y67.894
 X129.203 Y67.928
 X128.751 Y67.985
 X128.349 Y68.062
 X127.996 Y68.160
 X127.691 Y68.277
 X127.434 Y68.415
 X127.225 Y68.571
 X127.065 Y68.746
 X126.954 Y68.940
 X126.893 Y69.149
 X126.883 Y69.373
 X126.923 Y69.608
 X127.010 Y69.853
 X127.145 Y70.107
 X127.326 Y70.371
 X127.554 Y70.643
 X127.827 Y70.923
 X128.145 Y71.210
 X128.519 Y71.513
 X128.671 Y71.529
 X128.769 Y71.565
 X128.832 Y71.617
 X128.864 Y71.677
 X128.868 Y71.746
 X128.842 Y71.824
 X128.781 Y71.907
 X128.681 Y71.990
 X128.541 Y72.065
 X128.358 Y72.126
 X128.132 Y72.167
 X127.863 Y72.183
 X127.549 Y72.168
 X127.188 Y72.117
 X126.781 Y72.024
 X126.327 Y71.883
 X125.823 Y71.691
 X125.270 Y71.440
 X124.667 Y71.126
 X124.022 Y70.750
 X123.675 Y70.179
 X123.409 Y69.684
 X123.221 Y69.266
 X123.101 Y68.917
 X123.040 Y68.627
 X123.029 Y68.387
 X123.059 Y68.186
 X123.120 Y68.012
 X123.204 Y67.854
 X123.306 Y67.704
 X123.416 Y67.551
 X123.525 Y67.385
 X123.623 Y67.199
 X123.702 Y66.982
 X123.750 Y66.726
 X123.759 Y66.424
 X123.720 Y66.065
 X123.625 Y65.642
 X123.466 Y65.143
 X123.231 Y64.556
 X123.075 Y64.325
 X123.005 Y64.121
 Y63.934
 X123.068 Y63.761
 X123.186 Y63.601
 X123.355 Y63.457
 X123.568 Y63.331
 X123.816 Y63.226
 X124.091 Y63.145
 X124.385 Y63.088
 X124.688 Y63.059
 X124.994
 X125.292 Y63.088
 X125.576 Y63.149
 X125.837 Y63.243
 X126.066 Y63.371
 X126.256 Y63.532
 X126.401 Y63.730
 X126.493 Y63.966
 X126.527 Y64.249
 X126.567 Y64.670
 X126.685 Y65.041
 X126.871 Y65.359
 X127.113 Y65.630
 X127.399 Y65.858
 X127.720 Y66.049
 X128.065 Y66.210
 X128.424 Y66.345
 X128.787 Y66.461
 X129.144 Y66.562
 X129.486 Y66.655
 X129.802 Y66.744
 X130.081 Y66.835
 X130.312 Y66.932
G00 Z5.000
 X124.078 Y73.621
G00 Z0.500
G01 Z-6.300 F2540
 X124.216 Y73.730
 X124.317 Y73.854
 X124.383 Y73.992
 X124.418 Y74.145
 X124.424 Y74.313
 X124.401 Y74.495
 X124.352 Y74.690
 X124.278 Y74.896
 X124.182 Y75.112
 X124.065 Y75.336
 X123.931 Y75.568
 X123.780 Y75.805
 X123.616 Y76.047
 X123.441 Y76.292
 X123.257 Y76.540
 X122.943 Y76.956
 X122.694 Y77.322
 X122.502 Y77.644
 X122.362 Y77.927
 X122.265 Y78.175
 X122.205 Y78.395
 X122.173 Y78.592
 X122.163 Y78.769
 X122.166 Y78.931
 X122.176 Y79.083
 X122.183 Y79.230
 Y79.378
 X122.164 Y79.532
 X122.123 Y79.700
 X122.051 Y79.888
 X121.940 Y80.100
 X121.782 Y80.344
 X121.569 Y80.624
 X121.294 Y80.944
 X120.955 Y81.306
 X120.701 Y81.439
 X120.434 Y81.515
 X120.162 Y81.539
 X119.886 Y81.514
 X119.612 Y81.447
 X119.343 Y81.341
 X119.084 Y81.203
 X118.837 Y81.036
 X118.609 Y80.848
 X118.402 Y80.643
 X118.220 Y80.426
 X118.069 Y80.203
 X117.952 Y79.981
 X117.872 Y79.765
 X117.833 Y79.561
 X117.837 Y79.375
 X117.887 Y79.211
 X117.986 Y79.073
 X118.140 Y78.961
 X118.367 Y78.877
 X118.495 Y78.785
 X118.583 Y78.651
 X118.632 Y78.487
 X118.650 Y78.298
 X118.645 Y78.088
 X118.620 Y77.860
 X118.582 Y77.619
 X118.534 Y77.368
 X118.482 Y77.112
 X118.430 Y76.855
 X118.383 Y76.602
 X118.345 Y76.358
 X118.321 Y76.127
 X118.315 Y75.914
 X118.332 Y75.725
 X118.374 Y75.564
 X118.445 Y75.436
 X118.548 Y75.341
 X118.689 Y75.280
 X118.884 Y75.258
 X119.093 Y75.243
 X119.297 Y75.202
 X119.491 Y75.137
 X119.677 Y75.052
 X119.857 Y74.950
 X120.032 Y74.834
 X120.202 Y74.707
 X120.371 Y74.572
 X120.539 Y74.432
 X120.707 Y74.289
 X120.877 Y74.147
 X121.050 Y74.008
 X121.229 Y73.875
 X121.413 Y73.751
 X121.604 Y73.639
 X121.804 Y73.541
 X122.013 Y73.460
 X122.235 Y73.399
 X122.469 Y73.361
 X122.718 Y73.347
 X123.087 Y73.360
 X123.405 Y73.395
 X123.675 Y73.452
 X123.899 Y73.528
 X124.078 Y73.621
G00 Z5.000
 X121.517 Y91.007
G00 Z0.500
G01 Z-6.300 F2540
 X121.700
 X121.889 Y91.031
 X122.083 Y91.079
 X122.280 Y91.149
 X122.476 Y91.237
 X122.669 Y91.340
 X122.857 Y91.455
 X123.037 Y91.580
 X123.207 Y91.711
 X123.364 Y91.845
 X123.507 Y91.979
 X123.632 Y92.111
 X123.737 Y92.237
 X123.820 Y92.353
 X123.878 Y92.455
 X123.909 Y92.539
 X123.913 Y92.596
 X123.899 Y92.626
 X123.865 Y92.645
 X123.589 Y92.659
 X123.350 Y92.712
 X123.157 Y92.800
 X123.007 Y92.920
 X122.898 Y93.067
 X122.824 Y93.234
 X122.780 Y93.418
 X122.760 Y93.613
 X122.757 Y93.817
 X122.766 Y94.025
 X122.782 Y94.235
 X122.799 Y94.443
 X122.813 Y94.644
 X122.818 Y94.835
 X122.810 Y95.011
 X122.784 Y95.169
 X122.736 Y95.304
 X122.663 Y95.413
 X122.560 Y95.497
 X122.407 Y95.559
 X122.216 Y95.697
 X122.027 Y95.792
 X121.832 Y95.856
 X121.631 Y95.892
 X121.427 Y95.905
 X121.220 Y95.899
 X121.013 Y95.879
 X120.806 Y95.850
 X120.602 Y95.815
 X120.403 Y95.780
 X120.209 Y95.749
 X120.022 Y95.728
 X119.844 Y95.720
 X119.675 Y95.732
 X119.518 Y95.769
 X119.374 Y95.837
 X119.248 Y95.941
 X119.142 Y96.084
 X119.060 Y96.269
 X119.010 Y96.465
 X118.931 Y96.477
 X118.814 Y96.474
 X118.688 Y96.450
 X118.555 Y96.408
 X118.418 Y96.347
 X118.280 Y96.269
 X118.142 Y96.174
 X118.008 Y96.064
 X117.879 Y95.940
 X117.758 Y95.802
 X117.647 Y95.651
 X117.549 Y95.490
 X117.465 Y95.318
 X117.398 Y95.138
 X117.350 Y94.949
 X117.323 Y94.754
 X117.319 Y94.552
 X117.340 Y94.345
 X117.389 Y94.134
 X117.454 Y93.954
 X117.706 Y93.992
 X117.975 Y93.975
 X118.218 Y93.903
 X118.437 Y93.783
 X118.634 Y93.624
 X118.812 Y93.432
 X118.977 Y93.214
 X119.130 Y92.978
 X119.277 Y92.730
 X119.420 Y92.476
 X119.562 Y92.222
 X119.707 Y91.976
 X119.857 Y91.744
 X120.017 Y91.532
 X120.187 Y91.348
 X120.372 Y91.197
 X120.573 Y91.085
 X120.795 Y91.017
 X121.042 Y90.998
 X121.332 Y91.039
 X121.517 Y91.007
G00 Z5.000
 X135.872 Y88.464
G00 Z0.500
G01 Z-6.300 F2540
 X135.809 Y88.161
 X135.778 Y87.872
 X135.782 Y87.601
 X135.826 Y87.351
 X135.882 Y87.133
 X135.963 Y86.963
 X136.066 Y86.834
 X136.189 Y86.739
 X136.332 Y86.672
 X136.494 Y86.631
 X136.673 Y86.611
 X136.866
 X137.070 Y86.620
 X137.283 Y86.640
 X137.501 Y86.666
 X137.723 Y86.691
 X137.946 Y86.713
 X138.168 Y86.725
 X138.385
 X138.597 Y86.706
 X138.800 Y86.664
 X138.992 Y86.594
 X139.169 Y86.490
 X139.339 Y86.339
 X139.364 Y86.018
 X139.431 Y85.734
 X139.536 Y85.467
 X139.675 Y85.216
 X139.843 Y84.985
 X140.035 Y84.774
 X140.247 Y84.587
 X140.473 Y84.425
 X140.709 Y84.290
 X140.950 Y84.184
 X141.189 Y84.109
 X141.423 Y84.066
 X141.646 Y84.057
 X141.853 Y84.084
 X142.039 Y84.147
 X142.200 Y84.247
 X142.333 Y84.387
 X142.435 Y84.569
 X142.500 Y84.798
 X142.523 Y85.078
 X142.511 Y85.575
 X142.475 Y86.001
 X142.419 Y86.361
 X142.345 Y86.661
 X142.257 Y86.907
 X142.156 Y87.105
 X142.047 Y87.262
 X141.930 Y87.385
 X141.809 Y87.481
 X141.684 Y87.555
 X141.558 Y87.615
 X141.433 Y87.666
 X141.311 Y87.713
 X141.194 Y87.764
 X141.084 Y87.825
 X140.986 Y87.904
 X140.904 Y88.006
 X140.842 Y88.137
 X140.804 Y88.299
 X140.791 Y88.496
 X140.773 Y88.724
 X140.725 Y88.910
 X140.649 Y89.062
 X140.550 Y89.187
 X140.429 Y89.289
 X140.289 Y89.372
 X140.133 Y89.439
 X139.965 Y89.493
 X139.787 Y89.539
 X139.605 Y89.579
 X139.422 Y89.619
 X139.241 Y89.661
 X139.066 Y89.710
 X138.900 Y89.770
 X138.747 Y89.846
 X138.612 Y89.943
 X138.498 Y90.064
 X138.412 Y90.214
 X138.357 Y90.394
 X138.339 Y90.595
 X138.244 Y90.815
 X138.128 Y90.963
 X137.997 Y91.045
 X137.851 Y91.070
 X137.687 Y91.043
 X137.508 Y90.965
 X137.319 Y90.840
 X137.125 Y90.672
 X136.930 Y90.468
 X136.739 Y90.232
 X136.555 Y89.970
 X136.382 Y89.688
 X136.223 Y89.391
 X136.083 Y89.084
 X135.965 Y88.773
 X135.872 Y88.464
G00 Z5.000
 X141.955 Y82.748
G00 Z0.500
G01 Z-6.300 F2540
 X141.853 Y82.654
 X141.782 Y82.525
 X141.740 Y82.365
 X141.723 Y82.175
 X141.729 Y81.962
 X141.753 Y81.731
 X141.791 Y81.487
 X141.838 Y81.234
 X141.890 Y80.978
 X141.942 Y80.722
 X141.990 Y80.471
 X142.028 Y80.229
 X142.053 Y80.002
 X142.058 Y79.791
 X142.040 Y79.602
 X141.990 Y79.438
 X141.903 Y79.304
 X141.775 Y79.212
 X141.548 Y79.128
 X141.394 Y79.017
 X141.295 Y78.878
 X141.245 Y78.715
 X141.240 Y78.529
 X141.279 Y78.325
 X141.359 Y78.108
 X141.477 Y77.886
 X141.628 Y77.664
 X141.809 Y77.447
 X142.016 Y77.241
 X142.245 Y77.053
 X142.491 Y76.887
 X142.751 Y76.748
 X143.020 Y76.643
 X143.294 Y76.575
 X143.569 Y76.551
 X143.842 Y76.574
 X144.108 Y76.650
 X144.363 Y76.783
 X144.702 Y77.145
 X144.977 Y77.466
 X145.190 Y77.745
 X145.348 Y77.989
 X145.459 Y78.202
 X145.531 Y78.389
 X145.572 Y78.557
 X145.590 Y78.711
 Y78.859
 X145.584 Y79.006
 X145.574 Y79.159
 X145.571 Y79.321
 X145.581 Y79.498
 X145.613 Y79.694
 X145.673 Y79.914
 X145.770 Y80.163
 X145.910 Y80.445
 X146.101 Y80.767
 X146.351 Y81.134
 X146.665 Y81.550
 X146.849 Y81.797
 X147.024 Y82.042
 X147.188 Y82.284
 X147.338 Y82.521
 X147.473 Y82.753
 X147.590 Y82.977
 X147.686 Y83.193
 X147.760 Y83.400
 X147.809 Y83.595
 X147.831 Y83.777
 X147.826 Y83.944
 X147.791 Y84.097
 X147.724 Y84.235
 X147.624 Y84.359
 X147.486 Y84.468
 X147.307 Y84.562
 X147.083 Y84.638
 X146.813 Y84.694
 X146.494 Y84.729
 X146.126 Y84.742
 X145.877 Y84.729
 X145.642 Y84.690
 X145.421 Y84.629
 X145.211 Y84.548
 X145.012 Y84.450
 X144.820 Y84.338
 X144.636 Y84.214
 X144.458 Y84.082
 X144.285 Y83.943
 X144.115 Y83.800
 X143.946 Y83.658
 X143.779 Y83.517
 X143.610 Y83.382
 X143.439 Y83.255
 X143.265 Y83.139
 X143.085 Y83.037
 X142.899 Y82.952
 X142.704 Y82.888
 X142.501 Y82.846
 X142.292 Y82.831
 X142.097 Y82.809
 X141.955 Y82.748
G00 Z5.000
 X148.273 Y78.870
G00 Z0.500
G01 Z-6.300 F2540
 X148.138 Y78.703
 X148.020 Y78.532
 X147.922 Y78.357
 X147.849 Y78.180
 X147.803 Y78.004
 X147.786 Y77.817
 X147.672 Y77.547
 X147.626 Y77.304
 X147.634 Y77.072
 X147.690 Y76.848
 X147.788 Y76.631
 X147.922 Y76.418
 X148.086 Y76.210
 X148.271 Y76.004
 X148.471 Y75.800
 X148.679 Y75.598
 X148.888 Y75.394
 X149.090 Y75.188
 X149.278 Y74.978
 X149.445 Y74.763
 X149.584 Y74.541
 X149.688 Y74.310
 X149.747 Y74.068
 X149.753 Y73.814
 X149.700 Y73.550
 X149.598 Y73.317
 X149.755 Y73.207
 X149.947 Y73.105
 X150.141 Y73.031
 X150.337 Y72.982
 X150.533 Y72.958
 X150.727
 X150.919 Y72.974
 X151.106 Y73.011
 X151.288 Y73.064
 X151.462 Y73.132
 X151.626 Y73.213
 X151.780 Y73.305
 X151.921 Y73.406
 X152.048 Y73.515
 X152.160 Y73.628
 X152.254 Y73.745
 X152.329 Y73.862
 X152.384 Y73.978
 X152.417 Y74.090
 X152.426 Y74.169
 X152.250 Y74.268
 X152.093 Y74.396
 X151.982 Y74.535
 X151.914 Y74.683
 X151.886 Y74.840
 X151.891 Y75.002
 X151.923 Y75.168
 X151.976 Y75.338
 X152.045 Y75.513
 X152.125 Y75.692
 X152.211 Y75.876
 X152.297 Y76.064
 X152.379 Y76.255
 X152.452 Y76.451
 X152.511 Y76.649
 X152.551 Y76.850
 X152.568 Y77.053
 X152.558 Y77.258
 X152.514 Y77.465
 X152.430 Y77.685
 X152.410 Y77.849
 X152.356 Y77.970
 X152.269 Y78.069
 X152.151 Y78.150
 X152.005 Y78.216
 X151.837 Y78.270
 X151.651 Y78.314
 X151.453 Y78.353
 X151.249 Y78.389
 X151.042 Y78.428
 X150.838 Y78.474
 X150.642 Y78.529
 X150.459 Y78.600
 X150.293 Y78.690
 X150.150 Y78.804
 X150.036 Y78.948
 X149.959 Y79.123
 X149.924 Y79.333
 X149.935 Y79.578
 X149.993 Y79.848
 X149.984 Y79.886
 X149.902 Y79.917
 X149.813 Y79.909
 X149.699 Y79.879
 X149.566 Y79.830
 X149.417 Y79.760
 X149.257 Y79.674
 X149.091 Y79.571
 X148.920 Y79.454
 X148.750 Y79.323
 X148.583 Y79.182
 X148.423 Y79.030
 X148.273 Y78.870
G00 Z5.000
 X147.659 Y73.002
G00 Z0.500
G01 Z-6.300 F2540
 X147.430 Y73.068
 X147.151 Y73.091
 X146.654 Y73.078
 X146.228 Y73.043
 X145.868 Y72.987
 X145.568 Y72.913
 X145.322 Y72.824
 X145.124 Y72.724
 X144.966 Y72.614
 X144.843 Y72.498
 X144.748 Y72.376
 X144.673 Y72.252
 X144.614 Y72.126
 X144.563 Y72.001
 X144.515 Y71.878
 X144.465 Y71.761
 X144.403 Y71.652
 X144.325 Y71.554
 X144.222 Y71.471
 X144.092 Y71.410
 X143.929 Y71.371
 X143.733 Y71.358
 X143.505 Y71.341
 X143.319 Y71.292
 X143.166 Y71.217
 X143.041 Y71.117
 X142.940 Y70.997
 X142.857 Y70.857
 X142.790 Y70.701
 X142.735 Y70.532
 X142.690 Y70.355
 X142.649 Y70.173
 X142.610 Y69.990
 X142.567 Y69.808
 X142.518 Y69.633
 X142.458 Y69.468
 X142.382 Y69.315
 X142.286 Y69.179
 X142.165 Y69.066
 X142.015 Y68.979
 X141.835 Y68.925
 X141.634 Y68.906
 X141.413 Y68.811
 X141.265 Y68.695
 X141.184 Y68.564
 X141.159 Y68.418
 X141.186 Y68.254
 X141.264 Y68.076
 X141.389 Y67.887
 X141.556 Y67.693
 X141.761 Y67.498
 X141.996 Y67.307
 X142.258 Y67.122
 X142.540 Y66.949
 X142.838 Y66.791
 X143.144 Y66.651
 X143.455 Y66.532
 X143.765 Y66.440
 X144.067 Y66.376
 X144.357 Y66.345
 X144.628 Y66.350
 X144.878 Y66.394
 X145.096 Y66.450
 X145.265 Y66.531
 X145.395 Y66.634
 X145.490 Y66.757
 X145.556 Y66.900
 X145.597 Y67.062
 X145.617 Y67.240
 Y67.433
 X145.608 Y67.637
 X145.588 Y67.850
 X145.563 Y68.069
 X145.537 Y68.291
 X145.516 Y68.514
 X145.503 Y68.735
 Y68.953
 X145.523 Y69.165
 X145.565 Y69.368
 X145.635 Y69.559
 X145.738 Y69.736
 X145.889 Y69.907
 X146.211 Y69.932
 X146.494 Y69.998
 X146.762 Y70.103
 X147.012 Y70.242
 X147.244 Y70.410
 X147.454 Y70.603
 X147.641 Y70.814
 X147.803 Y71.041
 X147.938 Y71.277
 X148.044 Y71.517
 X148.119 Y71.757
 X148.162 Y71.991
 X148.171 Y72.214
 X148.145 Y72.421
 X148.082 Y72.606
 X147.982 Y72.768
 X147.842 Y72.901
 X147.659 Y73.002
G00 Z5.000
 X146.458 Y64.195
G00 Z0.500
G01 Z-6.300 F2540
 X146.283 Y64.214
 X146.107 Y64.218
 X145.934 Y64.207
 X145.764 Y64.181
 X145.600 Y64.139
 X145.444 Y64.083
 X145.295 Y64.010
 X145.175 Y63.947
 X145.042 Y63.869
 X144.901 Y63.779
 X144.751 Y63.678
 X144.596 Y63.566
 X144.438 Y63.446
 X144.280 Y63.318
 X144.122 Y63.185
 X143.969 Y63.047
 X143.821 Y62.907
 X143.681 Y62.765
 X143.552 Y62.623
 X143.435 Y62.482
 X143.332 Y62.345
 X143.247 Y62.213
 X143.181 Y62.087
 X143.136 Y61.970
 X143.114 Y61.864
 Y61.771
 X143.141 Y61.687
 X143.217 Y61.533
 X143.310 Y61.405
 X143.421 Y61.299
 X143.549 Y61.212
 X143.691 Y61.142
 X143.846 Y61.087
 X144.013 Y61.044
 X144.190 Y61.012
 X144.374 Y60.988
 X144.564 Y60.969
 X144.758 Y60.954
 X144.954 Y60.939
 X145.149 Y60.923
 X145.343 Y60.903
 X145.532 Y60.875
 X145.717 Y60.838
 X145.893 Y60.789
 X146.061 Y60.725
 X146.217 Y60.644
 X146.350 Y60.548
 X146.483 Y60.502
 X146.611 Y60.460
 X146.728 Y60.427
 X146.835 Y60.403
 X146.931 Y60.391
 X147.019
 X147.098 Y60.404
 X147.170 Y60.432
 X147.238 Y60.476
 X147.303 Y60.539
 X147.367 Y60.624
 X147.429 Y60.734
 X147.490 Y60.869
 X147.549 Y61.032
 X147.609 Y61.224
 X147.668 Y61.446
 X147.727 Y61.701
 X147.789 Y61.989
 X147.852 Y62.312
 X147.917 Y62.667
 X147.905 Y62.864
 X147.870 Y63.050
 X147.813 Y63.222
 X147.738 Y63.381
 X147.644 Y63.527
 X147.534 Y63.659
 X147.410 Y63.777
 X147.272 Y63.882
 X147.124 Y63.973
 X146.967 Y64.050
 X146.802 Y64.113
 X146.632 Y64.161
 X146.458 Y64.195
G00 Z5.000
 X148.227 Y66.100
G00 Z0.500
G01 Z-6.300 F2540
 X148.451 Y65.864
 X148.981 Y65.853
 X149.482 Y65.818
 X149.934 Y65.762
 X150.336 Y65.685
 X150.690 Y65.587
 X150.995 Y65.469
 X151.251 Y65.332
 X151.460 Y65.176
 X151.620 Y65.001
 X151.731 Y64.807
 X151.792 Y64.597
 X151.802 Y64.374
 X151.762 Y64.139
 X151.675 Y63.894
 X151.540 Y63.640
 X151.359 Y63.376
 X151.132 Y63.104
 X150.859 Y62.824
 X150.540 Y62.537
 X150.166 Y62.234
 X150.014 Y62.218
 X149.916 Y62.182
 X149.854 Y62.130
 X149.822 Y62.070
 X149.817 Y62.001
 X149.843 Y61.923
 X149.904 Y61.839
 X150.004 Y61.757
 X150.145 Y61.682
 X150.327 Y61.621
 X150.553 Y61.580
 X150.822 Y61.564
 X151.137 Y61.579
 X151.497 Y61.630
 X151.904 Y61.723
 X152.359 Y61.863
 X152.862 Y62.056
 X153.415 Y62.307
 X154.018 Y62.620
 X154.663 Y62.997
 X155.010 Y63.568
 X155.276 Y64.063
 X155.465 Y64.480
 X155.584 Y64.830
 X155.645 Y65.120
 X155.656 Y65.360
 X155.627 Y65.561
 X155.566 Y65.735
 X155.481 Y65.892
 X155.379 Y66.043
 X155.270 Y66.196
 X155.161 Y66.362
 X155.062 Y66.548
 X154.984 Y66.765
 X154.936 Y67.021
 X154.927 Y67.323
 X154.965 Y67.682
 X155.060 Y68.105
 X155.220 Y68.604
 X155.454 Y69.191
 X155.611 Y69.422
 X155.680 Y69.626
 Y69.813
 X155.618 Y69.986
 X155.499 Y70.146
 X155.330 Y70.290
 X155.117 Y70.416
 X154.869 Y70.521
 X154.594 Y70.602
 X154.301 Y70.658
 X153.997 Y70.688
 X153.692
 X153.393 Y70.659
 X153.109 Y70.598
 X152.848 Y70.504
 X152.619 Y70.376
 X152.429 Y70.214
 X152.284 Y70.017
 X152.192 Y69.781
 X152.159 Y69.497
 X152.118 Y69.076
 X152.000 Y68.706
 X151.814 Y68.388
 X151.573 Y68.117
 X151.286 Y67.889
 X150.965 Y67.698
 X150.620 Y67.537
 X150.261 Y67.402
 X149.898 Y67.286
 X149.541 Y67.185
 X149.199 Y67.092
 X148.884 Y67.002
 X148.605 Y66.912
 X148.373 Y66.815
 X148.200 Y66.709
 X148.096 Y66.593
 X148.060 Y66.464
 X148.097 Y66.304
 X148.227 Y66.100
G00 Z5.000
 X155.543 Y60.739
G00 Z0.500
G01 Z-6.300 F2540
 X155.268 Y60.419
 X155.056 Y60.139
 X154.898 Y59.895
 X154.787 Y59.682
 X154.714 Y59.495
 X154.673 Y59.327
 X154.656 Y59.173
 Y59.025
 X154.662 Y58.878
 X154.671 Y58.726
 X154.675 Y58.563
 X154.664 Y58.386
 X154.633 Y58.190
 X154.572 Y57.970
 X154.475 Y57.722
 X154.335 Y57.439
 X154.144 Y57.117
 X153.895 Y56.751
 X153.580 Y56.335
 X153.396 Y56.087
 X153.221 Y55.842
 X153.057 Y55.600
 X152.907 Y55.363
 X152.772 Y55.131
 X152.656 Y54.907
 X152.559 Y54.691
 X152.486 Y54.485
 X152.436 Y54.290
 X152.414 Y54.108
 X152.419 Y53.940
 X152.455 Y53.787
 X152.521 Y53.649
 X152.621 Y53.525
 X152.760 Y53.416
 X152.939 Y53.323
 X153.162 Y53.247
 X153.432 Y53.190
 X153.751 Y53.155
 X154.120 Y53.142
 X154.369 Y53.156
 X154.603 Y53.194
 X154.824 Y53.255
 X155.034 Y53.336
 X155.234 Y53.434
 X155.425 Y53.546
 X155.609 Y53.670
 X155.787 Y53.803
 X155.961 Y53.942
 X156.131 Y54.084
 X156.299 Y54.227
 X156.467 Y54.367
 X156.635 Y54.502
 X156.806 Y54.629
 X156.981 Y54.745
 X157.160 Y54.847
 X157.347 Y54.932
 X157.541 Y54.997
 X157.744 Y55.038
 X157.954 Y55.053
 X158.148 Y55.075
 X158.290 Y55.136
 X158.392 Y55.231
 X158.463 Y55.359
 X158.506 Y55.520
 X158.522 Y55.709
 X158.517 Y55.922
 X158.493 Y56.153
 X158.455 Y56.397
 X158.407 Y56.650
 X158.355 Y56.907
 X158.303 Y57.163
 X158.256 Y57.414
 X158.217 Y57.655
 X158.193 Y57.883
 X158.187 Y58.093
 X158.206 Y58.282
 X158.255 Y58.446
 X158.342 Y58.580
 X158.471 Y58.672
 X158.698 Y58.756
 X158.851 Y58.867
 X158.950 Y59.006
 X159.000 Y59.170
 X159.005 Y59.356
 X158.966 Y59.560
 X158.886 Y59.776
 X158.768 Y59.998
 X158.617 Y60.221
 X158.436 Y60.437
 X158.229 Y60.643
 X158.000 Y60.831
 X157.754 Y60.998
 X157.494 Y61.136
 X157.225 Y61.242
 X156.951 Y61.309
 X156.676 Y61.334
 X156.404 Y61.310
 X156.137 Y61.234
 X155.882 Y61.101
 X155.543 Y60.739
G00 Z5.000
 X148.199 Y55.433
G00 Z0.500
G01 Z-6.300 F2540
 X148.065 Y55.646
 X147.901 Y55.854
 X147.716 Y56.060
 X147.516 Y56.263
 X147.308 Y56.466
 X147.099 Y56.670
 X146.897 Y56.876
 X146.709 Y57.085
 X146.542 Y57.300
 X146.403 Y57.523
 X146.299 Y57.754
 X146.240 Y57.996
 X146.234 Y58.249
 X146.287 Y58.514
 X146.389 Y58.747
 X146.232 Y58.857
 X146.040 Y58.959
 X145.846 Y59.033
 X145.650 Y59.081
 X145.454 Y59.106
 X145.260
 X145.068 Y59.090
 X144.881 Y59.053
 X144.699 Y59.000
 X144.525 Y58.932
 X144.361 Y58.851
 X144.207 Y58.759
 X144.066 Y58.657
 X143.939 Y58.549
 X143.827 Y58.435
 X143.733 Y58.319
 X143.658 Y58.202
 X143.603 Y58.086
 X143.569 Y57.973
 X143.561 Y57.894
 X143.737 Y57.796
 X143.894 Y57.668
 X144.005 Y57.529
 X144.073 Y57.380
 X144.101 Y57.224
 X144.096 Y57.062
 X144.064 Y56.896
 X144.011 Y56.726
 X143.942 Y56.551
 X143.862 Y56.372
 X143.776 Y56.188
 X143.690 Y56.000
 X143.608 Y55.808
 X143.535 Y55.613
 X143.476 Y55.415
 X143.436 Y55.214
 X143.419 Y55.011
 X143.429 Y54.806
 X143.472 Y54.599
 X143.557 Y54.379
 X143.577 Y54.215
 X143.631 Y54.094
 X143.718 Y53.995
 X143.836 Y53.914
 X143.982 Y53.848
 X144.150 Y53.794
 X144.336 Y53.750
 X144.533 Y53.711
 X144.738 Y53.674
 X144.945 Y53.635
 X145.149 Y53.590
 X145.345 Y53.535
 X145.528 Y53.464
 X145.694 Y53.374
 X145.837 Y53.259
 X145.951 Y53.116
 X146.028 Y52.940
 X146.063 Y52.731
 X146.052 Y52.486
 X145.994 Y52.216
 X146.003 Y52.178
 X146.085 Y52.147
 X146.174 Y52.155
 X146.288 Y52.184
 X146.421 Y52.234
 X146.570 Y52.303
 X146.730 Y52.390
 X146.896 Y52.493
 X147.067 Y52.610
 X147.237 Y52.740
 X147.404 Y52.882
 X147.564 Y53.034
 X147.714 Y53.194
 X147.849 Y53.360
 X147.967 Y53.532
 X148.065 Y53.707
 X148.138 Y53.884
 X148.184 Y54.060
 X148.201 Y54.247
 X148.315 Y54.517
 X148.361 Y54.760
 X148.353 Y54.992
 X148.297 Y55.216
 X148.199 Y55.433
G00 Z5.000
 X141.117 Y60.110
G00 Z0.500
G01 Z-6.300 F2540
 X141.198 Y60.241
 X141.224 Y60.387
 X141.196 Y60.551
 X141.118 Y60.730
 X140.993 Y60.918
 X140.826 Y61.112
 X140.622 Y61.307
 X140.386 Y61.499
 X140.124 Y61.683
 X139.842 Y61.856
 X139.544 Y62.015
 X139.238 Y62.155
 X138.927 Y62.273
 X138.617 Y62.366
 X138.315 Y62.429
 X138.025 Y62.460
 X137.754 Y62.455
 X137.504 Y62.412
 X137.286 Y62.355
 X137.117 Y62.274
 X136.987 Y62.172
 X136.892 Y62.048
 X136.826 Y61.905
 X136.785 Y61.743
 X136.765 Y61.565
 Y61.372
 X136.774 Y61.168
 X136.794 Y60.955
 X136.819 Y60.736
 X136.845 Y60.514
 X136.866 Y60.291
 X136.879 Y60.070
 Y59.852
 X136.859 Y59.641
 X136.817 Y59.438
 X136.747 Y59.246
 X136.644 Y59.069
 X136.493 Y58.898
 X136.171 Y58.873
 X135.888 Y58.807
 X135.620 Y58.702
 X135.370 Y58.563
 X135.138 Y58.395
 X134.928 Y58.203
 X134.741 Y57.991
 X134.579 Y57.764
 X134.444 Y57.528
 X134.338 Y57.288
 X134.263 Y57.048
 X134.220 Y56.814
 X134.211 Y56.591
 X134.237 Y56.385
 X134.300 Y56.199
 X134.400 Y56.038
 X134.540 Y55.904
 X134.723 Y55.803
 X134.952 Y55.738
 X135.231 Y55.715
 X135.728 Y55.727
 X136.154 Y55.763
 X136.514 Y55.819
 X136.814 Y55.892
 X137.060 Y55.981
 X137.258 Y56.081
 X137.416 Y56.191
 X137.539 Y56.307
 X137.634 Y56.429
 X137.709 Y56.553
 X137.769 Y56.679
 X137.819 Y56.805
 X137.867 Y56.927
 X137.918 Y57.044
 X137.979 Y57.153
 X138.057 Y57.252
 X138.160 Y57.334
 X138.290 Y57.395
 X138.453 Y57.434
 X138.649 Y57.447
 X138.877 Y57.464
 X139.063 Y57.513
 X139.216 Y57.588
 X139.341 Y57.688
 X139.443 Y57.809
 X139.525 Y57.949
 X139.592 Y58.105
 X139.647 Y58.273
 X139.692 Y58.450
 X139.733 Y58.632
 X139.772 Y58.816
 X139.815 Y58.997
 X139.864 Y59.172
 X139.924 Y59.338
 X140.000 Y59.490
 X140.096 Y59.626
 X140.217 Y59.740
 X140.367 Y59.826
 X140.547 Y59.881
 X140.748 Y59.899
 X140.969 Y59.994
 X141.117 Y60.110
G00 Z5.000
G00 X0 Y0 (home)
M05
M30
%
