%
(Generated by SketchUcam V1.4d-80c0152)
(File: cnc.skp)
(Bit diameter: 0,1mm)
(Feed rate: 2540,0mm/min)
(Material Thickness: 6,3mm)
(Material length: 210,0mm X width: 210,0mm)
(Overhead Gantry: false)
(Plunge Depth first)
(Optimization is ON)
(www.PhlatBoyz.com)
G90 G21 G49 G17 F2540
M3 S15000
G00 Z5.000
 X72.598 Y118.462
G00 Z0.500
G01 Z-6.300 F2540
 X72.744 Y118.437
 X72.908 Y118.464
 X73.086 Y118.542
 X73.275 Y118.667
 X73.469 Y118.835
 X73.664 Y119.039
 X73.855 Y119.275
 X74.040 Y119.537
 X74.213 Y119.819
 X74.371 Y120.116
 X74.511 Y120.423
 X74.630 Y120.734
 X74.722 Y121.043
 X74.786 Y121.346
 X74.817 Y121.635
 X74.812 Y121.906
 X74.768 Y122.156
 X74.712 Y122.374
 X74.631 Y122.544
 X74.528 Y122.673
 X74.405 Y122.768
 X74.262 Y122.835
 X74.100 Y122.876
 X73.922 Y122.896
 X73.729
 X73.525 Y122.887
 X73.312 Y122.867
 X73.093 Y122.841
 X72.871 Y122.816
 X72.648 Y122.794
 X72.427 Y122.782
 X72.209
 X71.997 Y122.801
 X71.794 Y122.843
 X71.603 Y122.913
 X71.426 Y123.017
 X71.255 Y123.168
 X71.230 Y123.489
 X71.164 Y123.773
 X71.059 Y124.040
 X70.920 Y124.291
 X70.752 Y124.522
 X70.559 Y124.733
 X70.347 Y124.920
 X70.121 Y125.082
 X69.885 Y125.217
 X69.645 Y125.323
 X69.405 Y125.398
 X69.171 Y125.441
 X68.948 Y125.450
 X68.741 Y125.423
 X68.556 Y125.360
 X68.394 Y125.260
 X68.261 Y125.120
 X68.160 Y124.938
 X68.094 Y124.709
 X68.071 Y124.430
 X68.084 Y123.932
 X68.119 Y123.506
 X68.175 Y123.146
 X68.249 Y122.846
 X68.338 Y122.601
 X68.438 Y122.402
 X68.548 Y122.245
 X68.664 Y122.122
 X68.786 Y122.026
 X68.910 Y121.952
 X69.036 Y121.892
 X69.161 Y121.842
 X69.284 Y121.794
 X69.401 Y121.743
 X69.510 Y121.682
 X69.608 Y121.603
 X69.691 Y121.501
 X69.752 Y121.371
 X69.791 Y121.208
 X69.804 Y121.011
 X69.821 Y120.784
 X69.870 Y120.598
 X69.945 Y120.445
 X70.045 Y120.320
 X70.165 Y120.218
 X70.305 Y120.135
 X70.461 Y120.069
 X70.630 Y120.014
 X70.807 Y119.968
 X70.989 Y119.928
 X71.172 Y119.888
 X71.354 Y119.846
 X71.529 Y119.797
 X71.694 Y119.737
 X71.847 Y119.661
 X71.983 Y119.564
 X72.096 Y119.443
 X72.183 Y119.294
 X72.237 Y119.113
 X72.256 Y118.912
 X72.351 Y118.692
 X72.467 Y118.544
 X72.598 Y118.462
G00 Z5.000
 X76.976 Y121.502
G00 Z0.500
G01 Z-6.300 F2540
 X77.082 Y121.429
 X77.205 Y121.365
 X77.345 Y121.311
 X77.498 Y121.268
 X77.663 Y121.238
 X77.836 Y121.221
 X78.015 Y121.218
 X78.198 Y121.230
 X78.383 Y121.258
 X78.566 Y121.302
 X78.747 Y121.364
 X78.922 Y121.445
 X79.089 Y121.544
 X79.247 Y121.663
 X79.392 Y121.803
 X79.523 Y121.964
 X79.639 Y122.148
 X79.719 Y122.321
 X79.514 Y122.473
 X79.336 Y122.675
 X79.215 Y122.898
 X79.145 Y123.137
 X79.119 Y123.389
 X79.128 Y123.651
 X79.166 Y123.921
 X79.224 Y124.197
 X79.296 Y124.476
 X79.375 Y124.757
 X79.454 Y125.036
 X79.525 Y125.313
 X79.583 Y125.583
 X79.620 Y125.846
 X79.630 Y126.097
 X79.606 Y126.334
 X79.543 Y126.556
 X79.434 Y126.761
 X79.272 Y126.949
 X79.039 Y127.125
 X78.930 Y127.278
 X78.802 Y127.408
 X78.651 Y127.524
 X78.479 Y127.627
 X78.291 Y127.717
 X78.090 Y127.794
 X77.881 Y127.857
 X77.666 Y127.909
 X77.451 Y127.948
 X77.238 Y127.975
 X77.032 Y127.992
 X76.836 Y127.997
 X76.654 Y127.993
 X76.491 Y127.978
 X76.350 Y127.955
 X76.237 Y127.923
 X76.156 Y127.886
 X76.113 Y127.849
 X76.101 Y127.818
 X76.112 Y127.780
 X76.297 Y127.575
 X76.429 Y127.369
 X76.503 Y127.170
 X76.524 Y126.979
 X76.498 Y126.798
 X76.431 Y126.628
 X76.332 Y126.467
 X76.209 Y126.314
 X76.067 Y126.168
 X75.913 Y126.027
 X75.754 Y125.890
 X75.595 Y125.755
 X75.443 Y125.623
 X75.304 Y125.492
 X75.185 Y125.361
 X75.092 Y125.231
 X75.030 Y125.102
 X75.005 Y124.973
 X75.018 Y124.840
 X75.083 Y124.689
 X75.119 Y124.456
 X75.186 Y124.255
 X75.279 Y124.072
 X75.395 Y123.905
 X75.531 Y123.751
 X75.681 Y123.609
 X75.842 Y123.476
 X76.009 Y123.351
 X76.177 Y123.232
 X76.343 Y123.115
 X76.502 Y123.000
 X76.649 Y122.883
 X76.781 Y122.762
 X76.891 Y122.635
 X76.977 Y122.497
 X77.030 Y122.347
 X77.046 Y122.184
 X77.019 Y122.009
 X76.947 Y121.820
 X76.844 Y121.646
 X76.891 Y121.582
 X76.976 Y121.502
G00 Z5.000
 X78.488 Y119.176
G00 Z0.500
G01 Z-6.300 F2540
 X78.350 Y119.123
 X78.269 Y119.061
 X78.232 Y118.992
 X78.227 Y118.911
 X78.252 Y118.810
 X78.305 Y118.693
 X78.380 Y118.564
 X78.472 Y118.424
 X78.573 Y118.277
 X78.676 Y118.122
 X78.776 Y117.961
 X78.865 Y117.796
 X78.937 Y117.627
 X78.985 Y117.454
 X79.002 Y117.280
 X78.979 Y117.104
 X78.910 Y116.932
 X78.804 Y116.787
 X78.817 Y116.691
 X78.854 Y116.627
 X78.914 Y116.593
 X79.005 Y116.581
 X79.130 Y116.594
 X79.282 Y116.629
 X79.459 Y116.683
 X79.656 Y116.751
 X79.871 Y116.827
 X80.103 Y116.908
 X80.348 Y116.987
 X80.604 Y117.060
 X80.870 Y117.123
 X81.143 Y117.170
 X81.421 Y117.196
 X81.702
 X81.984 Y117.167
 X82.265 Y117.101
 X82.541 Y116.994
 X82.807 Y116.844
 X82.909 Y116.795
 X83.016 Y116.759
 X83.127 Y116.735
 X83.243 Y116.722
 X83.362
 X83.483 Y116.729
 X83.605 Y116.748
 X83.727 Y116.776
 X83.848 Y116.813
 X83.968 Y116.858
 X84.084 Y116.911
 X84.196 Y116.970
 X84.303 Y117.036
 X84.403 Y117.108
 X84.497 Y117.184
 X84.582 Y117.265
 X84.658 Y117.349
 X84.724 Y117.436
 X84.779 Y117.525
 X84.827 Y117.626
 X85.047 Y117.838
 X85.219 Y118.050
 X85.352 Y118.267
 X85.448 Y118.488
 X85.509 Y118.712
 X85.536 Y118.935
 X85.532 Y119.156
 X85.496 Y119.374
 X85.431 Y119.586
 X85.338 Y119.791
 X85.218 Y119.986
 X85.073 Y120.170
 X84.903 Y120.340
 X84.711 Y120.494
 X84.497 Y120.630
 X84.264 Y120.746
 X84.011 Y120.840
 X83.741 Y120.910
 X83.456 Y120.953
 X83.156 Y120.968
 X82.715 Y120.956
 X82.332 Y120.920
 X82.001 Y120.864
 X81.718 Y120.790
 X81.475 Y120.701
 X81.269 Y120.600
 X81.092 Y120.489
 X80.939 Y120.370
 X80.805 Y120.245
 X80.683 Y120.117
 X80.568 Y119.988
 X80.455 Y119.861
 X80.338 Y119.738
 X80.211 Y119.621
 X80.069 Y119.514
 X79.907 Y119.421
 X79.720 Y119.344
 X79.503 Y119.286
 X79.251 Y119.249
 X78.961 Y119.237
 X78.689 Y119.215
 X78.488 Y119.176
G00 Z5.000
 X83.200 Y124.444
G00 Z0.500
G01 Z-6.300 F2540
 X83.339 Y124.302
 X83.487 Y124.161
 X83.641 Y124.024
 X83.798 Y123.890
 X83.957 Y123.763
 X84.115 Y123.642
 X84.269 Y123.531
 X84.419 Y123.429
 X84.561 Y123.339
 X84.693 Y123.262
 X84.814 Y123.198
 X84.962 Y123.126
 X85.119 Y123.069
 X85.283 Y123.028
 X85.452 Y123.002
 X85.626 Y122.991
 X85.801 Y122.994
 X85.977 Y123.013
 X86.151 Y123.047
 X86.321 Y123.095
 X86.486 Y123.158
 X86.643 Y123.235
 X86.791 Y123.326
 X86.928 Y123.431
 X87.052 Y123.550
 X87.162 Y123.682
 X87.256 Y123.827
 X87.332 Y123.986
 X87.388 Y124.159
 X87.423 Y124.345
 X87.435 Y124.541
 X87.370 Y124.896
 X87.307 Y125.219
 X87.246 Y125.508
 X87.186 Y125.762
 X87.127 Y125.984
 X87.068 Y126.176
 X87.008 Y126.339
 X86.948 Y126.475
 X86.885 Y126.584
 X86.822 Y126.669
 X86.756 Y126.733
 X86.688 Y126.777
 X86.616 Y126.804
 X86.537 Y126.818
 X86.450
 X86.353 Y126.805
 X86.246 Y126.782
 X86.129 Y126.748
 X86.001 Y126.706
 X85.869 Y126.660
 X85.735 Y126.565
 X85.579 Y126.483
 X85.412 Y126.419
 X85.235 Y126.370
 X85.051 Y126.333
 X84.861 Y126.306
 X84.668 Y126.285
 X84.472 Y126.269
 X84.276 Y126.254
 X84.083 Y126.239
 X83.893 Y126.221
 X83.708 Y126.196
 X83.532 Y126.164
 X83.365 Y126.121
 X83.209 Y126.066
 X83.067 Y125.996
 X82.940 Y125.909
 X82.829 Y125.803
 X82.735 Y125.675
 X82.660 Y125.522
 X82.634 Y125.438
 Y125.345
 X82.655 Y125.238
 X82.700 Y125.121
 X82.766 Y124.996
 X82.851 Y124.863
 X82.953 Y124.726
 X83.070 Y124.586
 X83.200 Y124.444
G00 Z5.000
 X82.748 Y128.520
G00 Z0.500
G01 Z-6.300 F2540
 X83.245 Y128.507
 X83.524 Y128.530
 X83.753 Y128.595
 X83.936 Y128.697
 X84.075 Y128.830
 X84.176 Y128.991
 X84.238 Y129.177
 X84.265 Y129.384
 X84.256 Y129.607
 X84.213 Y129.841
 X84.138 Y130.081
 X84.032 Y130.321
 X83.897 Y130.557
 X83.735 Y130.783
 X83.548 Y130.995
 X83.338 Y131.188
 X83.106 Y131.356
 X82.856 Y131.495
 X82.588 Y131.599
 X82.304 Y131.666
 X81.983 Y131.691
 X81.832 Y131.861
 X81.729 Y132.039
 X81.658 Y132.230
 X81.616 Y132.433
 X81.597 Y132.645
 Y132.862
 X81.609 Y133.084
 X81.631 Y133.307
 X81.656 Y133.529
 X81.682 Y133.748
 X81.702 Y133.960
 X81.713 Y134.165
 Y134.357
 X81.691 Y134.536
 X81.650 Y134.698
 X81.583 Y134.841
 X81.488 Y134.964
 X81.359 Y135.067
 X81.189 Y135.148
 X80.972 Y135.204
 X80.722 Y135.248
 X80.450 Y135.253
 X80.161 Y135.222
 X79.858 Y135.158
 X79.549 Y135.065
 X79.238 Y134.947
 X78.931 Y134.807
 X78.634 Y134.649
 X78.352 Y134.475
 X78.090 Y134.291
 X77.854 Y134.100
 X77.650 Y133.905
 X77.482 Y133.711
 X77.357 Y133.522
 X77.279 Y133.343
 X77.252 Y133.180
 X77.277 Y133.033
 X77.359 Y132.903
 X77.507 Y132.786
 X77.727 Y132.691
 X77.928 Y132.673
 X78.109 Y132.619
 X78.258 Y132.532
 X78.380 Y132.418
 X78.476 Y132.283
 X78.552 Y132.130
 X78.612 Y131.964
 X78.661 Y131.789
 X78.703 Y131.608
 X78.743 Y131.425
 X78.783 Y131.243
 X78.829 Y131.066
 X78.884 Y130.897
 X78.951 Y130.741
 X79.033 Y130.601
 X79.135 Y130.480
 X79.260 Y130.381
 X79.413 Y130.305
 X79.599 Y130.257
 X79.826 Y130.240
 X80.023 Y130.226
 X80.186 Y130.188
 X80.316 Y130.126
 X80.418 Y130.044
 X80.497 Y129.946
 X80.558 Y129.837
 X80.609 Y129.720
 X80.657 Y129.597
 X80.707 Y129.472
 X80.767 Y129.346
 X80.841 Y129.221
 X80.937 Y129.100
 X81.060 Y128.984
 X81.217 Y128.874
 X81.416 Y128.773
 X81.662 Y128.685
 X81.961 Y128.611
 X82.321 Y128.555
 X82.748 Y128.520
G00 Z5.000
 X88.413 Y130.129
G00 Z0.500
G01 Z-6.300 F2540
 X88.430 Y129.975
 X88.471 Y129.807
 X88.543 Y129.620
 X88.655 Y129.407
 X88.813 Y129.163
 X89.025 Y128.884
 X89.300 Y128.563
 X89.639 Y128.201
 X89.894 Y128.068
 X90.160 Y127.992
 X90.433 Y127.968
 X90.708 Y127.993
 X90.982 Y128.060
 X91.251 Y128.166
 X91.511 Y128.304
 X91.757 Y128.471
 X91.986 Y128.659
 X92.193 Y128.865
 X92.374 Y129.081
 X92.525 Y129.304
 X92.643 Y129.526
 X92.723 Y129.742
 X92.762 Y129.946
 X92.757 Y130.132
 X92.707 Y130.296
 X92.608 Y130.435
 X92.455 Y130.546
 X92.228 Y130.630
 X92.099 Y130.722
 X92.012 Y130.856
 X91.963 Y131.020
 X91.944 Y131.209
 X91.950 Y131.419
 X91.974 Y131.647
 X92.012 Y131.889
 X92.060 Y132.139
 X92.112 Y132.395
 X92.164 Y132.652
 X92.211 Y132.905
 X92.249 Y133.149
 X92.273 Y133.380
 X92.279 Y133.593
 X92.262 Y133.782
 X92.220 Y133.943
 X92.149 Y134.071
 X92.047 Y134.166
 X91.905 Y134.227
 X91.711 Y134.249
 X91.501 Y134.264
 X91.298 Y134.305
 X91.103 Y134.370
 X90.917 Y134.455
 X90.737 Y134.557
 X90.563 Y134.673
 X90.392 Y134.800
 X90.224 Y134.935
 X90.056 Y135.075
 X89.888 Y135.218
 X89.717 Y135.360
 X89.544 Y135.499
 X89.366 Y135.632
 X89.182 Y135.756
 X88.991 Y135.868
 X88.791 Y135.966
 X88.581 Y136.047
 X88.360 Y136.108
 X88.126 Y136.146
 X87.877 Y136.160
 X87.508 Y136.147
 X87.189 Y136.112
 X86.919 Y136.055
 X86.696 Y135.979
 X86.516 Y135.886
 X86.378 Y135.777
 X86.278 Y135.653
 X86.211 Y135.515
 X86.176 Y135.362
 X86.171 Y135.194
 X86.193 Y135.012
 X86.242 Y134.817
 X86.316 Y134.611
 X86.413 Y134.395
 X86.529 Y134.171
 X86.664 Y133.939
 X86.814 Y133.702
 X86.978 Y133.460
 X87.153 Y133.215
 X87.337 Y132.967
 X87.652 Y132.551
 X87.901 Y132.185
 X88.092 Y131.863
 X88.232 Y131.580
 X88.329 Y131.332
 X88.390 Y131.112
 X88.421 Y130.916
 X88.431 Y130.739
 X88.428 Y130.576
 X88.419 Y130.424
 X88.411 Y130.277
 Y130.129
G00 Z5.000
 X91.295 Y126.215
G00 Z0.500
G01 Z-6.300 F2540
 X91.154 Y126.140
 X91.054 Y126.058
 X90.993 Y125.974
 X90.967 Y125.896
 X90.972 Y125.827
 X91.004 Y125.767
 X91.067 Y125.715
 X91.164 Y125.679
 X91.317 Y125.663
 X91.691 Y125.360
 X92.009 Y125.073
 X92.282 Y124.793
 X92.509 Y124.521
 X92.690 Y124.257
 X92.825 Y124.003
 X92.913 Y123.758
 X92.952 Y123.523
 X92.942 Y123.300
 X92.881 Y123.090
 X92.771 Y122.896
 X92.610 Y122.721
 X92.402 Y122.565
 X92.145 Y122.428
 X91.840 Y122.310
 X91.486 Y122.212
 X91.084 Y122.135
 X90.632 Y122.079
 X90.131 Y122.044
 X89.601 Y122.033
 X89.377 Y121.797
 X89.247 Y121.593
 X89.210 Y121.433
 X89.246 Y121.304
 X89.350 Y121.188
 X89.523 Y121.082
 X89.755 Y120.985
 X90.034 Y120.895
 X90.349 Y120.805
 X90.691 Y120.712
 X91.048 Y120.611
 X91.412 Y120.495
 X91.771 Y120.360
 X92.115 Y120.199
 X92.436 Y120.008
 X92.723 Y119.780
 X92.964 Y119.509
 X93.150 Y119.191
 X93.268 Y118.821
 X93.309 Y118.400
 X93.342 Y118.116
 X93.435 Y117.880
 X93.579 Y117.683
 X93.769 Y117.521
 X93.999 Y117.393
 X94.259 Y117.299
 X94.543 Y117.238
 X94.842 Y117.209
 X95.147
 X95.451 Y117.239
 X95.744 Y117.295
 X96.019 Y117.376
 X96.267 Y117.481
 X96.480 Y117.607
 X96.649 Y117.751
 X96.768 Y117.911
 X96.830 Y118.084
 Y118.271
 X96.761 Y118.475
 X96.604 Y118.706
 X96.370 Y119.293
 X96.210 Y119.792
 X96.116 Y120.215
 X96.077 Y120.574
 X96.086 Y120.876
 X96.134 Y121.132
 X96.212 Y121.349
 X96.311 Y121.535
 X96.420 Y121.701
 X96.530 Y121.854
 X96.631 Y122.005
 X96.716 Y122.162
 X96.777 Y122.336
 X96.806 Y122.537
 X96.795 Y122.777
 X96.735 Y123.067
 X96.615 Y123.417
 X96.426 Y123.834
 X96.160 Y124.329
 X95.813 Y124.900
 X95.168 Y125.277
 X94.565 Y125.590
 X94.012 Y125.841
 X93.509 Y126.034
 X93.054 Y126.174
 X92.647 Y126.267
 X92.287 Y126.318
 X91.973 Y126.333
 X91.703 Y126.317
 X91.477 Y126.276
 X91.295 Y126.215
G00 Z5.000
 X90.021 Y118.423
G00 Z0.500
G01 Z-6.300 F2540
 X89.799 Y118.491
 X89.552 Y118.509
 X89.262 Y118.468
 X89.077 Y118.500
 X88.895
 X88.705 Y118.477
 X88.511 Y118.428
 X88.315 Y118.358
 X88.119 Y118.270
 X87.926 Y118.167
 X87.738 Y118.052
 X87.558 Y117.927
 X87.388 Y117.796
 X87.230 Y117.662
 X87.088 Y117.528
 X86.963 Y117.396
 X86.858 Y117.270
 X86.775 Y117.154
 X86.717 Y117.052
 X86.686 Y116.968
 X86.682 Y116.911
 X86.695 Y116.881
 X86.729 Y116.862
 X87.005 Y116.848
 X87.245 Y116.795
 X87.438 Y116.707
 X87.587 Y116.587
 X87.696 Y116.441
 X87.770 Y116.273
 X87.814 Y116.089
 X87.835 Y115.894
 X87.838 Y115.690
 X87.829 Y115.482
 X87.813 Y115.272
 X87.796 Y115.065
 X87.782 Y114.863
 X87.776 Y114.673
 X87.785 Y114.496
 X87.811 Y114.338
 X87.859 Y114.204
 X87.932 Y114.094
 X88.035 Y114.010
 X88.188 Y113.948
 X88.378 Y113.810
 X88.567 Y113.715
 X88.763 Y113.651
 X88.963 Y113.615
 X89.168 Y113.602
 X89.374 Y113.608
 X89.582 Y113.628
 X89.788 Y113.658
 X89.992 Y113.692
 X90.192 Y113.727
 X90.385 Y113.758
 X90.572 Y113.780
 X90.750 Y113.787
 X90.919 Y113.775
 X91.077 Y113.738
 X91.220 Y113.670
 X91.347 Y113.566
 X91.452 Y113.423
 X91.535 Y113.238
 X91.584 Y113.043
 X91.663 Y113.030
 X91.780 Y113.034
 X91.906 Y113.057
 X92.039 Y113.099
 X92.176 Y113.160
 X92.314 Y113.238
 X92.452 Y113.333
 X92.586 Y113.443
 X92.715 Y113.568
 X92.836 Y113.706
 X92.947 Y113.856
 X93.045 Y114.017
 X93.129 Y114.189
 X93.196 Y114.369
 X93.244 Y114.558
 X93.272 Y114.753
 X93.276 Y114.955
 X93.254 Y115.162
 X93.206 Y115.373
 X93.140 Y115.553
 X92.888 Y115.515
 X92.619 Y115.532
 X92.376 Y115.604
 X92.158 Y115.724
 X91.961 Y115.883
 X91.782 Y116.075
 X91.618 Y116.293
 X91.464 Y116.529
 X91.318 Y116.777
 X91.175 Y117.031
 X91.033 Y117.285
 X90.888 Y117.531
 X90.737 Y117.763
 X90.578 Y117.975
 X90.407 Y118.159
 X90.223 Y118.310
 X90.021 Y118.423
G00 Z5.000
 X75.512 Y130.184
G00 Z0.500
G01 Z-6.300 F2540
 X75.628 Y130.324
 X75.731 Y130.462
 X75.816 Y130.594
 X75.882 Y130.720
 X75.927 Y130.837
 X75.949 Y130.943
 Y131.036
 X75.922 Y131.120
 X75.847 Y131.274
 X75.753 Y131.402
 X75.642 Y131.508
 X75.515 Y131.594
 X75.373 Y131.664
 X75.217 Y131.720
 X75.050 Y131.762
 X74.873 Y131.795
 X74.689 Y131.819
 X74.499 Y131.837
 X74.305 Y131.853
 X74.110 Y131.867
 X73.914 Y131.884
 X73.721 Y131.904
 X73.531 Y131.932
 X73.347 Y131.968
 X73.170 Y132.017
 X73.002 Y132.081
 X72.846 Y132.163
 X72.713 Y132.259
 X72.581 Y132.305
 X72.453 Y132.347
 X72.335 Y132.380
 X72.229 Y132.404
 X72.132 Y132.416
 X72.044
 X71.966 Y132.403
 X71.893 Y132.375
 X71.825 Y132.331
 X71.760 Y132.268
 X71.696 Y132.182
 X71.634 Y132.073
 X71.573 Y131.938
 X71.514 Y131.775
 X71.455 Y131.583
 X71.395 Y131.360
 X71.336 Y131.106
 X71.275 Y130.818
 X71.211 Y130.494
 X71.146 Y130.140
 X71.158 Y129.943
 X71.193 Y129.757
 X71.250 Y129.585
 X71.326 Y129.426
 X71.419 Y129.280
 X71.529 Y129.148
 X71.654 Y129.029
 X71.791 Y128.924
 X71.939 Y128.833
 X72.096 Y128.756
 X72.261 Y128.694
 X72.431 Y128.645
 X72.605 Y128.612
 X72.780 Y128.593
 X72.956 Y128.589
 X73.129 Y128.600
 X73.299 Y128.626
 X73.463 Y128.667
 X73.619 Y128.724
 X73.768 Y128.797
 X73.889 Y128.860
 X74.021 Y128.937
 X74.163 Y129.027
 X74.312 Y129.129
 X74.467 Y129.241
 X74.625 Y129.361
 X74.784 Y129.489
 X74.941 Y129.622
 X75.095 Y129.760
 X75.242 Y129.900
 X75.382 Y130.042
 X75.512 Y130.184
G00 Z5.000
 X74.267 Y134.307
G00 Z0.500
G01 Z-6.300 F2540
 X74.552 Y134.350
 X74.822 Y134.420
 X75.074 Y134.514
 X75.308 Y134.630
 X75.522 Y134.766
 X75.714 Y134.920
 X75.884 Y135.090
 X76.029 Y135.273
 X76.149 Y135.469
 X76.242 Y135.673
 X76.307 Y135.886
 X76.342 Y136.103
 X76.347 Y136.325
 X76.320 Y136.548
 X76.259 Y136.771
 X76.162 Y136.992
 X76.029 Y137.210
 X75.858 Y137.421
 X75.638 Y137.634
 X75.590 Y137.735
 X75.535 Y137.824
 X75.469 Y137.911
 X75.393 Y137.995
 X75.308 Y138.076
 X75.214 Y138.152
 X75.113 Y138.223
 X75.007 Y138.289
 X74.895 Y138.349
 X74.778 Y138.402
 X74.659 Y138.447
 X74.538 Y138.484
 X74.416 Y138.512
 X74.294 Y138.530
 X74.173 Y138.539
 X74.054
 X73.938 Y138.525
 X73.826 Y138.501
 X73.720 Y138.464
 X73.617 Y138.415
 X73.352 Y138.265
 X73.076 Y138.159
 X72.795 Y138.093
 X72.513 Y138.063
 X72.232
 X71.954 Y138.090
 X71.681 Y138.137
 X71.415 Y138.199
 X71.158 Y138.273
 X70.914 Y138.352
 X70.682 Y138.432
 X70.467 Y138.508
 X70.270 Y138.576
 X70.093 Y138.630
 X69.941 Y138.666
 X69.816 Y138.679
 X69.725 Y138.667
 X69.665 Y138.632
 X69.628 Y138.568
 X69.615 Y138.473
 X69.721 Y138.327
 X69.790 Y138.155
 X69.813 Y137.980
 X69.796 Y137.805
 X69.748 Y137.633
 X69.676 Y137.464
 X69.587 Y137.298
 X69.487 Y137.138
 X69.383 Y136.983
 X69.283 Y136.835
 X69.191 Y136.696
 X69.116 Y136.566
 X69.063 Y136.449
 X69.038 Y136.349
 X69.043 Y136.267
 X69.080 Y136.199
 X69.161 Y136.137
 X69.298 Y136.083
 X69.500 Y136.044
 X69.772 Y136.022
 X70.062 Y136.010
 X70.314 Y135.974
 X70.531 Y135.916
 X70.718 Y135.839
 X70.880 Y135.745
 X71.022 Y135.639
 X71.148 Y135.522
 X71.266 Y135.398
 X71.379 Y135.271
 X71.493 Y135.142
 X71.615 Y135.014
 X71.750 Y134.890
 X71.903 Y134.771
 X72.080 Y134.660
 X72.286 Y134.558
 X72.528 Y134.470
 X72.812 Y134.396
 X73.143 Y134.340
 X73.526 Y134.304
 X73.966 Y134.291
 X74.267 Y134.307
G00 Z5.000
 X75.879 Y140.405
G00 Z0.500
G01 Z-6.300 F2540
 X76.011 Y140.359
 X76.139 Y140.317
 X76.257 Y140.283
 X76.363 Y140.260
 X76.460 Y140.247
 X76.548
 X76.626 Y140.261
 X76.699 Y140.289
 X76.767 Y140.333
 X76.832 Y140.396
 X76.896 Y140.481
 X76.958 Y140.591
 X77.019 Y140.726
 X77.078 Y140.889
 X77.137 Y141.081
 X77.197 Y141.303
 X77.256 Y141.558
 X77.318 Y141.846
 X77.381 Y142.169
 X77.446 Y142.524
 X77.434 Y142.721
 X77.399 Y142.907
 X77.342 Y143.079
 X77.266 Y143.238
 X77.173 Y143.383
 X77.063 Y143.516
 X76.938 Y143.634
 X76.801 Y143.739
 X76.653 Y143.830
 X76.496 Y143.907
 X76.331 Y143.970
 X76.161 Y144.018
 X75.987 Y144.052
 X75.812 Y144.071
 X75.636 Y144.075
 X75.463 Y144.064
 X75.293 Y144.037
 X75.129 Y143.996
 X74.973 Y143.939
 X74.824 Y143.867
 X74.703 Y143.803
 X74.571 Y143.726
 X74.429 Y143.636
 X74.280 Y143.534
 X74.125 Y143.423
 X73.967 Y143.302
 X73.808 Y143.175
 X73.651 Y143.042
 X73.498 Y142.904
 X73.350 Y142.763
 X73.210 Y142.621
 X73.080 Y142.479
 X72.964 Y142.339
 X72.861 Y142.202
 X72.776 Y142.069
 X72.710 Y141.944
 X72.665 Y141.827
 X72.643 Y141.721
 Y141.627
 X72.670 Y141.543
 X72.745 Y141.390
 X72.839 Y141.262
 X72.950 Y141.156
 X73.077 Y141.069
 X73.219 Y140.999
 X73.375 Y140.944
 X73.542 Y140.901
 X73.719 Y140.869
 X73.903 Y140.845
 X74.093 Y140.826
 X74.287 Y140.811
 X74.482 Y140.796
 X74.678 Y140.780
 X74.871 Y140.759
 X75.061 Y140.732
 X75.245 Y140.695
 X75.422 Y140.646
 X75.590 Y140.582
 X75.746 Y140.500
 X75.879 Y140.405
G00 Z5.000
 X77.475 Y145.793
G00 Z0.500
G01 Z-6.300 F2540
 X77.594 Y145.748
 X77.715 Y145.711
 X77.837 Y145.683
 X77.960 Y145.664
 X78.081 Y145.656
 X78.200
 X78.315 Y145.670
 X78.427 Y145.694
 X78.534 Y145.730
 X78.636 Y145.780
 X78.901 Y145.929
 X79.178 Y146.036
 X79.458 Y146.102
 X79.740 Y146.132
 X80.022
 X80.300 Y146.105
 X80.573 Y146.058
 X80.839 Y145.996
 X81.095 Y145.922
 X81.340 Y145.843
 X81.571 Y145.763
 X81.787 Y145.686
 X81.984 Y145.619
 X82.160 Y145.565
 X82.313 Y145.529
 X82.437 Y145.516
 X82.529 Y145.528
 X82.588 Y145.563
 X82.626 Y145.626
 X82.639 Y145.722
 X82.533 Y145.868
 X82.463 Y146.040
 X82.441 Y146.215
 X82.457 Y146.390
 X82.505 Y146.562
 X82.578 Y146.731
 X82.667 Y146.897
 X82.767 Y147.057
 X82.870 Y147.212
 X82.971 Y147.360
 X83.062 Y147.499
 X83.138 Y147.629
 X83.191 Y147.745
 X83.216 Y147.846
 X83.210 Y147.928
 X83.173 Y147.996
 X83.093 Y148.058
 X82.955 Y148.111
 X82.753 Y148.151
 X82.481 Y148.173
 X82.192 Y148.185
 X81.940 Y148.221
 X81.722 Y148.279
 X81.535 Y148.356
 X81.373 Y148.450
 X81.232 Y148.556
 X81.105 Y148.673
 X80.988 Y148.796
 X80.875 Y148.924
 X80.760 Y149.053
 X80.638 Y149.180
 X80.503 Y149.305
 X80.351 Y149.424
 X80.174 Y149.535
 X79.967 Y149.636
 X79.725 Y149.725
 X79.441 Y149.799
 X79.111 Y149.855
 X78.728 Y149.891
 X78.287 Y149.903
 X77.987 Y149.888
 X77.701 Y149.845
 X77.431 Y149.775
 X77.179 Y149.681
 X76.945 Y149.565
 X76.732 Y149.429
 X76.539 Y149.275
 X76.370 Y149.105
 X76.224 Y148.921
 X76.104 Y148.726
 X76.011 Y148.521
 X75.946 Y148.309
 X75.911 Y148.091
 X75.906 Y147.870
 X75.934 Y147.647
 X75.995 Y147.424
 X76.091 Y147.203
 X76.224 Y146.985
 X76.395 Y146.773
 X76.615 Y146.561
 X76.664 Y146.460
 X76.718 Y146.371
 X76.784 Y146.284
 X76.860 Y146.200
 X76.946 Y146.119
 X77.039 Y146.043
 X77.140 Y145.971
 X77.247 Y145.906
 X77.359 Y145.846
 X77.475 Y145.793
G00 Z5.000
 X73.607 Y147.336
G00 Z0.500
G01 Z-6.300 F2540
 X73.702 Y147.459
 X73.768 Y147.602
 X73.810 Y147.764
 X73.830 Y147.942
 Y148.135
 X73.821 Y148.339
 X73.800 Y148.552
 X73.775 Y148.771
 X73.750 Y148.993
 X73.728 Y149.216
 X73.715 Y149.437
 Y149.655
 X73.735 Y149.866
 X73.777 Y150.069
 X73.847 Y150.261
 X73.951 Y150.438
 X74.102 Y150.609
 X74.423 Y150.634
 X74.706 Y150.700
 X74.974 Y150.805
 X75.225 Y150.944
 X75.456 Y151.112
 X75.666 Y151.304
 X75.853 Y151.516
 X76.015 Y151.743
 X76.150 Y151.979
 X76.256 Y152.219
 X76.332 Y152.459
 X76.375 Y152.693
 X76.383 Y152.916
 X76.357 Y153.122
 X76.294 Y153.308
 X76.194 Y153.469
 X76.054 Y153.603
 X75.872 Y153.704
 X75.643 Y153.769
 X75.363 Y153.793
 X74.866 Y153.780
 X74.440 Y153.745
 X74.080 Y153.688
 X73.780 Y153.615
 X73.534 Y153.526
 X73.336 Y153.426
 X73.179 Y153.316
 X73.056 Y153.200
 X72.960 Y153.078
 X72.885 Y152.954
 X72.826 Y152.828
 X72.775 Y152.703
 X72.728 Y152.580
 X72.677 Y152.463
 X72.616 Y152.354
 X72.537 Y152.256
 X72.435 Y152.173
 X72.304 Y152.112
 X72.142 Y152.073
 X71.945 Y152.060
 X71.717 Y152.043
 X71.531 Y151.994
 X71.379 Y151.919
 X71.254 Y151.819
 X71.152 Y151.698
 X71.069 Y151.558
 X71.002 Y151.403
 X70.948 Y151.234
 X70.902 Y151.057
 X70.861 Y150.875
 X70.822 Y150.691
 X70.780 Y150.510
 X70.731 Y150.335
 X70.671 Y150.170
 X70.595 Y150.017
 X70.498 Y149.881
 X70.377 Y149.768
 X70.227 Y149.681
 X70.047 Y149.626
 X69.846 Y149.608
 X69.626 Y149.513
 X69.478 Y149.397
 X69.396 Y149.266
 X69.371 Y149.120
 X69.398 Y148.956
 X69.476 Y148.778
 X69.601 Y148.589
 X69.769 Y148.395
 X69.973 Y148.200
 X70.209 Y148.008
 X70.470 Y147.824
 X70.753 Y147.651
 X71.050 Y147.493
 X71.357 Y147.352
 X71.668 Y147.234
 X71.977 Y147.142
 X72.279 Y147.078
 X72.569 Y147.047
 X72.840 Y147.052
 X73.090 Y147.096
 X73.308 Y147.152
 X73.478 Y147.233
 X73.607 Y147.336
G00 Z5.000
 X66.767 Y151.072
G00 Z0.500
G01 Z-6.300 F2540
 X66.861 Y151.188
 X66.936 Y151.306
 X66.991 Y151.421
 X67.025 Y151.534
 X67.033 Y151.613
 X66.858 Y151.711
 X66.700 Y151.839
 X66.589 Y151.978
 X66.522 Y152.127
 X66.493 Y152.283
 X66.498 Y152.445
 X66.530 Y152.611
 X66.584 Y152.781
 X66.653 Y152.956
 X66.732 Y153.135
 X66.818 Y153.319
 X66.904 Y153.507
 X66.986 Y153.699
 X67.059 Y153.894
 X67.118 Y154.092
 X67.159 Y154.293
 X67.176 Y154.496
 X67.165 Y154.701
 X67.122 Y154.909
 X67.038 Y155.128
 X67.018 Y155.292
 X66.963 Y155.413
 X66.876 Y155.512
 X66.758 Y155.593
 X66.613 Y155.659
 X66.444 Y155.713
 X66.259 Y155.757
 X66.061 Y155.796
 X65.856 Y155.833
 X65.649 Y155.872
 X65.446 Y155.917
 X65.250 Y155.973
 X65.066 Y156.043
 X64.900 Y156.133
 X64.757 Y156.248
 X64.644 Y156.391
 X64.567 Y156.567
 X64.532 Y156.776
 X64.543 Y157.021
 X64.601 Y157.291
 X64.591 Y157.329
 X64.510 Y157.360
 X64.421 Y157.352
 X64.307 Y157.323
 X64.173 Y157.273
 X64.024 Y157.204
 X63.865 Y157.117
 X63.698 Y157.014
 X63.528 Y156.897
 X63.357 Y156.767
 X63.190 Y156.625
 X63.030 Y156.473
 X62.881 Y156.313
 X62.745 Y156.147
 X62.627 Y155.975
 X62.530 Y155.800
 X62.457 Y155.623
 X62.411 Y155.447
 X62.394 Y155.260
 X62.280 Y154.991
 X62.233 Y154.747
 X62.241 Y154.515
 X62.298 Y154.291
 X62.396 Y154.074
 X62.530 Y153.861
 X62.693 Y153.653
 X62.878 Y153.447
 X63.078 Y153.244
 X63.286 Y153.041
 X63.495 Y152.837
 X63.697 Y152.631
 X63.885 Y152.422
 X64.053 Y152.207
 X64.192 Y151.984
 X64.295 Y151.753
 X64.354 Y151.511
 X64.361 Y151.258
 X64.308 Y150.993
 X64.206 Y150.760
 X64.362 Y150.650
 X64.554 Y150.548
 X64.748 Y150.474
 X64.944 Y150.426
 X65.140 Y150.401
 X65.335
 X65.527 Y150.417
 X65.714 Y150.454
 X65.895 Y150.507
 X66.069 Y150.575
 X66.234 Y150.656
 X66.387 Y150.748
 X66.529 Y150.850
 X66.656 Y150.958
 X66.767 Y151.072
G00 Z5.000
 X66.581 Y148.463
G00 Z0.500
G01 Z-6.300 F2540
 X66.405 Y148.495
 X66.220 Y148.519
 X66.030 Y148.538
 X65.836 Y148.553
 X65.641 Y148.568
 X65.445 Y148.584
 X65.252 Y148.605
 X65.062 Y148.632
 X64.878 Y148.669
 X64.701 Y148.718
 X64.534 Y148.782
 X64.378 Y148.863
 X64.244 Y148.959
 X64.112 Y149.005
 X63.984 Y149.047
 X63.867 Y149.081
 X63.760 Y149.104
 X63.663 Y149.117
 X63.576
 X63.497 Y149.103
 X63.425 Y149.075
 X63.357 Y149.031
 X63.291 Y148.968
 X63.227 Y148.883
 X63.165 Y148.773
 X63.105 Y148.638
 X63.045 Y148.475
 X62.986 Y148.283
 X62.927 Y148.061
 X62.867 Y147.806
 X62.806 Y147.518
 X62.743 Y147.195
 X62.678 Y146.840
 X62.689 Y146.643
 X62.725 Y146.457
 X62.781 Y146.285
 X62.857 Y146.126
 X62.951 Y145.980
 X63.061 Y145.848
 X63.185 Y145.730
 X63.322 Y145.625
 X63.470 Y145.534
 X63.627 Y145.457
 X63.792 Y145.394
 X63.962 Y145.346
 X64.136 Y145.312
 X64.312 Y145.293
 X64.487 Y145.289
 X64.661 Y145.300
 X64.830 Y145.327
 X64.994 Y145.368
 X65.150 Y145.424
 X65.299 Y145.497
 X65.420 Y145.560
 X65.552 Y145.638
 X65.694 Y145.728
 X65.843 Y145.829
 X65.998 Y145.941
 X66.156 Y146.062
 X66.315 Y146.189
 X66.472 Y146.322
 X66.626 Y146.460
 X66.774 Y146.601
 X66.913 Y146.743
 X67.043 Y146.884
 X67.160 Y147.025
 X67.262 Y147.162
 X67.347 Y147.294
 X67.413 Y147.420
 X67.458 Y147.537
 X67.480 Y147.643
 Y147.736
 X67.453 Y147.821
 X67.378 Y147.974
 X67.284 Y148.102
 X67.173 Y148.208
 X67.046 Y148.295
 X66.904 Y148.365
 X66.748 Y148.420
 X66.581 Y148.463
G00 Z5.000
 X66.527 Y143.131
G00 Z0.500
G01 Z-6.300 F2540
 X66.238 Y143.162
 X65.967 Y143.157
 X65.717 Y143.113
 X65.499 Y143.057
 X65.329 Y142.976
 X65.200 Y142.873
 X65.105 Y142.750
 X65.038 Y142.607
 X64.997 Y142.445
 X64.977 Y142.267
 Y142.074
 X64.986 Y141.870
 X65.006 Y141.657
 X65.032 Y141.438
 X65.057 Y141.216
 X65.079 Y140.993
 X65.091 Y140.772
 Y140.554
 X65.072 Y140.343
 X65.030 Y140.140
 X64.960 Y139.948
 X64.856 Y139.771
 X64.705 Y139.600
 X64.384 Y139.575
 X64.100 Y139.509
 X63.833 Y139.404
 X63.582 Y139.265
 X63.351 Y139.097
 X63.140 Y138.904
 X62.953 Y138.693
 X62.791 Y138.466
 X62.656 Y138.230
 X62.550 Y137.990
 X62.475 Y137.750
 X62.432 Y137.516
 X62.423 Y137.293
 X62.450 Y137.087
 X62.513 Y136.901
 X62.613 Y136.740
 X62.753 Y136.606
 X62.935 Y136.505
 X63.164 Y136.440
 X63.443 Y136.416
 X63.941 Y136.429
 X64.367 Y136.464
 X64.727 Y136.521
 X65.027 Y136.594
 X65.272 Y136.683
 X65.471 Y136.783
 X65.628 Y136.893
 X65.751 Y137.009
 X65.847 Y137.131
 X65.921 Y137.255
 X65.981 Y137.381
 X66.031 Y137.506
 X66.079 Y137.629
 X66.130 Y137.746
 X66.191 Y137.855
 X66.270 Y137.953
 X66.372 Y138.036
 X66.502 Y138.097
 X66.665 Y138.136
 X66.862 Y138.149
 X67.089 Y138.166
 X67.275 Y138.215
 X67.428 Y138.290
 X67.553 Y138.390
 X67.655 Y138.511
 X67.738 Y138.651
 X67.804 Y138.806
 X67.859 Y138.975
 X67.905 Y139.152
 X67.945 Y139.334
 X67.985 Y139.518
 X68.027 Y139.699
 X68.076 Y139.874
 X68.136 Y140.039
 X68.212 Y140.192
 X68.309 Y140.328
 X68.430 Y140.441
 X68.579 Y140.528
 X68.760 Y140.583
 X68.961 Y140.601
 X69.181 Y140.696
 X69.329 Y140.812
 X69.411 Y140.943
 X69.436 Y141.089
 X69.409 Y141.253
 X69.331 Y141.431
 X69.206 Y141.620
 X69.038 Y141.814
 X68.834 Y142.009
 X68.598 Y142.201
 X68.336 Y142.385
 X68.054 Y142.558
 X67.757 Y142.716
 X67.450 Y142.857
 X67.139 Y142.975
 X66.830 Y143.067
 X66.527 Y143.131
G00 Z5.000
 X60.996 Y136.191
G00 Z0.500
G01 Z-6.300 F2540
 X60.839 Y136.300
 X60.648 Y136.402
 X60.453 Y136.476
 X60.258 Y136.525
 X60.062 Y136.549
 X59.867
 X59.675 Y136.533
 X59.488 Y136.497
 X59.307 Y136.443
 X59.133 Y136.375
 X58.968 Y136.294
 X58.815 Y136.202
 X58.673 Y136.101
 X58.546 Y135.992
 X58.435 Y135.879
 X58.341 Y135.762
 X58.265 Y135.645
 X58.210 Y135.529
 X58.177 Y135.417
 X58.169 Y135.338
 X58.344 Y135.239
 X58.502 Y135.111
 X58.612 Y134.973
 X58.680 Y134.824
 X58.709 Y134.667
 X58.704 Y134.505
 X58.672 Y134.339
 X58.618 Y134.169
 X58.549 Y133.994
 X58.469 Y133.815
 X58.384 Y133.631
 X58.298 Y133.443
 X58.216 Y133.252
 X58.143 Y133.056
 X58.084 Y132.858
 X58.043 Y132.657
 X58.026 Y132.454
 X58.037 Y132.249
 X58.080 Y132.042
 X58.164 Y131.822
 X58.184 Y131.659
 X58.239 Y131.537
 X58.326 Y131.438
 X58.444 Y131.357
 X58.589 Y131.291
 X58.757 Y131.238
 X58.943 Y131.193
 X59.141 Y131.155
 X59.346 Y131.118
 X59.552 Y131.079
 X59.756 Y131.033
 X59.952 Y130.978
 X60.135 Y130.907
 X60.301 Y130.817
 X60.444 Y130.703
 X60.558 Y130.559
 X60.635 Y130.384
 X60.670 Y130.174
 X60.659 Y129.929
 X60.601 Y129.659
 X60.611 Y129.621
 X60.692 Y129.590
 X60.781 Y129.598
 X60.895 Y129.628
 X61.029 Y129.678
 X61.177 Y129.747
 X61.337 Y129.833
 X61.504 Y129.936
 X61.674 Y130.053
 X61.845 Y130.184
 X62.012 Y130.325
 X62.172 Y130.477
 X62.321 Y130.637
 X62.457 Y130.804
 X62.575 Y130.975
 X62.672 Y131.150
 X62.745 Y131.327
 X62.791 Y131.503
 X62.808 Y131.691
 X62.922 Y131.960
 X62.969 Y132.203
 X62.961 Y132.435
 X62.904 Y132.659
 X62.806 Y132.876
 X62.672 Y133.089
 X62.509 Y133.297
 X62.324 Y133.503
 X62.123 Y133.707
 X61.915 Y133.910
 X61.707 Y134.113
 X61.505 Y134.319
 X61.316 Y134.529
 X61.149 Y134.744
 X61.010 Y134.966
 X60.907 Y135.197
 X60.848 Y135.439
 X60.841 Y135.693
 X60.894 Y135.957
 X60.996 Y136.191
G00 Z5.000
 X65.892 Y132.362
G00 Z0.500
G01 Z-6.300 F2540
 X65.618 Y132.041
 X65.405 Y131.762
 X65.247 Y131.518
 X65.136 Y131.305
 X65.064 Y131.118
 X65.023 Y130.950
 X65.005 Y130.796
 Y130.648
 X65.011 Y130.501
 X65.020 Y130.348
 X65.024 Y130.186
 X65.013 Y130.009
 X64.982 Y129.813
 X64.921 Y129.593
 X64.825 Y129.344
 X64.684 Y129.062
 X64.493 Y128.740
 X64.244 Y128.373
 X63.929 Y127.958
 X63.745 Y127.710
 X63.570 Y127.465
 X63.407 Y127.223
 X63.256 Y126.986
 X63.121 Y126.754
 X63.005 Y126.530
 X62.908 Y126.314
 X62.835 Y126.107
 X62.786 Y125.913
 X62.763 Y125.731
 X62.769 Y125.563
 X62.804 Y125.410
 X62.870 Y125.272
 X62.971 Y125.148
 X63.109 Y125.039
 X63.288 Y124.945
 X63.511 Y124.870
 X63.781 Y124.813
 X64.100 Y124.778
 X64.469 Y124.765
 X64.718 Y124.778
 X64.952 Y124.817
 X65.173 Y124.878
 X65.383 Y124.959
 X65.583 Y125.057
 X65.774 Y125.169
 X65.958 Y125.293
 X66.136 Y125.426
 X66.310 Y125.564
 X66.480 Y125.707
 X66.648 Y125.849
 X66.816 Y125.990
 X66.984 Y126.125
 X67.155 Y126.252
 X67.330 Y126.368
 X67.509 Y126.470
 X67.696 Y126.555
 X67.890 Y126.620
 X68.094 Y126.661
 X68.303 Y126.676
 X68.497 Y126.698
 X68.639 Y126.759
 X68.741 Y126.854
 X68.812 Y126.982
 X68.855 Y127.143
 X68.871 Y127.332
 X68.866 Y127.545
 X68.842 Y127.776
 X68.804 Y128.020
 X68.756 Y128.273
 X68.704 Y128.529
 X68.652 Y128.785
 X68.605 Y129.036
 X68.566 Y129.278
 X68.542 Y129.505
 X68.536 Y129.716
 X68.555 Y129.905
 X68.604 Y130.069
 X68.691 Y130.203
 X68.820 Y130.295
 X69.047 Y130.379
 X69.201 Y130.490
 X69.299 Y130.629
 X69.350 Y130.792
 X69.354 Y130.978
 X69.315 Y131.183
 X69.235 Y131.399
 X69.118 Y131.621
 X68.966 Y131.844
 X68.785 Y132.060
 X68.578 Y132.266
 X68.349 Y132.454
 X68.103 Y132.620
 X67.843 Y132.759
 X67.574 Y132.865
 X67.300 Y132.932
 X67.025 Y132.957
 X66.753 Y132.933
 X66.486 Y132.857
 X66.231 Y132.724
 X65.892 Y132.362
G00 Z5.000
 X58.165 Y139.293
G00 Z0.500
G01 Z-6.300 F2540
 X58.310 Y139.490
 X58.402 Y139.727
 X58.436 Y140.010
 X58.476 Y140.431
 X58.595 Y140.801
 X58.780 Y141.119
 X59.022 Y141.390
 X59.308 Y141.618
 X59.629 Y141.809
 X59.974 Y141.970
 X60.333 Y142.105
 X60.696 Y142.221
 X61.054 Y142.323
 X61.395 Y142.415
 X61.711 Y142.505
 X61.990 Y142.595
 X62.221 Y142.692
 X62.394 Y142.798
 X62.499 Y142.914
 X62.535 Y143.043
 X62.497 Y143.203
 X62.368 Y143.407
 X62.143 Y143.643
 X61.614 Y143.654
 X61.112 Y143.689
 X60.661 Y143.745
 X60.258 Y143.822
 X59.905 Y143.920
 X59.600 Y144.038
 X59.343 Y144.175
 X59.134 Y144.331
 X58.974 Y144.507
 X58.863 Y144.700
 X58.803 Y144.910
 X58.793 Y145.133
 X58.832 Y145.368
 X58.920 Y145.613
 X59.054 Y145.867
 X59.236 Y146.131
 X59.463 Y146.403
 X59.736 Y146.683
 X60.054 Y146.970
 X60.428 Y147.273
 X60.581 Y147.289
 X60.678 Y147.326
 X60.741 Y147.377
 X60.773 Y147.437
 X60.777 Y147.506
 X60.751 Y147.584
 X60.690 Y147.668
 X60.590 Y147.750
 X60.450 Y147.825
 X60.267 Y147.886
 X60.042 Y147.928
 X59.772 Y147.943
 X59.458 Y147.928
 X59.097 Y147.877
 X58.690 Y147.784
 X58.236 Y147.644
 X57.733 Y147.451
 X57.180 Y147.200
 X56.576 Y146.887
 X55.931 Y146.510
 X55.585 Y145.939
 X55.318 Y145.444
 X55.130 Y145.027
 X55.010 Y144.678
 X54.949 Y144.388
 X54.939 Y144.147
 X54.968 Y143.946
 X55.029 Y143.772
 X55.114 Y143.615
 X55.215 Y143.464
 X55.325 Y143.311
 X55.434 Y143.146
 X55.532 Y142.959
 X55.611 Y142.742
 X55.659 Y142.487
 X55.668 Y142.184
 X55.629 Y141.826
 X55.534 Y141.402
 X55.375 Y140.903
 X55.141 Y140.316
 X54.984 Y140.086
 X54.914 Y139.881
 Y139.694
 X54.977 Y139.521
 X55.095 Y139.361
 X55.264 Y139.217
 X55.477 Y139.091
 X55.725 Y138.986
 X56.000 Y138.905
 X56.294 Y138.849
 X56.597 Y138.819
 X56.903
 X57.202 Y138.848
 X57.485 Y138.909
 X57.746 Y139.003
 X57.975 Y139.131
 X58.165 Y139.293
G00 Z5.000
 X54.457 Y148.273
G00 Z0.500
G01 Z-6.300 F2540
 X54.712 Y148.406
 X55.051 Y148.768
 X55.326 Y149.089
 X55.539 Y149.368
 X55.697 Y149.612
 X55.808 Y149.825
 X55.880 Y150.012
 X55.921 Y150.180
 X55.939 Y150.334
 Y150.482
 X55.933 Y150.629
 X55.923 Y150.781
 X55.920 Y150.944
 X55.930 Y151.121
 X55.962 Y151.317
 X56.022 Y151.537
 X56.119 Y151.786
 X56.259 Y152.068
 X56.450 Y152.390
 X56.700 Y152.756
 X57.014 Y153.172
 X57.198 Y153.420
 X57.373 Y153.665
 X57.537 Y153.907
 X57.687 Y154.144
 X57.822 Y154.376
 X57.939 Y154.600
 X58.035 Y154.816
 X58.109 Y155.022
 X58.158 Y155.217
 X58.181 Y155.399
 X58.175 Y155.567
 X58.140 Y155.720
 X58.073 Y155.858
 X57.973 Y155.982
 X57.835 Y156.091
 X57.656 Y156.185
 X57.432 Y156.260
 X57.162 Y156.317
 X56.844 Y156.352
 X56.475 Y156.365
 X56.226 Y156.351
 X55.991 Y156.313
 X55.770 Y156.252
 X55.561 Y156.171
 X55.361 Y156.073
 X55.169 Y155.961
 X54.985 Y155.837
 X54.807 Y155.704
 X54.634 Y155.565
 X54.464 Y155.423
 X54.295 Y155.281
 X54.128 Y155.140
 X53.959 Y155.005
 X53.788 Y154.878
 X53.614 Y154.762
 X53.434 Y154.660
 X53.248 Y154.575
 X53.053 Y154.510
 X52.850 Y154.469
 X52.641 Y154.454
 X52.446 Y154.432
 X52.304 Y154.371
 X52.202 Y154.276
 X52.131 Y154.148
 X52.089 Y153.987
 X52.072 Y153.798
 X52.078 Y153.585
 X52.102 Y153.354
 X52.140 Y153.110
 X52.187 Y152.857
 X52.239 Y152.600
 X52.291 Y152.344
 X52.339 Y152.094
 X52.377 Y151.852
 X52.402 Y151.624
 X52.407 Y151.414
 X52.389 Y151.225
 X52.340 Y151.061
 X52.252 Y150.927
 X52.124 Y150.835
 X51.897 Y150.751
 X51.743 Y150.640
 X51.644 Y150.501
 X51.594 Y150.338
 X51.589 Y150.151
 X51.628 Y149.947
 X51.708 Y149.731
 X51.826 Y149.509
 X51.977 Y149.286
 X52.159 Y149.070
 X52.366 Y148.864
 X52.594 Y148.676
 X52.840 Y148.510
 X53.100 Y148.371
 X53.369 Y148.265
 X53.643 Y148.198
 X53.918 Y148.173
 X54.191 Y148.197
 X54.457 Y148.273
G00 Z5.000
 X80.005 Y142.354
G00 Z0.500
G01 Z-6.300 F2540
 X79.969 Y142.225
 X80.006 Y142.064
 X80.136 Y141.860
 X80.360 Y141.624
 X80.890 Y141.613
 X81.391 Y141.579
 X81.843 Y141.522
 X82.245 Y141.445
 X82.599 Y141.347
 X82.904 Y141.230
 X83.161 Y141.092
 X83.369 Y140.936
 X83.529 Y140.761
 X83.640 Y140.567
 X83.701 Y140.358
 X83.711 Y140.134
 X83.672 Y139.899
 X83.584 Y139.655
 X83.449 Y139.400
 X83.268 Y139.137
 X83.041 Y138.865
 X82.768 Y138.584
 X82.450 Y138.297
 X82.075 Y137.994
 X81.923 Y137.978
 X81.826 Y137.942
 X81.763 Y137.890
 X81.731 Y137.830
 X81.726 Y137.761
 X81.752 Y137.683
 X81.813 Y137.600
 X81.913 Y137.517
 X82.054 Y137.442
 X82.236 Y137.381
 X82.462 Y137.340
 X82.732 Y137.324
 X83.046 Y137.339
 X83.406 Y137.390
 X83.813 Y137.483
 X84.268 Y137.624
 X84.771 Y137.816
 X85.324 Y138.067
 X85.927 Y138.381
 X86.572 Y138.757
 X86.919 Y139.328
 X87.185 Y139.823
 X87.374 Y140.241
 X87.494 Y140.590
 X87.554 Y140.880
 X87.565 Y141.120
 X87.536 Y141.322
 X87.475 Y141.495
 X87.390 Y141.653
 X87.289 Y141.803
 X87.179 Y141.957
 X87.070 Y142.122
 X86.971 Y142.308
 X86.893 Y142.525
 X86.845 Y142.781
 X86.836 Y143.083
 X86.874 Y143.442
 X86.969 Y143.865
 X87.129 Y144.364
 X87.363 Y144.951
 X87.520 Y145.182
 X87.589 Y145.386
 Y145.573
 X87.527 Y145.746
 X87.408 Y145.906
 X87.239 Y146.050
 X87.026 Y146.176
 X86.778 Y146.281
 X86.503 Y146.362
 X86.210 Y146.419
 X85.906 Y146.448
 X85.601
 X85.302 Y146.419
 X85.018 Y146.358
 X84.758 Y146.264
 X84.528 Y146.137
 X84.338 Y145.975
 X84.194 Y145.777
 X84.101 Y145.541
 X84.068 Y145.258
 X84.027 Y144.837
 X83.909 Y144.466
 X83.723 Y144.148
 X83.482 Y143.877
 X83.195 Y143.649
 X82.874 Y143.458
 X82.530 Y143.297
 X82.171 Y143.162
 X81.807 Y143.046
 X81.450 Y142.945
 X81.108 Y142.852
 X80.793 Y142.763
 X80.514 Y142.672
 X80.282 Y142.575
 X80.109 Y142.469
 X80.005 Y142.354
G00 Z5.000
 X114.424 Y124.714
G00 Z0.500
G01 Z-6.300 F2540
 X114.158 Y124.220
 X113.969 Y123.802
 X113.849 Y123.453
 X113.789 Y123.163
 X113.778 Y122.923
 X113.807 Y122.721
 X113.868 Y122.548
 X113.953 Y122.390
 X114.054 Y122.240
 X114.164 Y122.086
 X114.273 Y121.921
 X114.372 Y121.734
 X114.450 Y121.518
 X114.498 Y121.262
 X114.507 Y120.960
 X114.469 Y120.601
 X114.374 Y120.177
 X114.214 Y119.679
 X113.980 Y119.092
 X113.823 Y118.861
 X113.754 Y118.657
 Y118.470
 X113.816 Y118.297
 X113.935 Y118.137
 X114.104 Y117.993
 X114.317 Y117.867
 X114.565 Y117.762
 X114.840 Y117.680
 X115.133 Y117.624
 X115.437 Y117.595
 X115.742
 X116.041 Y117.624
 X116.325 Y117.685
 X116.585 Y117.779
 X116.815 Y117.906
 X117.005 Y118.068
 X117.149 Y118.266
 X117.242 Y118.502
 X117.275 Y118.785
 X117.316 Y119.206
 X117.434 Y119.577
 X117.620 Y119.895
 X117.861 Y120.165
 X118.148 Y120.393
 X118.469 Y120.585
 X118.814 Y120.745
 X119.173 Y120.881
 X119.536 Y120.997
 X119.893 Y121.098
 X120.235 Y121.191
 X120.550 Y121.280
 X120.829 Y121.371
 X121.061 Y121.468
 X121.234 Y121.574
 X121.338 Y121.689
 X121.374 Y121.818
 X121.337 Y121.979
 X121.207 Y122.183
 X120.983 Y122.419
 X120.453 Y122.430
 X119.952 Y122.464
 X119.500 Y122.520
 X119.098 Y122.598
 X118.744 Y122.696
 X118.439 Y122.813
 X118.183 Y122.950
 X117.974 Y123.107
 X117.814 Y123.282
 X117.703 Y123.476
 X117.642 Y123.685
 X117.632 Y123.909
 X117.672 Y124.143
 X117.759 Y124.388
 X117.894 Y124.643
 X118.075 Y124.906
 X118.302 Y125.178
 X118.575 Y125.458
 X118.894 Y125.746
 X119.268 Y126.048
 X119.420 Y126.065
 X119.517 Y126.101
 X119.580 Y126.152
 X119.612 Y126.213
 X119.617 Y126.282
 X119.591 Y126.360
 X119.530 Y126.443
 X119.430 Y126.526
 X119.289 Y126.601
 X119.107 Y126.662
 X118.881 Y126.703
 X118.612 Y126.719
 X118.297 Y126.704
 X117.937 Y126.653
 X117.530 Y126.560
 X117.075 Y126.419
 X116.572 Y126.226
 X116.019 Y125.976
 X115.416 Y125.662
 X114.771 Y125.286
 X114.424 Y124.714
G00 Z5.000
 X120.361 Y118.696
G00 Z0.500
G01 Z-6.300 F2540
 X120.177 Y118.545
 X120.006 Y118.360
 X119.847 Y118.149
 X119.696 Y117.917
 X119.552 Y117.671
 X119.409 Y117.417
 X119.267 Y117.163
 X119.120 Y116.914
 X118.966 Y116.678
 X118.802 Y116.461
 X118.623 Y116.269
 X118.426 Y116.110
 X118.208 Y115.990
 X117.965 Y115.918
 X117.696 Y115.901
 X117.444 Y115.939
 X117.378 Y115.759
 X117.330 Y115.548
 X117.308 Y115.341
 X117.312 Y115.139
 X117.340 Y114.943
 X117.388 Y114.755
 X117.455 Y114.574
 X117.539 Y114.403
 X117.637 Y114.241
 X117.748 Y114.091
 X117.869 Y113.953
 X117.998 Y113.829
 X118.132 Y113.718
 X118.270 Y113.624
 X118.408 Y113.545
 X118.545 Y113.485
 X118.678 Y113.442
 X118.804 Y113.419
 X118.921 Y113.416
 X119.000 Y113.428
 X119.050 Y113.624
 X119.132 Y113.808
 X119.237 Y113.952
 X119.364 Y114.055
 X119.508 Y114.124
 X119.665 Y114.161
 X119.834 Y114.173
 X120.012 Y114.165
 X120.199 Y114.144
 X120.393 Y114.113
 X120.592 Y114.078
 X120.796 Y114.043
 X121.002 Y114.014
 X121.210 Y113.994
 X121.417 Y113.988
 X121.621 Y114.001
 X121.822 Y114.037
 X122.017 Y114.100
 X122.206 Y114.196
 X122.396 Y114.334
 X122.549 Y114.396
 X122.652 Y114.480
 X122.725 Y114.589
 X122.773 Y114.724
 X122.799 Y114.882
 X122.808 Y115.058
 X122.802 Y115.249
 X122.789 Y115.450
 X122.771 Y115.658
 X122.755 Y115.867
 X122.746 Y116.076
 X122.749 Y116.279
 X122.770 Y116.475
 X122.814 Y116.658
 X122.888 Y116.826
 X122.997 Y116.973
 X123.146 Y117.093
 X123.339 Y117.181
 X123.579 Y117.234
 X123.855 Y117.248
 X123.889 Y117.267
 X123.903 Y117.297
 X123.898 Y117.354
 X123.867 Y117.437
 X123.809 Y117.540
 X123.727 Y117.656
 X123.621 Y117.782
 X123.496 Y117.913
 X123.354 Y118.048
 X123.197 Y118.182
 X123.027 Y118.313
 X122.846 Y118.438
 X122.659 Y118.553
 X122.465 Y118.656
 X122.269 Y118.744
 X122.073 Y118.814
 X121.879 Y118.862
 X121.689 Y118.887
 X121.507
 X121.322 Y118.854
 X121.032 Y118.894
 X120.785 Y118.876
 X120.563 Y118.808
 X120.361 Y118.696
G00 Z5.000
 X125.053 Y119.542
G00 Z0.500
G01 Z-6.300 F2540
 X125.048 Y119.320
 X125.075 Y119.097
 X125.136 Y118.874
 X125.233 Y118.653
 X125.365 Y118.436
 X125.537 Y118.224
 X125.757 Y118.012
 X125.805 Y117.910
 X125.860 Y117.821
 X125.926 Y117.735
 X126.002 Y117.650
 X126.087 Y117.570
 X126.181 Y117.493
 X126.282 Y117.422
 X126.388 Y117.356
 X126.500 Y117.296
 X126.616 Y117.244
 X126.736 Y117.198
 X126.857 Y117.162
 X126.979 Y117.133
 X127.101 Y117.115
 X127.222 Y117.106
 X127.341
 X127.457 Y117.120
 X127.568 Y117.145
 X127.675 Y117.181
 X127.778 Y117.230
 X128.043 Y117.380
 X128.319 Y117.486
 X128.600 Y117.552
 X128.882 Y117.582
 X129.163
 X129.441 Y117.555
 X129.714 Y117.509
 X129.980 Y117.446
 X130.236 Y117.373
 X130.481 Y117.293
 X130.713 Y117.213
 X130.928 Y117.137
 X131.125 Y117.069
 X131.302 Y117.015
 X131.454 Y116.980
 X131.579 Y116.967
 X131.670 Y116.978
 X131.730 Y117.013
 X131.767 Y117.077
 X131.780 Y117.173
 X131.674 Y117.318
 X131.605 Y117.490
 X131.582 Y117.665
 X131.599 Y117.840
 X131.647 Y118.012
 X131.719 Y118.182
 X131.808 Y118.347
 X131.908 Y118.507
 X132.012 Y118.662
 X132.112 Y118.810
 X132.204 Y118.950
 X132.279 Y119.079
 X132.332 Y119.196
 X132.357 Y119.296
 X132.352 Y119.378
 X132.315 Y119.446
 X132.234 Y119.509
 X132.097 Y119.562
 X131.895 Y119.601
 X131.623 Y119.623
 X131.333 Y119.635
 X131.081 Y119.671
 X130.864 Y119.729
 X130.677 Y119.806
 X130.515 Y119.900
 X130.373 Y120.007
 X130.246 Y120.123
 X130.129 Y120.247
 X130.016 Y120.374
 X129.901 Y120.503
 X129.779 Y120.631
 X129.645 Y120.755
 X129.492 Y120.874
 X129.315 Y120.985
 X129.109 Y121.087
 X128.866 Y121.176
 X128.583 Y121.249
 X128.252 Y121.306
 X127.869 Y121.341
 X127.429 Y121.354
 X127.128 Y121.339
 X126.843 Y121.295
 X126.573 Y121.225
 X126.321 Y121.132
 X126.087 Y121.015
 X125.873 Y120.879
 X125.681 Y120.725
 X125.511 Y120.555
 X125.366 Y120.372
 X125.246 Y120.177
 X125.153 Y119.972
 X125.088 Y119.760
 X125.053 Y119.542
G00 Z5.000
 X124.607 Y123.399
G00 Z0.500
G01 Z-6.300 F2540
 X124.783 Y123.380
 X124.958 Y123.376
 X125.132 Y123.387
 X125.301 Y123.413
 X125.465 Y123.455
 X125.622 Y123.511
 X125.771 Y123.584
 X125.891 Y123.647
 X126.023 Y123.725
 X126.165 Y123.815
 X126.315 Y123.916
 X126.469 Y124.028
 X126.627 Y124.148
 X126.786 Y124.276
 X126.943 Y124.409
 X127.097 Y124.547
 X127.245 Y124.687
 X127.385 Y124.829
 X127.514 Y124.971
 X127.631 Y125.112
 X127.733 Y125.249
 X127.818 Y125.381
 X127.884 Y125.507
 X127.929 Y125.624
 X127.951 Y125.730
 Y125.823
 X127.924 Y125.907
 X127.849 Y126.061
 X127.755 Y126.189
 X127.644 Y126.295
 X127.517 Y126.382
 X127.375 Y126.452
 X127.220 Y126.507
 X127.053 Y126.550
 X126.876 Y126.582
 X126.692 Y126.606
 X126.501 Y126.625
 X126.308 Y126.640
 X126.112 Y126.655
 X125.917 Y126.671
 X125.723 Y126.691
 X125.533 Y126.719
 X125.349 Y126.756
 X125.172 Y126.805
 X125.005 Y126.869
 X124.849 Y126.950
 X124.716 Y127.046
 X124.583 Y127.092
 X124.455 Y127.134
 X124.338 Y127.167
 X124.231 Y127.191
 X124.134 Y127.203
 X124.047
 X123.968 Y127.190
 X123.896 Y127.162
 X123.828 Y127.118
 X123.762 Y127.055
 X123.699 Y126.970
 X123.637 Y126.860
 X123.576 Y126.725
 X123.516 Y126.562
 X123.457 Y126.370
 X123.398 Y126.148
 X123.338 Y125.893
 X123.277 Y125.605
 X123.214 Y125.282
 X123.149 Y124.927
 X123.161 Y124.730
 X123.196 Y124.544
 X123.252 Y124.372
 X123.328 Y124.213
 X123.422 Y124.067
 X123.532 Y123.935
 X123.656 Y123.817
 X123.793 Y123.712
 X123.941 Y123.621
 X124.098 Y123.544
 X124.263 Y123.481
 X124.433 Y123.433
 X124.607 Y123.399
G00 Z5.000
 X126.649 Y129.083
G00 Z0.500
G01 Z-6.300 F2540
 X126.831 Y128.981
 X127.060 Y128.916
 X127.339 Y128.893
 X127.837 Y128.905
 X128.263 Y128.941
 X128.623 Y128.997
 X128.923 Y129.071
 X129.168 Y129.159
 X129.367 Y129.260
 X129.524 Y129.369
 X129.647 Y129.486
 X129.743 Y129.607
 X129.817 Y129.732
 X129.877 Y129.858
 X129.927 Y129.983
 X129.975 Y130.105
 X130.026 Y130.222
 X130.087 Y130.332
 X130.166 Y130.430
 X130.268 Y130.512
 X130.398 Y130.574
 X130.561 Y130.612
 X130.758 Y130.625
 X130.985 Y130.643
 X131.171 Y130.691
 X131.324 Y130.767
 X131.449 Y130.866
 X131.551 Y130.987
 X131.634 Y131.127
 X131.700 Y131.283
 X131.755 Y131.451
 X131.801 Y131.628
 X131.841 Y131.811
 X131.881 Y131.994
 X131.923 Y132.175
 X131.972 Y132.350
 X132.032 Y132.516
 X132.108 Y132.669
 X132.205 Y132.804
 X132.326 Y132.918
 X132.475 Y133.004
 X132.656 Y133.059
 X132.857 Y133.077
 X133.077 Y133.172
 X133.225 Y133.288
 X133.307 Y133.419
 X133.332 Y133.565
 X133.305 Y133.729
 X133.227 Y133.908
 X133.102 Y134.097
 X132.934 Y134.291
 X132.730 Y134.485
 X132.494 Y134.677
 X132.232 Y134.861
 X131.950 Y135.034
 X131.653 Y135.193
 X131.346 Y135.333
 X131.035 Y135.451
 X130.726 Y135.544
 X130.423 Y135.607
 X130.134 Y135.638
 X129.863 Y135.634
 X129.613 Y135.590
 X129.395 Y135.533
 X129.225 Y135.453
 X129.096 Y135.350
 X129.001 Y135.227
 X128.934 Y135.084
 X128.893 Y134.922
 X128.873 Y134.743
 Y134.550
 X128.882 Y134.346
 X128.902 Y134.133
 X128.928 Y133.915
 X128.953 Y133.693
 X128.975 Y133.470
 X128.987 Y133.248
 Y133.030
 X128.968 Y132.819
 X128.926 Y132.616
 X128.856 Y132.424
 X128.752 Y132.247
 X128.601 Y132.077
 X128.280 Y132.052
 X127.996 Y131.985
 X127.729 Y131.880
 X127.478 Y131.741
 X127.247 Y131.573
 X127.036 Y131.381
 X126.849 Y131.169
 X126.687 Y130.943
 X126.552 Y130.707
 X126.446 Y130.466
 X126.371 Y130.226
 X126.328 Y129.993
 X126.319 Y129.770
 X126.346 Y129.563
 X126.409 Y129.377
 X126.509 Y129.216
 X126.649 Y129.083
G00 Z5.000
 X122.041 Y130.005
G00 Z0.500
G01 Z-6.300 F2540
 X122.113 Y130.193
 X122.154 Y130.360
 X122.171 Y130.515
 Y130.663
 X122.166 Y130.810
 X122.156 Y130.962
 X122.153 Y131.124
 X122.163 Y131.301
 X122.194 Y131.497
 X122.255 Y131.717
 X122.352 Y131.966
 X122.492 Y132.249
 X122.683 Y132.570
 X122.933 Y132.937
 X123.247 Y133.353
 X123.431 Y133.600
 X123.606 Y133.846
 X123.770 Y134.087
 X123.920 Y134.325
 X124.055 Y134.556
 X124.172 Y134.781
 X124.268 Y134.997
 X124.342 Y135.203
 X124.391 Y135.398
 X124.413 Y135.580
 X124.408 Y135.748
 X124.373 Y135.901
 X124.306 Y136.039
 X124.206 Y136.163
 X124.068 Y136.272
 X123.888 Y136.365
 X123.665 Y136.441
 X123.395 Y136.497
 X123.076 Y136.533
 X122.708 Y136.546
 X122.458 Y136.532
 X122.224 Y136.493
 X122.003 Y136.432
 X121.793 Y136.352
 X121.594 Y136.254
 X121.402 Y136.141
 X121.218 Y136.018
 X121.040 Y135.885
 X120.867 Y135.746
 X120.696 Y135.604
 X120.528 Y135.461
 X120.361 Y135.321
 X120.192 Y135.186
 X120.021 Y135.059
 X119.847 Y134.943
 X119.667 Y134.841
 X119.481 Y134.756
 X119.286 Y134.691
 X119.083 Y134.649
 X118.873 Y134.635
 X118.679 Y134.612
 X118.537 Y134.552
 X118.435 Y134.457
 X118.364 Y134.329
 X118.322 Y134.168
 X118.305 Y133.979
 X118.311 Y133.766
 X118.335 Y133.535
 X118.373 Y133.290
 X118.420 Y133.038
 X118.472 Y132.781
 X118.524 Y132.525
 X118.572 Y132.274
 X118.610 Y132.033
 X118.634 Y131.805
 X118.640 Y131.595
 X118.622 Y131.406
 X118.572 Y131.241
 X118.485 Y131.108
 X118.357 Y131.016
 X118.129 Y130.932
 X117.976 Y130.820
 X117.877 Y130.682
 X117.827 Y130.518
 X117.822 Y130.332
 X117.861 Y130.128
 X117.941 Y129.912
 X118.059 Y129.689
 X118.210 Y129.467
 X118.391 Y129.250
 X118.598 Y129.045
 X118.827 Y128.856
 X119.073 Y128.690
 X119.333 Y128.552
 X119.602 Y128.446
 X119.876 Y128.378
 X120.151 Y128.354
 X120.424 Y128.377
 X120.690 Y128.454
 X120.945 Y128.587
 X121.284 Y128.948
 X121.559 Y129.269
 X121.771 Y129.549
 X121.929 Y129.792
 X122.041 Y130.005
G00 Z5.000
 X125.260 Y138.453
G00 Z0.500
G01 Z-6.300 F2540
 X125.813 Y138.202
 X126.316 Y138.009
 X126.771 Y137.869
 X127.178 Y137.776
 X127.538 Y137.724
 X127.853 Y137.709
 X128.122 Y137.725
 X128.348 Y137.767
 X128.530 Y137.828
 X128.671 Y137.903
 X128.771 Y137.985
 X128.832 Y138.069
 X128.858 Y138.147
 X128.853 Y138.216
 X128.821 Y138.276
 X128.758 Y138.327
 X128.661 Y138.364
 X128.509 Y138.380
 X128.135 Y138.683
 X127.816 Y138.970
 X127.543 Y139.250
 X127.316 Y139.522
 X127.135 Y139.786
 X127.000 Y140.040
 X126.913 Y140.285
 X126.873 Y140.520
 X126.883 Y140.743
 X126.944 Y140.953
 X127.055 Y141.146
 X127.215 Y141.322
 X127.424 Y141.478
 X127.680 Y141.615
 X127.985 Y141.733
 X128.339 Y141.831
 X128.741 Y141.908
 X129.193 Y141.964
 X129.694 Y141.999
 X130.224 Y142.010
 X130.448 Y142.246
 X130.578 Y142.450
 X130.615 Y142.610
 X130.579 Y142.739
 X130.475 Y142.855
 X130.302 Y142.961
 X130.070 Y143.058
 X129.791 Y143.148
 X129.476 Y143.238
 X129.134 Y143.330
 X128.777 Y143.432
 X128.414 Y143.548
 X128.055 Y143.683
 X127.710 Y143.844
 X127.389 Y144.035
 X127.102 Y144.263
 X126.861 Y144.534
 X126.675 Y144.852
 X126.557 Y145.222
 X126.516 Y145.643
 X126.483 Y145.926
 X126.391 Y146.163
 X126.246 Y146.360
 X126.056 Y146.522
 X125.827 Y146.650
 X125.566 Y146.743
 X125.282 Y146.805
 X124.983 Y146.834
 X124.678
 X124.374 Y146.804
 X124.081 Y146.748
 X123.806 Y146.667
 X123.558 Y146.562
 X123.345 Y146.436
 X123.176 Y146.292
 X123.057 Y146.132
 X122.995 Y145.959
 Y145.772
 X123.064 Y145.567
 X123.221 Y145.337
 X123.455 Y144.750
 X123.615 Y144.251
 X123.710 Y143.827
 X123.748 Y143.469
 X123.739 Y143.166
 X123.691 Y142.911
 X123.613 Y142.694
 X123.514 Y142.507
 X123.405 Y142.342
 X123.296 Y142.189
 X123.194 Y142.038
 X123.109 Y141.881
 X123.048 Y141.707
 X123.019 Y141.506
 X123.030 Y141.265
 X123.091 Y140.975
 X123.210 Y140.626
 X123.399 Y140.209
 X123.665 Y139.714
 X124.012 Y139.143
 X124.657 Y138.766
 X125.260 Y138.453
G00 Z5.000
 X128.055 Y145.914
G00 Z0.500
G01 Z-6.300 F2540
 X128.147 Y145.902
 X128.271 Y145.915
 X128.424 Y145.950
 X128.600 Y146.004
 X128.798 Y146.072
 X129.013 Y146.148
 X129.244 Y146.229
 X129.489 Y146.308
 X129.746 Y146.381
 X130.011 Y146.444
 X130.284 Y146.491
 X130.563 Y146.517
 X130.844
 X131.126 Y146.488
 X131.406 Y146.422
 X131.683 Y146.315
 X131.948 Y146.165
 X132.050 Y146.116
 X132.157 Y146.080
 X132.269 Y146.056
 X132.385 Y146.043
 X132.503
 X132.625 Y146.050
 X132.747 Y146.069
 X132.869 Y146.097
 X132.990 Y146.134
 X133.109 Y146.179
 X133.225 Y146.232
 X133.337 Y146.291
 X133.444 Y146.357
 X133.545 Y146.429
 X133.638 Y146.505
 X133.724 Y146.586
 X133.800 Y146.670
 X133.866 Y146.757
 X133.921 Y146.846
 X133.969 Y146.947
 X134.189 Y147.159
 X134.360 Y147.371
 X134.493 Y147.588
 X134.589 Y147.809
 X134.650 Y148.033
 X134.678 Y148.256
 X134.673 Y148.477
 X134.638 Y148.695
 X134.573 Y148.907
 X134.480 Y149.112
 X134.360 Y149.307
 X134.215 Y149.491
 X134.045 Y149.661
 X133.853 Y149.815
 X133.639 Y149.951
 X133.405 Y150.067
 X133.153 Y150.161
 X132.883 Y150.231
 X132.598 Y150.274
 X132.297 Y150.289
 X131.856 Y150.277
 X131.473 Y150.241
 X131.143 Y150.185
 X130.859 Y150.111
 X130.617 Y150.022
 X130.410 Y149.921
 X130.234 Y149.810
 X130.081 Y149.691
 X129.946 Y149.566
 X129.824 Y149.438
 X129.709 Y149.309
 X129.596 Y149.182
 X129.479 Y149.059
 X129.353 Y148.942
 X129.211 Y148.835
 X129.049 Y148.742
 X128.862 Y148.665
 X128.645 Y148.607
 X128.392 Y148.570
 X128.103 Y148.558
 X127.831 Y148.536
 X127.629 Y148.497
 X127.491 Y148.444
 X127.411 Y148.382
 X127.374 Y148.313
 X127.369 Y148.232
 X127.394 Y148.131
 X127.447 Y148.014
 X127.522 Y147.885
 X127.613 Y147.745
 X127.714 Y147.597
 X127.818 Y147.443
 X127.917 Y147.282
 X128.007 Y147.117
 X128.079 Y146.948
 X128.127 Y146.775
 X128.144 Y146.601
 X128.121 Y146.425
 X128.052 Y146.253
 X127.945 Y146.108
 X127.958 Y146.012
 X127.996 Y145.948
 X128.055 Y145.914
G00 Z5.000
 X133.411 Y143.769
G00 Z0.500
G01 Z-6.300 F2540
 X133.318 Y143.624
 X133.242 Y143.465
 X133.185 Y143.292
 X133.150 Y143.106
 X133.138 Y142.910
 X133.203 Y142.555
 X133.267 Y142.231
 X133.328 Y141.943
 X133.388 Y141.689
 X133.447 Y141.466
 X133.506 Y141.274
 X133.565 Y141.112
 X133.626 Y140.976
 X133.688 Y140.867
 X133.752 Y140.782
 X133.817 Y140.718
 X133.885 Y140.674
 X133.958 Y140.646
 X134.036 Y140.633
 X134.124
 X134.221 Y140.645
 X134.327 Y140.669
 X134.445 Y140.703
 X134.573 Y140.744
 X134.705 Y140.790
 X134.838 Y140.886
 X134.995 Y140.968
 X135.162 Y141.032
 X135.339 Y141.081
 X135.523 Y141.118
 X135.713 Y141.145
 X135.906 Y141.166
 X136.102 Y141.182
 X136.297 Y141.196
 X136.491 Y141.212
 X136.681 Y141.230
 X136.865 Y141.255
 X137.042 Y141.287
 X137.209 Y141.329
 X137.365 Y141.385
 X137.507 Y141.455
 X137.634 Y141.541
 X137.745 Y141.647
 X137.839 Y141.776
 X137.914 Y141.929
 X137.940 Y142.013
 Y142.106
 X137.919 Y142.212
 X137.874 Y142.329
 X137.808 Y142.455
 X137.723 Y142.588
 X137.621 Y142.725
 X137.504 Y142.865
 X137.374 Y143.007
 X137.234 Y143.149
 X137.087 Y143.290
 X136.933 Y143.427
 X136.776 Y143.560
 X136.617 Y143.688
 X136.459 Y143.808
 X136.304 Y143.920
 X136.155 Y144.022
 X136.013 Y144.112
 X135.881 Y144.189
 X135.760 Y144.252
 X135.611 Y144.325
 X135.455 Y144.382
 X135.291 Y144.423
 X135.121 Y144.449
 X134.948 Y144.460
 X134.772 Y144.456
 X134.597 Y144.437
 X134.423 Y144.404
 X134.253 Y144.356
 X134.088 Y144.293
 X133.931 Y144.216
 X133.783 Y144.125
 X133.646 Y144.020
 X133.521 Y143.901
 X133.411 Y143.769
G00 Z5.000
 X135.925 Y138.832
G00 Z0.500
G01 Z-6.300 F2540
 X135.806 Y138.787
 X135.690 Y138.735
 X135.578 Y138.675
 X135.471 Y138.609
 X135.370 Y138.538
 X135.277 Y138.461
 X135.191 Y138.381
 X135.115 Y138.296
 X135.049 Y138.209
 X134.994 Y138.120
 X134.946 Y138.019
 X134.726 Y137.807
 X134.555 Y137.595
 X134.422 Y137.378
 X134.326 Y137.157
 X134.265 Y136.934
 X134.237 Y136.710
 X134.242 Y136.489
 X134.277 Y136.271
 X134.342 Y136.059
 X134.435 Y135.854
 X134.555 Y135.659
 X134.700 Y135.475
 X134.870 Y135.306
 X135.062 Y135.152
 X135.276 Y135.015
 X135.510 Y134.899
 X135.762 Y134.805
 X136.032 Y134.736
 X136.317 Y134.692
 X136.618 Y134.677
 X137.058 Y134.690
 X137.442 Y134.725
 X137.772 Y134.781
 X138.056 Y134.855
 X138.298 Y134.944
 X138.504 Y135.045
 X138.681 Y135.157
 X138.834 Y135.276
 X138.969 Y135.400
 X139.091 Y135.528
 X139.205 Y135.657
 X139.319 Y135.784
 X139.436 Y135.908
 X139.562 Y136.024
 X139.704 Y136.131
 X139.866 Y136.224
 X140.053 Y136.302
 X140.270 Y136.359
 X140.522 Y136.396
 X140.812 Y136.408
 X141.084 Y136.430
 X141.286 Y136.469
 X141.423 Y136.522
 X141.504 Y136.584
 X141.541 Y136.653
 X141.546 Y136.735
 X141.521 Y136.835
 X141.468 Y136.952
 X141.393 Y137.081
 X141.301 Y137.221
 X141.201 Y137.369
 X141.097 Y137.523
 X140.998 Y137.684
 X140.908 Y137.849
 X140.836 Y138.018
 X140.788 Y138.191
 X140.771 Y138.366
 X140.794 Y138.541
 X140.863 Y138.713
 X140.969 Y138.858
 X140.957 Y138.954
 X140.919 Y139.018
 X140.860 Y139.052
 X140.768 Y139.064
 X140.643 Y139.051
 X140.491 Y139.016
 X140.315 Y138.962
 X140.117 Y138.894
 X139.902 Y138.818
 X139.671 Y138.737
 X139.426 Y138.658
 X139.169 Y138.585
 X138.903 Y138.522
 X138.630 Y138.475
 X138.352 Y138.449
 X138.071
 X137.789 Y138.479
 X137.509 Y138.545
 X137.232 Y138.651
 X136.967 Y138.801
 X136.864 Y138.850
 X136.758 Y138.886
 X136.646 Y138.910
 X136.530 Y138.923
 X136.411
 X136.290 Y138.916
 X136.168 Y138.897
 X136.046 Y138.869
 X135.925 Y138.832
G00 Z5.000
 X138.356 Y132.789
G00 Z0.500
G01 Z-6.300 F2540
 X138.249 Y132.766
 X138.132 Y132.732
 X138.004 Y132.690
 X137.871 Y132.644
 X137.738 Y132.549
 X137.582 Y132.467
 X137.414 Y132.403
 X137.237 Y132.354
 X137.053 Y132.317
 X136.864 Y132.290
 X136.670 Y132.269
 X136.474 Y132.253
 X136.279 Y132.238
 X136.085 Y132.223
 X135.895 Y132.205
 X135.711 Y132.180
 X135.534 Y132.148
 X135.367 Y132.105
 X135.212 Y132.050
 X135.070 Y131.980
 X134.942 Y131.893
 X134.831 Y131.787
 X134.738 Y131.659
 X134.662 Y131.506
 X134.636 Y131.422
 Y131.329
 X134.657 Y131.222
 X134.702 Y131.105
 X134.768 Y130.980
 X134.853 Y130.847
 X134.956 Y130.710
 X135.073 Y130.570
 X135.202 Y130.428
 X135.342 Y130.286
 X135.490 Y130.145
 X135.643 Y130.008
 X135.801 Y129.874
 X135.959 Y129.747
 X136.117 Y129.626
 X136.272 Y129.515
 X136.421 Y129.413
 X136.563 Y129.323
 X136.696 Y129.246
 X136.816 Y129.182
 X136.965 Y129.110
 X137.121 Y129.053
 X137.285 Y129.012
 X137.455 Y128.986
 X137.628 Y128.975
 X137.804 Y128.978
 X137.979 Y128.997
 X138.153 Y129.031
 X138.323 Y129.079
 X138.488 Y129.142
 X138.645 Y129.219
 X138.793 Y129.310
 X138.931 Y129.415
 X139.055 Y129.534
 X139.165 Y129.666
 X139.258 Y129.811
 X139.334 Y129.970
 X139.391 Y130.143
 X139.426 Y130.329
 X139.438 Y130.525
 X139.373 Y130.880
 X139.310 Y131.203
 X139.248 Y131.492
 X139.189 Y131.746
 X139.130 Y131.968
 X139.070 Y132.160
 X139.011 Y132.323
 X138.950 Y132.459
 X138.888 Y132.568
 X138.824 Y132.653
 X138.759 Y132.717
 X138.691 Y132.761
 X138.619 Y132.788
 X138.540 Y132.802
 X138.452
 X138.356 Y132.789
G00 Z5.000
 X141.467 Y132.007
G00 Z0.500
G01 Z-6.300 F2540
 X141.349 Y131.785
 X141.269 Y131.568
 X141.230 Y131.364
 X141.235 Y131.178
 X141.285 Y131.015
 X141.384 Y130.876
 X141.537 Y130.764
 X141.764 Y130.681
 X141.893 Y130.589
 X141.980 Y130.455
 X142.029 Y130.290
 X142.048 Y130.101
 X142.042 Y129.891
 X142.018 Y129.663
 X141.979 Y129.422
 X141.932 Y129.171
 X141.880 Y128.915
 X141.828 Y128.658
 X141.780 Y128.406
 X141.743 Y128.161
 X141.718 Y127.930
 X141.713 Y127.718
 X141.729 Y127.528
 X141.772 Y127.367
 X141.843 Y127.239
 X141.945 Y127.144
 X142.087 Y127.084
 X142.281 Y127.061
 X142.491 Y127.047
 X142.694 Y127.005
 X142.888 Y126.940
 X143.075 Y126.855
 X143.255 Y126.753
 X143.429 Y126.637
 X143.600 Y126.510
 X143.768 Y126.375
 X143.936 Y126.235
 X144.104 Y126.092
 X144.274 Y125.950
 X144.448 Y125.811
 X144.626 Y125.679
 X144.810 Y125.555
 X145.001 Y125.442
 X145.201 Y125.345
 X145.411 Y125.264
 X145.632 Y125.203
 X145.866 Y125.164
 X146.115 Y125.151
 X146.484 Y125.163
 X146.803 Y125.199
 X147.073 Y125.255
 X147.296 Y125.331
 X147.476 Y125.424
 X147.614 Y125.534
 X147.714 Y125.657
 X147.780 Y125.795
 X147.816 Y125.948
 X147.821 Y126.116
 X147.799 Y126.298
 X147.749 Y126.493
 X147.676 Y126.699
 X147.579 Y126.915
 X147.463 Y127.140
 X147.328 Y127.371
 X147.178 Y127.609
 X147.014 Y127.851
 X146.839 Y128.096
 X146.655 Y128.343
 X146.340 Y128.759
 X146.091 Y129.126
 X145.900 Y129.448
 X145.760 Y129.730
 X145.663 Y129.979
 X145.602 Y130.199
 X145.571 Y130.395
 X145.560 Y130.572
 X145.564 Y130.734
 X145.573 Y130.886
 X145.581 Y131.034
 Y131.181
 X145.562 Y131.336
 X145.521 Y131.504
 X145.448 Y131.691
 X145.337 Y131.904
 X145.179 Y132.147
 X144.967 Y132.427
 X144.692 Y132.748
 X144.353 Y133.110
 X144.098 Y133.242
 X143.832 Y133.319
 X143.559 Y133.342
 X143.284 Y133.318
 X143.010 Y133.250
 X142.741 Y133.145
 X142.481 Y133.006
 X142.235 Y132.840
 X142.006 Y132.651
 X141.799 Y132.446
 X141.618 Y132.229
 X141.467 Y132.007
G00 Z5.000
 X147.623 Y132.821
G00 Z0.500
G01 Z-6.300 F2540
 X147.615 Y132.589
 X147.662 Y132.345
 X147.776 Y132.076
 X147.793 Y131.889
 X147.839 Y131.713
 X147.912 Y131.536
 X148.009 Y131.361
 X148.127 Y131.189
 X148.263 Y131.023
 X148.412 Y130.863
 X148.572 Y130.711
 X148.739 Y130.569
 X148.910 Y130.439
 X149.080 Y130.322
 X149.247 Y130.219
 X149.407 Y130.132
 X149.555 Y130.063
 X149.689 Y130.013
 X149.803 Y129.984
 X149.892 Y129.976
 X149.948 Y129.986
 X149.983 Y130.045
 X149.925 Y130.315
 X149.914 Y130.560
 X149.949 Y130.769
 X150.026 Y130.945
 X150.140 Y131.088
 X150.283 Y131.203
 X150.449 Y131.293
 X150.632 Y131.363
 X150.828 Y131.419
 X151.032 Y131.464
 X151.238 Y131.503
 X151.443 Y131.540
 X151.641 Y131.579
 X151.827 Y131.623
 X151.995 Y131.677
 X152.141 Y131.743
 X152.258 Y131.824
 X152.345 Y131.923
 X152.400 Y132.044
 X152.420 Y132.208
 X152.504 Y132.428
 X152.547 Y132.635
 X152.558 Y132.840
 X152.541 Y133.043
 X152.501 Y133.244
 X152.441 Y133.442
 X152.369 Y133.637
 X152.286 Y133.829
 X152.200 Y134.017
 X152.115 Y134.201
 X152.035 Y134.380
 X151.966 Y134.555
 X151.912 Y134.725
 X151.880 Y134.891
 X151.875 Y135.053
 X151.904 Y135.209
 X151.972 Y135.358
 X152.083 Y135.497
 X152.240 Y135.625
 X152.416 Y135.723
 X152.407 Y135.802
 X152.374 Y135.915
 X152.319 Y136.030
 X152.243 Y136.148
 X152.149 Y136.264
 X152.038 Y136.378
 X151.911 Y136.486
 X151.770 Y136.588
 X151.616 Y136.680
 X151.451 Y136.761
 X151.277 Y136.829
 X151.096 Y136.882
 X150.909 Y136.919
 X150.717 Y136.937
 X150.522
 X150.327 Y136.910
 X150.131 Y136.862
 X149.936 Y136.788
 X149.745 Y136.686
 X149.588 Y136.576
 X149.690 Y136.343
 X149.743 Y136.078
 X149.736 Y135.825
 X149.677 Y135.583
 X149.574 Y135.352
 X149.435 Y135.129
 X149.268 Y134.914
 X149.079 Y134.705
 X148.877 Y134.499
 X148.669 Y134.295
 X148.461 Y134.092
 X148.260 Y133.889
 X148.075 Y133.683
 X147.912 Y133.475
 X147.778 Y133.262
 X147.680 Y133.045
 X147.623 Y132.821
G00 Z5.000
 X147.141 Y136.802
G00 Z0.500
G01 Z-6.300 F2540
 X147.420 Y136.825
 X147.649 Y136.890
 X147.832 Y136.992
 X147.971 Y137.125
 X148.072 Y137.286
 X148.134 Y137.472
 X148.161 Y137.679
 X148.152 Y137.902
 X148.109 Y138.136
 X148.034 Y138.375
 X147.928 Y138.616
 X147.793 Y138.852
 X147.631 Y139.078
 X147.444 Y139.290
 X147.234 Y139.483
 X147.002 Y139.651
 X146.752 Y139.789
 X146.484 Y139.894
 X146.200 Y139.961
 X145.879 Y139.986
 X145.728 Y140.156
 X145.625 Y140.334
 X145.554 Y140.525
 X145.512 Y140.728
 X145.493 Y140.940
 Y141.157
 X145.505 Y141.379
 X145.527 Y141.602
 X145.552 Y141.824
 X145.578 Y142.043
 X145.598 Y142.255
 X145.609 Y142.460
 Y142.652
 X145.587 Y142.831
 X145.546 Y142.993
 X145.479 Y143.136
 X145.384 Y143.259
 X145.255 Y143.362
 X145.085 Y143.443
 X144.868 Y143.499
 X144.618 Y143.543
 X144.346 Y143.548
 X144.057 Y143.517
 X143.754 Y143.453
 X143.445 Y143.360
 X143.134 Y143.242
 X142.827 Y143.102
 X142.530 Y142.944
 X142.248 Y142.770
 X141.986 Y142.586
 X141.750 Y142.395
 X141.546 Y142.200
 X141.378 Y142.006
 X141.253 Y141.817
 X141.175 Y141.638
 X141.148 Y141.475
 X141.173 Y141.328
 X141.255 Y141.198
 X141.403 Y141.081
 X141.623 Y140.986
 X141.824 Y140.968
 X142.005 Y140.914
 X142.154 Y140.827
 X142.276 Y140.713
 X142.372 Y140.578
 X142.448 Y140.425
 X142.508 Y140.259
 X142.557 Y140.084
 X142.599 Y139.903
 X142.639 Y139.720
 X142.679 Y139.538
 X142.725 Y139.361
 X142.780 Y139.192
 X142.847 Y139.036
 X142.929 Y138.896
 X143.031 Y138.775
 X143.156 Y138.676
 X143.309 Y138.600
 X143.495 Y138.552
 X143.722 Y138.535
 X143.919 Y138.521
 X144.082 Y138.483
 X144.212 Y138.421
 X144.314 Y138.339
 X144.393 Y138.241
 X144.454 Y138.132
 X144.505 Y138.014
 X144.553 Y137.892
 X144.603 Y137.767
 X144.663 Y137.641
 X144.737 Y137.516
 X144.833 Y137.395
 X144.956 Y137.278
 X145.113 Y137.169
 X145.312 Y137.068
 X145.558 Y136.980
 X145.857 Y136.906
 X146.217 Y136.850
 X146.644 Y136.815
 X147.141 Y136.802
G00 Z5.000
 X152.274 Y139.876
G00 Z0.500
G01 Z-6.300 F2540
 X152.419 Y139.678
 X152.609 Y139.516
 X152.838 Y139.389
 X153.099 Y139.295
 X153.383 Y139.234
 X153.681 Y139.204
 X153.987
 X154.290 Y139.234
 X154.584 Y139.290
 X154.859 Y139.372
 X155.107 Y139.477
 X155.320 Y139.603
 X155.489 Y139.747
 X155.607 Y139.907
 X155.669 Y140.080
 Y140.267
 X155.600 Y140.471
 X155.444 Y140.702
 X155.209 Y141.289
 X155.050 Y141.788
 X154.955 Y142.211
 X154.916 Y142.570
 X154.925 Y142.872
 X154.973 Y143.128
 X155.052 Y143.345
 X155.150 Y143.531
 X155.259 Y143.696
 X155.369 Y143.850
 X155.471 Y144.000
 X155.555 Y144.158
 X155.616 Y144.331
 X155.646 Y144.533
 X155.635 Y144.773
 X155.574 Y145.063
 X155.454 Y145.412
 X155.266 Y145.830
 X154.999 Y146.325
 X154.653 Y146.896
 X154.008 Y147.272
 X153.404 Y147.586
 X152.852 Y147.837
 X152.348 Y148.029
 X151.894 Y148.170
 X151.487 Y148.263
 X151.126 Y148.314
 X150.812 Y148.329
 X150.543 Y148.313
 X150.317 Y148.272
 X150.134 Y148.211
 X149.994 Y148.136
 X149.894 Y148.053
 X149.833 Y147.970
 X149.807 Y147.892
 X149.811 Y147.823
 X149.843 Y147.763
 X149.906 Y147.711
 X150.004 Y147.675
 X150.156 Y147.659
 X150.530 Y147.356
 X150.848 Y147.069
 X151.121 Y146.788
 X151.349 Y146.516
 X151.530 Y146.253
 X151.664 Y145.998
 X151.752 Y145.753
 X151.792 Y145.519
 X151.781 Y145.295
 X151.721 Y145.086
 X151.610 Y144.892
 X151.450 Y144.717
 X151.241 Y144.560
 X150.984 Y144.423
 X150.679 Y144.306
 X150.326 Y144.208
 X149.924 Y144.130
 X149.472 Y144.074
 X148.970 Y144.040
 X148.441 Y144.029
 X148.217 Y143.793
 X148.087 Y143.589
 X148.049 Y143.428
 X148.085 Y143.299
 X148.190 Y143.184
 X148.363 Y143.078
 X148.594 Y142.981
 X148.873 Y142.890
 X149.189 Y142.801
 X149.531 Y142.708
 X149.888 Y142.607
 X150.251 Y142.491
 X150.610 Y142.355
 X150.955 Y142.195
 X151.276 Y142.004
 X151.562 Y141.776
 X151.804 Y141.505
 X151.990 Y141.187
 X152.108 Y140.816
 X152.148 Y140.395
 X152.182 Y140.112
 X152.274 Y139.876
G00 Z5.000
 X147.114 Y145.919
G00 Z0.500
G01 Z-6.300 F2540
 X147.262 Y146.010
 X147.399 Y146.115
 X147.524 Y146.234
 X147.633 Y146.366
 X147.727 Y146.512
 X147.803 Y146.671
 X147.860 Y146.843
 X147.895 Y147.029
 X147.906 Y147.226
 X147.842 Y147.580
 X147.778 Y147.904
 X147.717 Y148.192
 X147.657 Y148.446
 X147.598 Y148.669
 X147.539 Y148.861
 X147.479 Y149.024
 X147.419 Y149.159
 X147.357 Y149.268
 X147.293 Y149.354
 X147.228 Y149.417
 X147.160 Y149.461
 X147.087 Y149.489
 X147.008 Y149.502
 X146.921
 X146.824 Y149.490
 X146.717 Y149.466
 X146.600 Y149.433
 X146.472 Y149.391
 X146.340 Y149.345
 X146.206 Y149.249
 X146.050 Y149.167
 X145.883 Y149.103
 X145.706 Y149.054
 X145.522 Y149.018
 X145.332 Y148.990
 X145.139 Y148.970
 X144.943 Y148.953
 X144.748 Y148.939
 X144.554 Y148.924
 X144.364 Y148.905
 X144.179 Y148.881
 X144.003 Y148.848
 X143.836 Y148.806
 X143.680 Y148.750
 X143.538 Y148.681
 X143.411 Y148.594
 X143.300 Y148.488
 X143.206 Y148.360
 X143.131 Y148.206
 X143.105 Y148.122
 Y148.029
 X143.126 Y147.923
 X143.171 Y147.806
 X143.237 Y147.680
 X143.322 Y147.548
 X143.424 Y147.410
 X143.541 Y147.270
 X143.671 Y147.128
 X143.811 Y146.986
 X143.958 Y146.846
 X144.112 Y146.708
 X144.269 Y146.575
 X144.428 Y146.447
 X144.586 Y146.327
 X144.741 Y146.215
 X144.890 Y146.113
 X145.032 Y146.023
 X145.164 Y145.946
 X145.285 Y145.883
 X145.434 Y145.810
 X145.590 Y145.754
 X145.754 Y145.712
 X145.924 Y145.686
 X146.097 Y145.675
 X146.273 Y145.679
 X146.448 Y145.698
 X146.622 Y145.731
 X146.792 Y145.780
 X146.957 Y145.842
 X147.114 Y145.919
G00 Z5.000
 X145.836 Y150.860
G00 Z0.500
G01 Z-6.300 F2540
 X146.030 Y150.934
 X146.222 Y151.036
 X146.378 Y151.146
 X146.277 Y151.379
 X146.223 Y151.643
 X146.230 Y151.897
 X146.289 Y152.139
 X146.392 Y152.370
 X146.531 Y152.592
 X146.699 Y152.807
 X146.887 Y153.017
 X147.089 Y153.223
 X147.298 Y153.426
 X147.506 Y153.629
 X147.706 Y153.833
 X147.891 Y154.039
 X148.054 Y154.247
 X148.188 Y154.460
 X148.287 Y154.677
 X148.343 Y154.901
 X148.351 Y155.133
 X148.305 Y155.376
 X148.191 Y155.645
 X148.174 Y155.833
 X148.128 Y156.009
 X148.054 Y156.186
 X147.957 Y156.361
 X147.839 Y156.532
 X147.703 Y156.699
 X147.554 Y156.859
 X147.394 Y157.011
 X147.227 Y157.152
 X147.056 Y157.283
 X146.886 Y157.400
 X146.719 Y157.503
 X146.560 Y157.589
 X146.411 Y157.658
 X146.278 Y157.708
 X146.163 Y157.738
 X146.075 Y157.746
 X146.018 Y157.735
 X145.983 Y157.677
 X146.041 Y157.407
 X146.053 Y157.162
 X146.017 Y156.952
 X145.940 Y156.777
 X145.827 Y156.633
 X145.684 Y156.519
 X145.518 Y156.429
 X145.334 Y156.358
 X145.138 Y156.303
 X144.935 Y156.257
 X144.728 Y156.218
 X144.523 Y156.181
 X144.325 Y156.143
 X144.140 Y156.098
 X143.971 Y156.045
 X143.826 Y155.979
 X143.708 Y155.898
 X143.621 Y155.799
 X143.566 Y155.677
 X143.546 Y155.514
 X143.462 Y155.294
 X143.419 Y155.087
 X143.408 Y154.882
 X143.425 Y154.679
 X143.466 Y154.478
 X143.525 Y154.280
 X143.598 Y154.084
 X143.680 Y153.893
 X143.766 Y153.705
 X143.852 Y153.521
 X143.931 Y153.342
 X144.001 Y153.167
 X144.054 Y152.997
 X144.086 Y152.831
 X144.091 Y152.669
 X144.062 Y152.512
 X143.995 Y152.363
 X143.884 Y152.225
 X143.727 Y152.097
 X143.551 Y151.998
 X143.559 Y151.919
 X143.593 Y151.807
 X143.648 Y151.691
 X143.723 Y151.574
 X143.817 Y151.457
 X143.928 Y151.344
 X144.056 Y151.235
 X144.197 Y151.134
 X144.351 Y151.042
 X144.515 Y150.961
 X144.689 Y150.893
 X144.870 Y150.839
 X145.058 Y150.803
 X145.249 Y150.785
 X145.444
 X145.640 Y150.811
 X145.836 Y150.860
G00 Z5.000
 X141.213 Y149.506
G00 Z0.500
G01 Z-6.300 F2540
 X141.188 Y149.652
 X141.107 Y149.783
 X140.959 Y149.899
 X140.738 Y149.994
 X140.537 Y150.012
 X140.357 Y150.067
 X140.207 Y150.153
 X140.086 Y150.267
 X139.990 Y150.403
 X139.914 Y150.555
 X139.853 Y150.721
 X139.804 Y150.896
 X139.762 Y151.077
 X139.723 Y151.260
 X139.682 Y151.443
 X139.636 Y151.620
 X139.582 Y151.788
 X139.515 Y151.944
 X139.432 Y152.084
 X139.330 Y152.205
 X139.206 Y152.304
 X139.053 Y152.380
 X138.867 Y152.428
 X138.639 Y152.446
 X138.442 Y152.459
 X138.280 Y152.497
 X138.149 Y152.559
 X138.047 Y152.641
 X137.969 Y152.739
 X137.907 Y152.849
 X137.856 Y152.966
 X137.809 Y153.088
 X137.758 Y153.213
 X137.699 Y153.339
 X137.624 Y153.464
 X137.528 Y153.585
 X137.405 Y153.702
 X137.248 Y153.811
 X137.050 Y153.912
 X136.804 Y154.000
 X136.504 Y154.074
 X136.144 Y154.130
 X135.718 Y154.166
 X135.221 Y154.178
 X134.941 Y154.155
 X134.712 Y154.090
 X134.530 Y153.988
 X134.390 Y153.855
 X134.290 Y153.694
 X134.227 Y153.508
 X134.201 Y153.301
 X134.210 Y153.078
 X134.252 Y152.845
 X134.328 Y152.605
 X134.434 Y152.364
 X134.569 Y152.128
 X134.731 Y151.902
 X134.918 Y151.690
 X135.128 Y151.498
 X135.359 Y151.330
 X135.610 Y151.191
 X135.878 Y151.086
 X136.161 Y151.019
 X136.482 Y150.994
 X136.634 Y150.824
 X136.737 Y150.647
 X136.807 Y150.455
 X136.849 Y150.252
 X136.868 Y150.041
 Y149.823
 X136.856 Y149.601
 X136.835 Y149.378
 X136.809 Y149.156
 X136.784 Y148.938
 X136.763 Y148.725
 X136.752 Y148.521
 Y148.328
 X136.774 Y148.149
 X136.816 Y147.987
 X136.882 Y147.844
 X136.977 Y147.721
 X137.106 Y147.618
 X137.276 Y147.538
 X137.494 Y147.481
 X137.744 Y147.437
 X138.015 Y147.433
 X138.305 Y147.464
 X138.607 Y147.527
 X138.916 Y147.620
 X139.227 Y147.738
 X139.534 Y147.878
 X139.831 Y148.037
 X140.114 Y148.210
 X140.375 Y148.394
 X140.611 Y148.586
 X140.816 Y148.780
 X140.983 Y148.974
 X141.108 Y149.163
 X141.186 Y149.342
 X141.213 Y149.506
G00 Z5.000
 X152.549 Y155.202
G00 Z0.500
G01 Z-6.300 F2540
 X152.645 Y154.986
 X152.762 Y154.761
 X152.897 Y154.530
 X153.047 Y154.293
 X153.211 Y154.051
 X153.386 Y153.805
 X153.570 Y153.558
 X153.884 Y153.142
 X154.134 Y152.776
 X154.325 Y152.454
 X154.465 Y152.171
 X154.562 Y151.923
 X154.622 Y151.702
 X154.654 Y151.506
 X154.664 Y151.329
 X154.661 Y151.167
 X154.651 Y151.015
 X154.644 Y150.868
 Y150.720
 X154.663 Y150.565
 X154.704 Y150.398
 X154.776 Y150.210
 X154.887 Y149.998
 X155.045 Y149.754
 X155.258 Y149.474
 X155.533 Y149.153
 X155.872 Y148.792
 X156.127 Y148.659
 X156.393 Y148.582
 X156.666 Y148.559
 X156.941 Y148.584
 X157.215 Y148.651
 X157.484 Y148.757
 X157.744 Y148.895
 X157.990 Y149.061
 X158.219 Y149.250
 X158.426 Y149.455
 X158.607 Y149.672
 X158.758 Y149.894
 X158.876 Y150.117
 X158.956 Y150.333
 X158.995 Y150.537
 X158.990 Y150.723
 X158.940 Y150.887
 X158.841 Y151.025
 X158.687 Y151.137
 X158.460 Y151.221
 X158.332 Y151.313
 X158.245 Y151.446
 X158.195 Y151.611
 X158.177 Y151.800
 X158.182 Y152.010
 X158.207 Y152.238
 X158.245 Y152.479
 X158.293 Y152.730
 X158.345 Y152.986
 X158.397 Y153.243
 X158.444 Y153.496
 X158.482 Y153.740
 X158.506 Y153.971
 X158.512 Y154.184
 X158.495 Y154.373
 X158.453 Y154.534
 X158.382 Y154.662
 X158.280 Y154.757
 X158.138 Y154.817
 X157.943 Y154.840
 X157.734 Y154.854
 X157.531 Y154.896
 X157.336 Y154.961
 X157.150 Y155.046
 X156.970 Y155.148
 X156.796 Y155.264
 X156.625 Y155.391
 X156.456 Y155.526
 X156.289 Y155.666
 X156.120 Y155.809
 X155.950 Y155.951
 X155.777 Y156.090
 X155.599 Y156.223
 X155.415 Y156.347
 X155.223 Y156.459
 X155.024 Y156.557
 X154.814 Y156.637
 X154.593 Y156.698
 X154.359 Y156.737
 X154.109 Y156.751
 X153.741 Y156.738
 X153.422 Y156.702
 X153.152 Y156.646
 X152.928 Y156.570
 X152.749 Y156.477
 X152.611 Y156.368
 X152.511 Y156.244
 X152.444 Y156.106
 X152.409 Y155.953
 X152.404 Y155.785
 X152.426 Y155.603
 X152.475 Y155.408
 X152.549 Y155.202
G00 Z5.000
 X142.029 Y125.746
G00 Z0.500
G01 Z-6.300 F2540
 X141.843 Y125.809
 X141.636 Y125.835
 X141.413 Y125.826
 X141.179 Y125.784
 X140.939 Y125.708
 X140.699 Y125.602
 X140.463 Y125.467
 X140.237 Y125.305
 X140.025 Y125.118
 X139.832 Y124.908
 X139.664 Y124.677
 X139.525 Y124.426
 X139.420 Y124.158
 X139.354 Y123.875
 X139.329 Y123.554
 X139.158 Y123.402
 X138.981 Y123.299
 X138.790 Y123.229
 X138.587 Y123.187
 X138.375 Y123.168
 X138.157
 X137.936 Y123.180
 X137.713 Y123.201
 X137.491 Y123.227
 X137.272 Y123.252
 X137.059 Y123.273
 X136.855 Y123.284
 X136.663
 X136.484 Y123.262
 X136.322 Y123.220
 X136.179 Y123.154
 X136.056 Y123.059
 X135.953 Y122.930
 X135.872 Y122.760
 X135.816 Y122.542
 X135.772 Y122.292
 X135.767 Y122.021
 X135.798 Y121.731
 X135.862 Y121.429
 X135.954 Y121.120
 X136.073 Y120.809
 X136.213 Y120.502
 X136.371 Y120.205
 X136.545 Y119.922
 X136.729 Y119.661
 X136.920 Y119.425
 X137.115 Y119.220
 X137.309 Y119.053
 X137.498 Y118.928
 X137.677 Y118.850
 X137.840 Y118.823
 X137.986 Y118.848
 X138.117 Y118.930
 X138.233 Y119.077
 X138.329 Y119.298
 X138.347 Y119.499
 X138.401 Y119.679
 X138.488 Y119.829
 X138.601 Y119.950
 X138.737 Y120.047
 X138.890 Y120.122
 X139.055 Y120.183
 X139.231 Y120.232
 X139.412 Y120.274
 X139.595 Y120.313
 X139.777 Y120.354
 X139.954 Y120.400
 X140.123 Y120.454
 X140.279 Y120.521
 X140.419 Y120.604
 X140.540 Y120.706
 X140.639 Y120.830
 X140.715 Y120.983
 X140.763 Y121.169
 X140.780 Y121.397
 X140.794 Y121.594
 X140.832 Y121.756
 X140.894 Y121.887
 X140.976 Y121.989
 X141.074 Y122.068
 X141.183 Y122.129
 X141.300 Y122.180
 X141.423 Y122.227
 X141.548 Y122.278
 X141.674 Y122.337
 X141.798 Y122.412
 X141.920 Y122.508
 X142.036 Y122.631
 X142.146 Y122.788
 X142.246 Y122.986
 X142.335 Y123.232
 X142.409 Y123.532
 X142.465 Y123.892
 X142.500 Y124.318
 X142.513 Y124.815
 X142.490 Y125.095
 X142.424 Y125.324
 X142.323 Y125.506
 X142.190 Y125.646
 X142.029 Y125.746
G00 Z5.000
 X135.566 Y125.226
G00 Z0.500
G01 Z-6.300 F2540
 X135.580 Y125.358
 X135.554 Y125.487
 X135.492 Y125.617
 X135.399 Y125.747
 X135.280 Y125.877
 X135.141 Y126.008
 X134.989 Y126.141
 X134.831 Y126.275
 X134.671 Y126.412
 X134.517 Y126.553
 X134.375 Y126.700
 X134.252 Y126.852
 X134.153 Y127.013
 X134.087 Y127.184
 X134.060 Y127.365
 X134.081 Y127.556
 X134.155 Y127.754
 X134.287 Y127.961
 X134.472 Y128.166
 X134.483 Y128.204
 X134.472 Y128.234
 X134.428 Y128.271
 X134.347 Y128.309
 X134.234 Y128.340
 X134.093 Y128.364
 X133.930 Y128.378
 X133.748 Y128.383
 X133.552 Y128.377
 X133.346 Y128.361
 X133.133 Y128.334
 X132.918 Y128.294
 X132.703 Y128.243
 X132.494 Y128.179
 X132.293 Y128.103
 X132.105 Y128.013
 X131.933 Y127.910
 X131.782 Y127.794
 X131.654 Y127.664
 X131.545 Y127.510
 X131.312 Y127.334
 X131.150 Y127.147
 X131.041 Y126.942
 X130.978 Y126.720
 X130.954 Y126.482
 X130.964 Y126.231
 X131.001 Y125.969
 X131.059 Y125.698
 X131.131 Y125.422
 X131.209 Y125.142
 X131.288 Y124.861
 X131.360 Y124.582
 X131.418 Y124.307
 X131.456 Y124.037
 X131.465 Y123.775
 X131.439 Y123.523
 X131.369 Y123.283
 X131.248 Y123.061
 X131.070 Y122.859
 X130.865 Y122.707
 X130.946 Y122.534
 X131.061 Y122.350
 X131.192 Y122.188
 X131.337 Y122.049
 X131.495 Y121.930
 X131.662 Y121.830
 X131.837 Y121.750
 X132.018 Y121.688
 X132.202 Y121.644
 X132.386 Y121.616
 X132.569 Y121.604
 X132.748 Y121.607
 X132.921 Y121.624
 X133.086 Y121.654
 X133.239 Y121.697
 X133.379 Y121.750
 X133.503 Y121.814
 X133.608 Y121.887
 X133.693 Y121.968
 X133.740 Y122.032
 X133.637 Y122.205
 X133.565 Y122.394
 X133.538 Y122.570
 X133.554 Y122.733
 X133.608 Y122.883
 X133.693 Y123.020
 X133.803 Y123.148
 X133.935 Y123.269
 X134.082 Y123.386
 X134.241 Y123.501
 X134.407 Y123.617
 X134.575 Y123.737
 X134.742 Y123.862
 X134.903 Y123.995
 X135.053 Y124.137
 X135.189 Y124.290
 X135.305 Y124.458
 X135.398 Y124.641
 X135.465 Y124.842
 X135.501 Y125.074
 X135.566 Y125.226
G00 Z5.000
G00 X0 Y0 (home)
M05
M30
%
