%
(Generated by SketchUcam V1.4d-80c0152)
(File: cnc.skp)
(Bit diameter: 0,1mm)
(Feed rate: 2540,0mm/min)
(Material Thickness: 6,3mm)
(Material length: 210,0mm X width: 210,0mm)
(Overhead Gantry: false)
(Plunge Depth first)
(Optimization is ON)
(www.PhlatBoyz.com)
G90 G21 G49 G17 F2540
M3 S15000
G00 Z5.000
 X83.385 Y157.656
G00 Z0.500
G01 Z-6.300 F2540
 X83.478 Y157.784
 X83.551 Y157.854
 X83.625 Y157.925
 X83.795 Y158.037
 X83.983 Y158.117
 X84.181 Y158.163
 X84.385 Y158.172
 X84.503 Y158.156
 X84.545 Y158.146
 X84.751 Y159.016
 X84.425 Y159.064
 X84.061 Y159.048
 X83.707 Y158.967
 X83.372 Y158.824
 X83.069 Y158.623
 X82.937 Y158.497
 X82.806 Y158.372
 X82.618 Y158.114
 X82.648 Y158.092
 X83.385 Y157.656
G00 Z5.000
 X81.670 Y158.662
G00 Z0.500
G01 Z-6.300 F2540
 X81.982 Y159.091
 X82.184 Y159.284
 X82.387 Y159.478
 X82.854 Y159.787
 X83.369 Y160.007
 X83.915 Y160.131
 X84.474 Y160.156
 X85.029 Y160.081
 X85.113 Y160.054
 X85.406 Y160.894
G03 X85.2275 Y160.9518 I1.1795 J3.933
 X84.514 Y161.0484 I-0.8936 J-3.9152
 X84.4108 Y161.0438 I0.1283 J-4.0098
 X83.7948 Y161.0161 I-0.1285 J-4.0098
 X83.4199 Y160.9306 I0.7033 J-3.9456
 X83.0929 Y160.8559 I0.7276 J-3.9412
 X82.4309 Y160.573 I1.241 J-3.8193
 X81.83 Y160.1763 I1.903 J-3.5364
 X81.5693 Y159.927 I2.6364 J-3.0185
 X81.3096 Y159.6788 I2.637 J-3.0180
 X80.8865 Y159.0963 I3.0242 J-2.6422
 X80.8555 Y159.0320 I3.5999 J-1.7733
G01 X81.670 Y158.662
G00 Z5.000
 X81.561 Y160.058
G00 Z0.500
G01 Z-6.300 F2540
G02 X81.7674 Y160.2548 I2.9459 J-2.8746
 X82.3772 Y160.6573 I2.5635 J-3.2204
G01 X82.360 Y160.786
 X82.385 Y161.344
 X82.509 Y161.888
 X82.728 Y162.401
 X83.036 Y162.867
 X83.173 Y163.010
G02 X83.119 Y163.1093 I3.5887 J1.9953
 X82.8915 Y163.8094 I3.7756 J1.6138
 X82.8699 Y163.9685 I4.0574 J0.6306
G03 X82.834 Y163.9424 I2.3355 J-3.2523
 X82.3377 Y163.4233 I2.6356 J-3.0167
 X81.9421 Y162.824 I3.1319 J-2.4976
 X81.6598 Y162.1636 I3.5276 J-1.8983
 X81.5 Y161.4634 I3.8098 J-1.2379
 X81.4678 Y160.746 I3.9696 J-0.5377
 X81.561 Y160.0575 I4.0003 J0.1913
G00 Z5.000
 X83.462 Y161.043
G00 Z0.500
G01 Z-6.300 F2540
G02 X83.7813 Y161.1156 I1.0750 J-3.9732
 X84.3682 Y161.142 I0.4776 J-4.0883
G01 X84.398 Y161.274
 X84.462 Y161.422
G03 X83.9269 Y161.8854 I2.4124 J3.3227
 X83.7991 Y162.0456 I3.1454 J2.6394
G01 X83.691 Y161.883
 X83.549 Y161.550
 X83.469 Y161.197
 X83.462 Y161.043
G00 Z5.000
 X83.834 Y162.162
G00 Z0.500
G01 Z-6.300 F2540
G03 X83.9993 Y161.9549 I3.2068 J2.3881
 X84.5513 Y161.4763 I2.8886 J2.7742
 X85.1615 Y161.1111 I2.354 J3.2405
 X85.2605 Y161.0462 I2.2508 J3.3249
 X85.4385 Y160.9884 I1.3298 J3.7897
G01 X85.738 Y161.846
 X85.544 Y161.918
 X85.065 Y162.205
 X84.645 Y162.572
 X84.297 Y163.008
 X84.032 Y163.500
 X83.860 Y164.030
 X83.839 Y164.184
 X83.785 Y164.583
 X83.810 Y165.141
 X83.934 Y165.685
 X84.154 Y166.198
 X84.461 Y166.664
 X84.847 Y167.067
 X85.298 Y167.395
 X85.337 Y167.414
 X85.801 Y167.638
 X86.339 Y167.786
 X86.895 Y167.836
 X87.451 Y167.786
 X87.989 Y167.638
 X88.106 Y167.581
 X88.428 Y168.308
 X88.479 Y168.408
 X88.305 Y168.473
G03 X87.968 Y168.5659 I-1.2309 J-3.8037
 X87.6101 Y168.6646 I-1.2414 J-3.8002
 X86.9869 Y168.7207 I-0.6692 J-3.9459
 X86.8948 Y168.729 I-0.4048 J-3.9817
 X86.1795 Y168.6646 I0.0 J-4.0059
 X85.9713 Y168.6072 I0.9594 J-3.8823
 X85.4872 Y168.4736 I0.8198 J-3.9142
 X84.9512 Y168.2155 I1.4633 J-3.7241
 X84.8402 Y168.162 I1.6804 J-3.6314
 X84.2592 Y167.7399 I2.0546 J-3.4388
 X83.7629 Y167.2208 I2.6356 J-3.0167
 X83.3673 Y166.6214 I3.1319 J-2.4976
 X83.0850 Y165.961 I3.5276 J-1.8983
 X82.9252 Y165.2609 I3.8098 J-1.2379
 X82.893 Y164.5434 I3.9696 J-0.5377
 X82.9578 Y164.0649 I3.9878 J0.2965
 X82.9894 Y163.8317 I3.9767 J0.42
 X83.2113 Y163.1487 I3.9054 J0.8914
 X83.2778 Y163.0251 I3.5558 J1.8337
 X83.5516 Y162.5163 I3.6508 J1.6365
 X83.8343 Y162.1618 I3.2624 J2.3117
G00 Z5.000
 X85.303 Y163.489
G00 Z0.500
G01 Z-6.300 F2540
G02 X85.6817 Y163.1154 I1.5915 J1.2343
 X86.0984 Y162.8802 I1.19 J1.6209
G01 X86.390 Y163.718
G02 X86.1798 Y163.848 I0.4858 J1.0199
 X85.9781 Y164.0623 I0.7147 J0.8749
 X85.8385 Y164.3215 I0.9164 J0.6606
 X85.7706 Y164.6079 I1.0559 J0.4016
 X85.779 Y164.9022 I1.1238 J0.1152
 X85.8631 Y165.1843 I1.1154 J-0.1789
 X86.0172 Y165.4351 I1.0314 J-0.4609
 X86.2308 Y165.6376 I0.8774 J-0.7116
 X86.4895 Y165.7781 I0.6638 J-0.9141
 X86.7757 Y165.8469 I0.4052 J-1.0545
 X87.070 Y165.8396 I0.1191 J-1.1234
 X87.304 Y165.7707 I-0.2001 J-1.1118
G01 X87.662 Y166.579
G02 X87.2 Y166.7139 I-0.7913 J-1.8488
 X86.6685 Y166.7244 I-0.3052 J-1.9908
 X86.1527 Y166.5955 I0.2263 J-2.0013
 X85.6887 Y166.3361 I0.7421 J-1.8723
 X85.3087 Y165.9643 I1.2061 J-1.6129
 X85.0392 Y165.5061 I1.5861 J-1.2412
 X84.899 Y164.9933 I1.8556 J-0.7829
 X84.8978 Y164.4616 I1.9958 J-0.2701
 X85.0358 Y163.9482 I1.997 J0.2615
 X85.3033 Y163.4888 I1.859 J0.7749
G00 Z5.000
 X84.976 Y168.339
G00 Z0.500
G01 Z-6.300 F2540
G02 X85.452 Y168.5676 I2.0157 J-3.5773
 X85.9129 Y168.6948 I1.321 J-3.8878
G01 X85.942 Y168.907
 X86.116 Y169.437
 X86.382 Y169.928
 X86.731 Y170.363
 X86.886 Y170.498
G02 X86.7425 Y170.9405 I3.8269 J1.4883
 X86.6699 Y171.4764 I4.0238 J0.8179
G03 X86.6301 Y171.4528 I2.0236 J-3.4549
 X86.0879 Y170.9819 I2.345 J-3.2477
 X85.6385 Y170.4217 I2.8873 J-2.7768
 X85.2963 Y169.7903 I3.3367 J-2.2167
 X85.0724 Y169.108 I3.6789 J-1.5853
 X84.9739 Y168.3966 I3.9028 J-0.9029
 X84.9763 Y168.3385 I4.0011 J0.1388
G00 Z5.000
 X87.059 Y168.815
G00 Z0.500
G01 Z-6.300 F2540
G02 X87.628 Y168.7634 I-0.0824 J-4.1053
 X87.9561 Y168.6729 I-0.9274 J-4.0
G01 X88.025 Y168.801
G02 X87.7778 Y169.0166 I2.5758 J3.1977
 X87.4139 Y169.4729 I3.0202 J2.7818
G01 X87.293 Y169.322
 X87.121 Y169.004
 X87.059 Y168.815
G00 Z5.000
 X87.403 Y169.647
G00 Z0.500
G01 Z-6.300 F2540
G03 X87.4531 Y169.5841 I3.1545 J2.4638
 X87.8504 Y169.0860 I3.3181 J2.2386
 X88.1208 Y168.8497 I2.7629 J2.8895
 X88.393 Y168.6119 I2.7638 J2.8887
G01 X88.532 Y168.509
 X88.948 Y169.308
 X88.706 Y169.519
 X88.496 Y169.703
 X88.148 Y170.139
 X87.883 Y170.631
 X87.838 Y170.772
 X87.711 Y171.162
 X87.640 Y171.684
 X87.636 Y171.715
 X87.661 Y172.272
 X87.785 Y172.816
 X88.005 Y173.329
 X88.312 Y173.795
 X88.698 Y174.199
 X88.934 Y174.371
 X89.149 Y174.527
 X89.652 Y174.769
 X90.190 Y174.917
 X90.746 Y174.967
 X91.302 Y174.917
 X91.840 Y174.769
 X91.889 Y174.745
 X92.333 Y175.518
 X92.153 Y175.605
G03 X91.4611 Y175.7958 I-1.4076 J-3.7504
 X91.3712 Y175.8039 I-0.4037 J-3.9819
 X90.7458 Y175.8602 I-0.6703 J-3.9458
 X90.3706 Y175.8264 I0.1703 J-3.9942
 X90.0305 Y175.7958 I0.188 J-3.9934
 X89.3687 Y175.6131 I0.7305 J-3.9373
 X89.3382 Y175.6047 I1.0501 J-3.8644
 X88.6912 Y175.2931 I1.4076 J-3.7504
 X88.4117 Y175.090 I2.2079 J-3.3328
 X88.1102 Y174.871 I2.1966 J-3.3403
 X87.6139 Y174.3519 I2.6356 J-3.0167
 X87.2182 Y173.7525 I3.1319 J-2.4976
 X86.936 Y173.0922 I3.5276 J-1.8983
 X86.7762 Y172.392 I3.8098 J-1.2379
 X86.744 Y171.6746 I3.9696 J-0.5377
 X86.7588 Y171.5647 I3.9725 J0.4822
 X86.8404 Y170.9629 I3.9948 J0.2347
 X86.9918 Y170.497 I3.8717 J1.0004
 X87.0623 Y170.2799 I3.8369 J1.1267
 X87.4026 Y169.6474 I3.6835 J1.5744
G00 Z5.000
 X89.061 Y170.742
G00 Z0.500
G01 Z-6.300 F2540
 X89.286 Y170.459
 X89.423 Y170.340
 X89.466 Y170.302
 X89.894 Y171.123
 X89.806 Y171.234
 X89.710 Y171.412
 X89.648 Y171.604
 X89.621 Y171.804
 X89.630 Y172.005
 X89.675 Y172.202
 X89.754 Y172.388
 X89.865 Y172.557
 X90.005 Y172.703
 X90.097 Y172.770
 X90.168 Y172.821
 X90.350 Y172.909
 X90.545 Y172.963
 X90.746 Y172.981
 X90.870 Y172.970
 X91.334 Y173.778
 X91.106 Y173.841
 X90.746 Y173.874
 X90.385 Y173.841
 X90.036 Y173.745
 X89.710 Y173.588
 X89.575 Y173.489
 X89.417 Y173.375
 X89.167 Y173.113
 X88.968 Y172.811
 X88.825 Y172.478
 X88.745 Y172.125
 X88.729 Y171.764
 X88.777 Y171.405
 X88.873 Y171.108
 X88.889 Y171.061
 X89.061 Y170.742
G00 Z5.000
 X88.421 Y175.220
G00 Z0.500
G01 Z-6.300 F2540
G02 X88.6397 Y175.3793 I2.5217 J-3.2405
 X89.3071 Y175.7007 I2.108 J-3.5237
G01 X89.319 Y175.958
 X89.443 Y176.502
 X89.662 Y177.015
 X89.970 Y177.481
 X90.355 Y177.884
 X90.515 Y178.000
G02 X90.4805 Y178.108 I3.8873 J1.3225
 X90.3817 Y178.8375 I4.0031 J0.9137
 X90.3889 Y178.9979 I4.1048 J-0.104
G01 X90.349 Y178.979
 X89.768 Y178.556
 X89.272 Y178.037
 X88.876 Y177.438
 X88.594 Y176.778
 X88.434 Y176.077
 X88.402 Y175.360
 X88.421 Y175.220
G00 Z5.000
 X90.430 Y175.932
G00 Z0.500
G01 Z-6.300 F2540
G02 X90.7458 Y175.9606 I0.5256 J-4.0723
 X91.3433 Y175.9068 I-0.0683 J-4.1055
G01 X91.411 Y176.073
 X91.500 Y176.208
G03 X91.0569 Y176.7595 I2.9669 J2.8386
 X90.9597 Y176.94 I3.5661 J2.0354
G01 X90.825 Y176.799
 X90.625 Y176.497
 X90.483 Y176.164
 X90.430 Y175.932
G00 Z5.000
 X91.015 Y177.048
G00 Z0.500
G01 Z-6.300 F2540
G03 X91.1406 Y176.815 I3.5817 J1.7771
 X91.5983 Y176.2455 I3.3375 J2.2139
 X92.1301 Y175.7801 I2.8931 J2.7696
 X92.3866 Y175.6108 I2.333 J3.2554
G01 X92.836 Y176.394
 X92.654 Y176.503
 X92.232 Y176.873
 X91.886 Y177.307
 X91.798 Y177.469
 X91.621 Y177.798
 X91.468 Y178.272
 X91.449 Y178.329
 X91.374 Y178.882
 X91.381 Y179.037
 X91.399 Y179.440
 X91.523 Y179.984
 X91.743 Y180.497
 X92.050 Y180.963
 X92.436 Y181.366
 X92.887 Y181.694
 X92.920 Y181.710
 X93.390 Y181.936
 X93.928 Y182.085
 X94.484 Y182.135
 X95.040 Y182.085
 X95.578 Y181.936
 X96.024 Y181.721
 X96.483 Y182.487
G03 X95.8914 Y182.7722 I-2.0271 J-3.4522
 X95.5491 Y182.8666 I-1.2337 J-3.8027
 X95.1991 Y182.9632 I-1.2374 J-3.8015
 X94.5639 Y183.0204 I-0.6753 J-3.9453
 X94.4838 Y183.0276 I-0.3988 J-3.9828
 X93.7686 Y182.9632 I0.0 J-4.0059
 X93.5391 Y182.8999 I0.9486 J-3.8846
 X93.0763 Y182.7722 I0.8305 J-3.9115
 X92.5344 Y182.5112 I1.4603 J-3.7255
 X92.4292 Y182.4605 I1.6834 J-3.6302
 X91.8482 Y182.0384 I2.0546 J-3.4388
 X91.3519 Y181.5193 I2.6356 J-3.0167
 X90.9563 Y180.92 I3.1319 J-2.4976
 X90.674 Y180.2596 I3.5276 J-1.8983
 X90.5142 Y179.5594 I3.8098 J-1.2379
 X90.4925 Y179.0770 I3.9766 J-0.4203
 X90.482 Y178.842 I3.9877 J-0.2968
 X90.5784 Y178.1303 I4.0018 J0.1797
 X90.6218 Y177.9968 I3.8261 J1.1694
 X90.8003 Y177.4473 I3.8843 J0.9584
 X91.0152 Y177.0480 I3.6227 J1.692
G00 Z5.000
 X92.627 Y178.228
G00 Z0.500
G01 Z-6.300 F2540
 X92.758 Y177.986
 X92.799 Y177.909
 X93.023 Y177.628
 X93.298 Y177.388
 X93.387 Y177.334
 X93.845 Y178.096
 X93.668 Y178.245
 X93.544 Y178.401
 X93.448 Y178.579
 X93.386 Y178.771
 X93.359 Y178.971
 X93.368 Y179.173
 X93.413 Y179.370
 X93.492 Y179.555
 X93.603 Y179.724
 X93.743 Y179.870
 X93.906 Y179.989
 X94.088 Y180.076
 X94.283 Y180.130
 X94.484 Y180.148
 X94.685 Y180.130
 X94.880 Y180.076
 X95.001 Y180.018
 X95.461 Y180.783
 X95.193 Y180.912
 X94.844 Y181.009
 X94.484 Y181.041
 X94.123 Y181.009
 X93.774 Y180.912
 X93.448 Y180.755
 X93.155 Y180.542
 X92.905 Y180.281
 X92.706 Y179.979
 X92.563 Y179.646
 X92.483 Y179.293
 X92.469 Y178.988
 X92.467 Y178.931
 X92.515 Y178.572
 X92.627 Y178.228
G00 Z5.000
 X92.566 Y182.638
G00 Z0.500
G01 Z-6.300 F2540
G02 X93.0410 Y182.8662 I2.0152 J-3.5776
 X93.4837 Y182.9883 I1.312 J-3.8908
G01 X93.594 Y183.470
 X93.813 Y183.984
 X94.121 Y184.449
 X94.506 Y184.853
 X94.652 Y184.959
G02 X94.6109 Y185.0864 I3.8839 J1.3325
 X94.5121 Y185.816 I4.0031 J0.9137
 X94.5186 Y185.9609 I4.1046 J-0.1117
G03 X93.9187 Y185.5251 I2.0452 J-3.4457
 X93.4224 Y185.0060 I2.6356 J-3.0167
 X93.0268 Y184.4066 I3.1319 J-2.4976
 X92.7445 Y183.7463 I3.5276 J-1.8983
 X92.5847 Y183.0461 I3.8098 J-1.2379
 X92.5664 Y182.6376 I3.9795 J-0.3834
G00 Z5.000
 X94.627 Y183.115
G00 Z0.500
G01 Z-6.300 F2540
G02 X95.217 Y183.0620 I-0.0718 J-4.1055
 X95.5336 Y182.9746 I-0.9332 J-3.9986
G01 X95.562 Y183.042
 X95.644 Y183.166
G02 X95.1872 Y183.738 I2.9692 J2.8362
 X95.1009 Y183.8985 I3.5717 J2.0255
G01 X94.976 Y183.767
 X94.776 Y183.465
 X94.627 Y183.115
G00 Z5.000
 X95.156 Y184.006
G00 Z0.500
G01 Z-6.300 F2540
G03 X95.271 Y183.7934 I3.5769 J1.7874
 X95.7158 Y183.2356 I3.3417 J2.2087
 X95.7425 Y183.22 I2.0332 J3.4462
 X96.2605 Y182.7586 I2.9104 J2.7462
G01 X96.538 Y182.579
 X96.996 Y183.342
 X96.801 Y183.468
 X96.341 Y183.877
 X96.016 Y184.285
 X95.939 Y184.428
 X95.752 Y184.777
 X95.604 Y185.230
 X95.579 Y185.307
 X95.504 Y185.861
 X95.510 Y185.995
 X95.529 Y186.418
 X95.654 Y186.962
 X95.873 Y187.475
 X96.180 Y187.941
 X96.566 Y188.344
 X97.018 Y188.673
 X97.061 Y188.693
 X97.520 Y188.915
 X98.058 Y189.063
 X98.614 Y189.113
 X99.170 Y189.063
 X99.708 Y188.915
 X100.059 Y188.746
 X100.100 Y188.726
 X100.207 Y188.915
 X100.508 Y189.517
G03 X100.4445 Y189.547 I1.7499 J3.7145
G01 X100.022 Y189.751
 X99.690 Y189.842
 X99.330 Y189.942
 X98.705 Y189.998
 X98.614 Y190.006
 X97.899 Y189.942
 X97.681 Y189.882
 X97.207 Y189.751
 X96.675 Y189.495
G03 X96.5596 Y189.439 I1.6781 J-3.6322
 X95.9786 Y189.0169 I2.0546 J-3.4388
 X95.9311 Y188.9672 I2.8696 J-2.7911
 X95.4823 Y188.4978 I2.6595 J-2.992
 X95.0867 Y187.8984 I3.1319 J-2.4976
 X94.8044 Y187.2381 I3.5276 J-1.8983
 X94.7245 Y186.888 I3.8537 J-1.0637
 X94.6446 Y186.5379 I3.8537 J-1.0637
 X94.622 Y186.0353 I3.9759 J-0.4303
 X94.6124 Y185.8205 I3.9888 J-0.2868
 X94.7088 Y185.1088 I4.0018 J0.1797
 X94.7587 Y184.9553 I3.8286 J1.1591
 X94.9307 Y184.4258 I3.8813 J0.9684
 X95.1564 Y184.0065 I3.6278 J1.6818
G00 Z5.000
 X96.757 Y185.207
G00 Z0.500
G01 Z-6.300 F2540
 X96.899 Y184.944
 X96.929 Y184.888
 X97.135 Y184.629
 X97.464 Y184.336
 X97.556 Y184.277
 X98.001 Y185.018
 X97.715 Y185.304
 X97.578 Y185.557
 X97.516 Y185.750
 X97.489 Y185.950
 X97.498 Y186.151
 X97.543 Y186.348
 X97.622 Y186.534
 X97.734 Y186.702
 X97.873 Y186.848
 X98.037 Y186.967
 X98.218 Y187.055
 X98.413 Y187.108
 X98.614 Y187.127
 X98.815 Y187.108
 X99.010 Y187.055
 X99.123 Y187.000
 X99.562 Y187.776
 X99.324 Y187.891
 X98.975 Y187.987
 X98.614 Y188.019
 X98.254 Y187.987
 X97.905 Y187.891
 X97.579 Y187.734
 X97.286 Y187.521
 X97.035 Y187.259
 X96.836 Y186.957
 X96.694 Y186.624
 X96.613 Y186.271
 X96.599 Y185.947
 Y185.910
 X96.646 Y185.551
 X96.757 Y185.207
G00 Z5.000
 X96.707 Y189.621
G00 Z0.500
G01 Z-6.300 F2540
 X97.171 Y189.845
 X97.626 Y189.970
 X97.734 Y190.444
 X97.953 Y190.957
 X98.261 Y191.423
 X98.526 Y191.700
G02 X98.3607 Y192.1731 I3.7876 J1.5856
 X98.2839 Y192.6622 I4.0105 J0.8809
G03 X98.0590 Y192.4988 I2.2362 J-3.3144
 X97.5627 Y191.9797 I2.6356 J-3.0167
 X97.167 Y191.3804 I3.1319 J-2.4976
 X97.0306 Y191.0612 I3.6044 J-1.7293
 X96.8848 Y190.72 I3.5992 J-1.7402
 X96.725 Y190.0198 I3.8098 J-1.2379
 X96.7071 Y189.621 I3.98 J-0.3786
G00 Z5.000
 X98.768 Y190.093
G00 Z0.500
G01 Z-6.300 F2540
 X99.347 Y190.040
 X99.675 Y189.950
 X99.703 Y190.016
G02 X99.4369 Y190.2714 I2.7101 J3.0847
 X99.0816 Y190.6893 I2.9437 J2.8626
G01 X98.916 Y190.439
 X98.768 Y190.093
G00 Z5.000
 X99.049 Y190.893
G00 Z0.500
G01 Z-6.300 F2540
G03 X99.1157 Y190.8036 I3.2423 J2.3506
 X99.5076 Y190.3427 I3.2383 J2.3561
 X99.8152 Y190.0853 I2.7164 J2.9334
 X100.0585 Y189.8816 I2.6855 J2.9617
 X100.4895 Y189.6364 I2.1893 J3.3465
 X100.5525 Y189.6061 I1.7631 J3.5806
G01 X100.950 Y190.402
 X100.903 Y190.424
 X100.568 Y190.615
 X100.386 Y190.767
 X100.136 Y190.976
 X99.796 Y191.379
 X99.508 Y191.888
 X99.470 Y191.997
 X99.324 Y192.415
 X99.248 Y192.897
 X99.238 Y192.966
 X99.251 Y193.524
 X99.307 Y193.797
 X99.363 Y194.071
 X99.572 Y194.588
 X99.869 Y195.060
 X100.246 Y195.472
 X100.366 Y195.563
 X100.691 Y195.810
 X101.188 Y196.062
 X101.723 Y196.222
 X102.278 Y196.284
 X102.834 Y196.246
 X102.950 Y196.217
 X103.447 Y196.074
 X103.617 Y196.500
 X103.727 Y196.918
 X103.182 Y197.075
G03 X102.9751 Y197.1275 I0.9044 J4.0052
G01 X102.740 Y197.144
G03 X102.2586 Y197.1767 I-0.5139 J-3.9656
 X101.7399 Y197.1189 I0.1828 J-3.9953
 X101.5449 Y197.0971 I0.3454 J-3.9845
 X100.8568 Y196.8914 I0.7989 J-3.9254
 X100.7539 Y196.8391 I1.7608 J-3.5933
 X100.2165 Y196.5661 I1.5386 J-3.6939
 X99.8285 Y196.2714 I2.2202 J-3.3259
 X99.6446 Y196.1317 I2.3257 J-3.253
 X99.1595 Y195.6022 I2.6991 J-2.96
 X98.7766 Y194.9946 I3.1843 J-2.4305
 X98.5085 Y194.3284 I3.5671 J-1.8229
 X98.436 Y193.9767 I3.8754 J-0.9816
 X98.3636 Y193.625 I3.8754 J-0.9816
 X98.3466 Y192.907 I3.9802 J-0.4532
 X98.37 Y192.7585 I3.963 J0.5467
 X98.4581 Y192.1975 I3.9861 J0.3391
 X98.6301 Y191.7041 I3.8546 J1.0669
 X98.6945 Y191.5194 I3.8077 J1.2237
 X99.0488 Y190.8932 I3.6496 J1.6517
G00 Z5.000
 X100.504 Y192.339
G00 Z0.500
G01 Z-6.300 F2540
 X100.697 Y191.999
 X100.906 Y191.752
 X101.085 Y191.603
 X101.192 Y191.513
 X101.409 Y191.390
 X101.437 Y191.376
 X101.834 Y192.172
 X101.701 Y192.246
 X101.656 Y192.285
 X101.535 Y192.386
 X101.429 Y192.510
 X101.318 Y192.707
 X101.251 Y192.898
 X101.220 Y193.097
 X101.225 Y193.299
 X101.245 Y193.398
 X101.265 Y193.497
 X101.341 Y193.684
 X101.448 Y193.855
 X101.585 Y194.004
 X101.746 Y194.126
 X101.926 Y194.218
 X102.119 Y194.276
 X102.320 Y194.298
 X102.508 Y194.285
 X102.711 Y194.227
 X103.041 Y195.057
 X102.663 Y195.166
 X102.301 Y195.191
 X101.941 Y195.150
 X101.594 Y195.047
 X101.271 Y194.883
 X101.025 Y194.696
 X100.983 Y194.664
 X100.739 Y194.397
 X100.546 Y194.091
 X100.410 Y193.755
 X100.374 Y193.577
 X100.337 Y193.400
 X100.329 Y193.038
 X100.385 Y192.681
 X100.504 Y192.339
G00 Z5.000
 X99.836 Y196.403
G00 Z0.500
G01 Z-6.300 F2540
G02 X100.1632 Y196.6512 I2.6439 J-3.1416
 X100.6826 Y196.9151 I2.1148 J-3.5196
G01 X100.703 Y197.371
 X100.827 Y197.915
 X101.047 Y198.428
 X101.156 Y198.593
G02 X101.0852 Y198.6818 I3.1747 J2.6041
 X100.7363 Y199.33 I3.4268 J2.262
 X100.6867 Y199.4828 I3.8796 J1.345
G01 X100.656 Y199.451
 X100.260 Y198.851
 X99.978 Y198.191
 X99.818 Y197.491
 X99.786 Y196.773
 X99.836 Y196.403
G00 Z5.000
 X101.787 Y197.225
G00 Z0.500
G01 Z-6.300 F2540
G02 X102.2565 Y197.2771 I0.6888 J-4.0479
 X102.73 Y197.2446 I-0.0438 J-4.1058
G03 X102.0986 Y197.6219 I1.7818 J3.6993
 X101.9442 Y197.7567 I2.6236 J3.1586
G01 X101.867 Y197.577
 X101.787 Y197.225
G00 Z5.000
 X101.958 Y197.877
G00 Z0.500
G01 Z-6.300 F2540
G03 X102.1576 Y197.7031 I2.7289 J2.9223
 X102.7761 Y197.3335 I2.3556 J3.2402
 X103.0003 Y197.2243 I1.868 J3.549
 X103.2077 Y197.1718 I1.0861 J3.8531
G01 X103.753 Y197.015
 X103.979 Y197.875
 X103.490 Y198.016
 X103.159 Y198.141
 X102.682 Y198.425
 X102.543 Y198.547
 X102.262 Y198.793
 X101.952 Y199.182
 X101.914 Y199.229
 X101.650 Y199.720
 X101.602 Y199.868
 X101.477 Y200.251
 X101.402 Y200.804
 X101.427 Y201.362
 X101.552 Y201.906
 X101.771 Y202.419
 X102.078 Y202.885
 X102.464 Y203.288
 X102.916 Y203.616
 X103.418 Y203.858
 X103.848 Y203.977
 X103.956 Y204.007
 X104.512 Y204.057
 X104.914 Y204.021
 X105.000
 X105.086
 X105.488 Y204.057
 X106.044 Y204.007
 X106.152 Y203.977
 X106.582 Y203.858
 X107.084 Y203.616
 X107.536 Y203.288
 X107.922 Y202.885
 X108.229 Y202.419
 X108.448 Y201.906
 X108.573 Y201.362
 X108.598 Y200.804
 X108.523 Y200.251
 X108.398 Y199.868
 X108.350 Y199.720
 X108.086 Y199.229
 X108.048 Y199.182
 X107.738 Y198.793
 X107.457 Y198.547
 X107.318 Y198.425
 X106.841 Y198.141
 X106.510 Y198.016
 X106.021 Y197.875
 X106.247 Y197.015
 X106.792 Y197.172
G03 X106.9997 Y197.2243 I-0.8787 J3.9056
 X107.2239 Y197.3335 I-1.6438 J3.6583
 X107.8424 Y197.7031 I-1.7371 J3.6098
 X108.0418 Y197.8773 I-2.5296 J3.0965
 X108.3833 Y198.1756 I-2.4557 J3.1554
 X108.7435 Y198.6273 I-2.9397 J2.7138
 X108.831 Y198.7371 I-3.0837 J2.549
 X109.1713 Y199.3695 I-3.3432 J2.2068
 X109.244 Y199.5933 I-3.7651 J1.347
G02 X109.3933 Y200.0525 I-3.7215 J1.4631
 X109.4897 Y200.7642 I-3.9054 J0.8914
 X109.4575 Y201.4816 I-4.0018 J0.1797
 X109.2976 Y202.1818 I-3.9696 J-0.5377
 X109.0154 Y202.8422 I-3.8098 J-1.2379
 X108.6198 Y203.4415 I-3.5276 J-1.8983
 X108.1869 Y203.8942 I-3.1004 J-2.531
 X108.1235 Y203.9606 I-2.9244 J-2.7324
 X107.5424 Y204.3828 I-2.6356 J-3.0167
 X106.8954 Y204.6944 I-2.0546 J-3.4388
 X106.2031 Y204.8854 I-1.4076 J-3.7504
 X105.4878 Y204.9498 I-0.7153 J-3.9415
 X105.0 Y204.9059 I0.1139 J-3.9973
 X104.5122 Y204.9498 I-0.6017 J-3.9534
 X103.7969 Y204.8854 I0.0 J-4.0059
 X103.1046 Y204.6944 I0.7153 J-3.9415
 X102.4576 Y204.3828 I1.4076 J-3.7504
 X101.8765 Y203.9606 I2.0546 J-3.4388
 X101.8131 Y203.8942 I2.8609 J-2.7988
 X101.3802 Y203.4415 I2.6676 J-2.9837
 X100.9846 Y202.8422 I3.1319 J-2.4976
 X100.7024 Y202.1818 I3.5276 J-1.8983
 X100.5425 Y201.4816 I3.8098 J-1.2379
 X100.5103 Y200.7642 I3.9696 J-0.5377
 X100.6067 Y200.0525 I4.0018 J0.1797
 X100.756 Y199.5933 I3.8707 J1.0038
G03 X100.8287 Y199.3695 I3.8378 J1.1233
 X101.169 Y198.7371 I3.6835 J1.5744
 X101.2565 Y198.6273 I3.1712 J2.4392
 X101.6167 Y198.1756 I3.2999 J2.2621
 X101.9582 Y197.8773 I2.7972 J2.857
G00 Z5.000
 X103.053 Y199.548
G00 Z0.500
G01 Z-6.300 F2540
 X103.260 Y199.367
 X103.325 Y199.310
 X103.634 Y199.126
 X103.833 Y199.051
 X104.257 Y198.929
 X104.483 Y199.789
 X104.113 Y199.895
 X104.022 Y199.930
 X103.850 Y200.033
 X103.698 Y200.165
 X103.572 Y200.323
 X103.476 Y200.501
 X103.414 Y200.693
 X103.387 Y200.893
 X103.396 Y201.095
 X103.441 Y201.292
 X103.520 Y201.478
 X103.631 Y201.646
 X103.771 Y201.792
 X103.934 Y201.911
 X104.116 Y201.999
 X104.311 Y202.052
 X104.512 Y202.070
 X104.738 Y202.050
 X104.771 Y202.047
 X104.855 Y202.932
 X104.818 Y202.936
 X104.512 Y202.963
 X104.152 Y202.931
 X103.803 Y202.834
 X103.476 Y202.677
 X103.184 Y202.465
 X102.933 Y202.203
 X102.734 Y201.901
 X102.592 Y201.568
 X102.511 Y201.215
 X102.495 Y200.853
 X102.543 Y200.495
 X102.638 Y200.205
 X102.655 Y200.150
 X102.827 Y199.831
 X103.053 Y199.548
G00 Z5.000
 X105.517 Y199.789
G00 Z0.500
G01 Z-6.300 F2540
 X105.743 Y198.929
 X106.167 Y199.051
 X106.366 Y199.126
 X106.675 Y199.310
 X106.740 Y199.367
 X106.947 Y199.548
 X107.173 Y199.831
 X107.345 Y200.150
 X107.362 Y200.205
 X107.457 Y200.495
 X107.505 Y200.853
 X107.489 Y201.215
 X107.408 Y201.568
 X107.266 Y201.901
 X107.067 Y202.203
 X106.816 Y202.465
 X106.524 Y202.677
 X106.197 Y202.834
 X105.848 Y202.931
 X105.488 Y202.963
 X105.182 Y202.936
 X105.145 Y202.932
 X105.229 Y202.047
 X105.262 Y202.050
 X105.488 Y202.070
 X105.689 Y202.052
 X105.884 Y201.999
 X106.066 Y201.911
 X106.229 Y201.792
 X106.369 Y201.646
 X106.480 Y201.478
 X106.559 Y201.292
 X106.604 Y201.095
 X106.613 Y200.893
 X106.586 Y200.693
 X106.524 Y200.501
 X106.428 Y200.323
 X106.302 Y200.165
 X106.150 Y200.033
 X105.978 Y199.930
 X105.887 Y199.895
 X105.517 Y199.789
G00 Z5.000
 X107.270 Y197.245
G00 Z0.500
G01 Z-6.300 F2540
G02 X107.7435 Y197.2771 I0.5174 J-4.0734
 X108.2129 Y197.2247 I-0.2194 J-4.1002
G01 X108.133 Y197.577
 X108.056 Y197.757
G03 X107.9014 Y197.6219 I-2.7779 J3.0238
 X107.27 Y197.2446 I-2.4133 J3.322
G00 Z5.000
 X108.844 Y198.593
G00 Z0.500
G01 Z-6.300 F2540
 X108.953 Y198.428
 X109.173 Y197.915
 X109.297 Y197.371
 X109.317 Y196.915
G02 X109.8368 Y196.6512 I-1.5954 J-3.7835
 X110.1637 Y196.4029 I-2.317 J-3.3899
G01 X110.214 Y196.773
 X110.182 Y197.491
 X110.022 Y198.191
 X109.740 Y198.851
 X109.344 Y199.451
 X109.313 Y199.483
G02 X109.2637 Y199.33 I-3.9292 J1.1923
 X108.9148 Y198.6818 I-3.7757 J1.6138
 X108.8443 Y198.5934 I-3.2452 J2.5157
G00 Z5.000
 X108.406 Y195.047
G00 Z0.500
G01 Z-6.300 F2540
 X108.059 Y195.150
 X107.699 Y195.191
 X107.337 Y195.166
 X106.959 Y195.057
 X107.289 Y194.227
 X107.492 Y194.285
 X107.680 Y194.298
 X107.881 Y194.276
 X108.074 Y194.218
 X108.254 Y194.126
 X108.415 Y194.004
 X108.552 Y193.855
 X108.659 Y193.684
 X108.735 Y193.497
 X108.755 Y193.398
 X108.775 Y193.299
 X108.780 Y193.097
 X108.749 Y192.898
 X108.682 Y192.707
 X108.571 Y192.510
 X108.465 Y192.386
 X108.344 Y192.285
 X108.299 Y192.246
 X108.166 Y192.172
 X108.563 Y191.376
 X108.591 Y191.390
 X108.808 Y191.513
 X108.915 Y191.603
 X109.094 Y191.752
 X109.303 Y191.999
 X109.496 Y192.339
 X109.615 Y192.681
 X109.671 Y193.038
 X109.663 Y193.400
 X109.626 Y193.577
 X109.590 Y193.755
 X109.454 Y194.091
 X109.261 Y194.397
 X109.017 Y194.664
 X108.975 Y194.696
 X108.729 Y194.883
 X108.406 Y195.047
G00 Z5.000
 X108.277 Y196.222
G00 Z0.500
G01 Z-6.300 F2540
 X108.812 Y196.062
 X109.309 Y195.810
 X109.634 Y195.563
 X109.754 Y195.472
 X110.131 Y195.060
 X110.428 Y194.588
 X110.637 Y194.071
 X110.693 Y193.797
 X110.749 Y193.524
 X110.762 Y192.966
 X110.752 Y192.897
 X110.676 Y192.415
 X110.530 Y191.997
 X110.492 Y191.888
 X110.204 Y191.379
 X109.864 Y190.976
 X109.614 Y190.767
 X109.432 Y190.615
 X109.097 Y190.424
 X109.062 Y190.408
 X109.448 Y189.606
G03 X109.5105 Y189.6364 I-1.7005 J3.6108
 X109.9415 Y189.8816 I-1.7584 J3.5916
 X110.1848 Y190.0853 I-2.4421 J3.1654
 X110.4924 Y190.3427 I-2.4088 J3.1908
 X110.8843 Y190.8036 I-2.8464 J2.817
 X110.9512 Y190.8932 I-3.1754 J2.4402
 X111.3055 Y191.5194 I-3.2952 J2.278
 X111.3699 Y191.7041 I-3.7433 J1.4084
 X111.5419 Y192.1975 I-3.6825 J1.5604
 X111.63 Y192.7585 I-3.898 J0.9
 X111.6534 Y192.907 I-3.9397 J0.6953
 X111.6364 Y193.625 I-3.9971 J0.2647
 X111.564 Y193.9767 I-3.9479 J-0.6299
 X111.4915 Y194.3284 I-3.9479 J-0.6299
 X111.2234 Y194.9946 I-3.8353 J-1.1566
 X110.8405 Y195.6022 I-3.5671 J-1.8229
 X110.3554 Y196.1317 I-3.1843 J-2.4305
 X110.1715 Y196.2714 I-2.5096 J-3.1133
 X109.7835 Y196.5661 I-2.6082 J-3.0312
 X109.2461 Y196.8391 I-2.0760 J-3.4209
 X109.1432 Y196.8914 I-1.8637 J-3.541
 X108.4551 Y197.0971 I-1.4869 J-3.7197
 X108.2601 Y197.1189 I-0.5405 J-3.9628
 X107.7414 Y197.1767 I-0.7015 J-3.9375
 X107.26 Y197.1437 I0.0326 J-3.9986
G01 X107.025 Y197.128
G03 X106.8184 Y197.0752 I-1.1109 J3.9529
G01 X106.273 Y196.918
 X106.383 Y196.500
 X106.553 Y196.074
 X107.050 Y196.217
 X107.166 Y196.246
 X107.722 Y196.284
 X108.277 Y196.222
G00 Z5.000
 X110.918 Y190.689
G00 Z0.500
G01 Z-6.300 F2540
G02 X110.5631 Y190.2714 I-3.299 J2.4447
 X110.2832 Y190.0372 I-2.7726 J3.0287
G01 X110.325 Y189.950
 X110.653 Y190.040
 X111.232 Y190.093
 X111.084 Y190.439
 X110.918 Y190.689
G00 Z5.000
 X111.474 Y191.700
G00 Z0.500
G01 Z-6.300 F2540
 X111.739 Y191.423
 X112.047 Y190.957
 X112.266 Y190.444
 X112.374 Y189.970
 X112.829 Y189.845
 X113.293 Y189.621
G03 X113.275 Y190.0198 I-3.9979 J0.0203
 X113.1152 Y190.72 I-3.9696 J-0.5377
 X112.9694 Y191.0612 I-3.7451 J-1.3989
 X112.833 Y191.3804 I-3.7408 J-1.4102
 X112.4373 Y191.9797 I-3.5276 J-1.8983
 X111.941 Y192.4988 I-3.1319 J-2.4976
 X111.7161 Y192.6622 I-2.4611 J-3.151
G02 X111.6393 Y192.1731 I-4.0873 J0.3918
 X111.4744 Y191.7001 I-3.9525 J1.1125
G00 Z5.000
 X111.746 Y187.987
G00 Z0.500
G01 Z-6.300 F2540
 X111.386 Y188.019
 X111.025 Y187.987
 X110.676 Y187.891
 X110.438 Y187.776
 X110.877 Y187.000
 X110.990 Y187.055
 X111.185 Y187.108
 X111.386 Y187.127
 X111.587 Y187.108
 X111.782 Y187.055
 X111.963 Y186.967
 X112.127 Y186.848
 X112.266 Y186.702
 X112.378 Y186.534
 X112.457 Y186.348
 X112.502 Y186.151
 X112.511 Y185.950
 X112.484 Y185.750
 X112.422 Y185.557
 X112.285 Y185.304
 X111.999 Y185.018
 X112.444 Y184.277
 X112.536 Y184.336
 X112.865 Y184.629
 X113.071 Y184.888
 X113.101 Y184.944
 X113.243 Y185.207
 X113.354 Y185.551
 X113.403 Y185.910
 Y185.947
 X113.387 Y186.271
 X113.306 Y186.624
 X113.164 Y186.957
 X112.965 Y187.259
 X112.714 Y187.521
 X112.421 Y187.734
 X112.095 Y187.891
 X111.746 Y187.987
G00 Z5.000
 X111.386 Y189.113
G00 Z0.500
G01 Z-6.300 F2540
 X111.942 Y189.063
 X112.480 Y188.915
 X112.939 Y188.693
 X112.982 Y188.673
 X113.434 Y188.344
 X113.820 Y187.941
 X114.127 Y187.475
 X114.346 Y186.962
 X114.471 Y186.418
 X114.490 Y185.995
 X114.496 Y185.861
 X114.421 Y185.307
 X114.396 Y185.230
 X114.248 Y184.777
 X114.061 Y184.428
 X113.984 Y184.285
 X113.659 Y183.877
 X113.199 Y183.468
 X113.004 Y183.342
 X113.462 Y182.579
 X113.739 Y182.759
G03 X114.2575 Y183.22 I-2.3923 J3.2076
 X114.2842 Y183.2356 I-2.0065 J3.4618
 X114.729 Y183.7934 I-2.8969 J2.7664
 X114.8436 Y184.0065 I-3.4623 J2.0005
 X115.0693 Y184.4258 I-3.4022 J2.1011
 X115.2413 Y184.9553 I-3.7092 J1.4979
 X115.2912 Y185.1088 I-3.7788 J1.3127
 X115.3876 Y185.8205 I-3.9054 J0.8914
 X115.378 Y186.0353 I-3.9985 J-0.0719
 X115.3554 Y186.5379 I-3.9985 J0.0722
 X115.2755 Y186.888 I-3.9336 J-0.7137
 X115.1956 Y187.2381 I-3.9336 J-0.7137
 X114.9133 Y187.8984 I-3.8098 J-1.2379
 X114.5177 Y188.4978 I-3.5276 J-1.8983
 X114.0689 Y188.9672 I-3.1083 J-2.5226
 X114.0214 Y189.0169 I-2.9171 J-2.7414
 X113.4404 Y189.439 I-2.6356 J-3.0167
 X113.3249 Y189.4946 I-1.7935 J-3.5767
G01 X112.793 Y189.751
 X112.319 Y189.882
 X112.101 Y189.942
 X111.386 Y190.006
 X111.295 Y189.998
 X110.670 Y189.942
 X110.310 Y189.842
 X109.978 Y189.751
 X109.555 Y189.547
G03 X109.4922 Y189.5166 I-1.8131 J3.6841
G01 X109.793 Y188.915
 X109.900 Y188.726
 X109.941 Y188.746
 X110.292 Y188.915
 X110.830 Y189.063
 X111.386 Y189.113
G00 Z5.000
 X114.899 Y183.898
G00 Z0.500
G01 Z-6.300 F2540
G02 X114.8128 Y183.738 I-3.6581 J1.865
 X114.3562 Y183.1655 I-3.4258 J2.2636
G01 X114.438 Y183.042
 X114.466 Y182.975
G02 X114.783 Y183.0620 I1.2498 J-3.9113
 X115.3735 Y183.1151 I0.6624 J-4.0523
G01 X115.224 Y183.465
 X115.024 Y183.767
 X114.899 Y183.898
G00 Z5.000
 X115.494 Y184.853
G00 Z0.500
G01 Z-6.300 F2540
 X115.879 Y184.449
 X116.187 Y183.984
 X116.406 Y183.470
 X116.516 Y182.988
G02 X116.959 Y182.8662 I-0.8693 J-4.0130
 X117.4336 Y182.6376 I-1.5406 J-3.8061
G03 X117.4153 Y183.0461 I-3.9979 J0.0251
 X117.2555 Y183.7463 I-3.9696 J-0.5377
 X116.9732 Y184.4066 I-3.8098 J-1.2379
 X116.5776 Y185.0060 I-3.5276 J-1.8983
 X116.0813 Y185.5251 I-3.1319 J-2.4976
 X115.4814 Y185.9609 I-2.6451 J-3.0099
G02 X115.4879 Y185.816 I-4.0980 J-0.2567
 X115.3891 Y185.0864 I-4.1019 J0.1842
 X115.3476 Y184.9589 I-3.9253 J1.2049
G01 X115.494 Y184.853
G00 Z5.000
 X115.516 Y181.041
G00 Z0.500
G01 Z-6.300 F2540
 X115.156 Y181.009
 X114.807 Y180.912
 X114.539 Y180.783
 X114.999 Y180.018
 X115.120 Y180.076
 X115.315 Y180.130
 X115.516 Y180.148
 X115.717 Y180.130
 X115.912 Y180.076
 X116.094 Y179.989
 X116.257 Y179.870
 X116.397 Y179.724
 X116.508 Y179.555
 X116.587 Y179.370
 X116.632 Y179.173
 X116.641 Y178.971
 X116.614 Y178.771
 X116.552 Y178.579
 X116.456 Y178.401
 X116.332 Y178.245
 X116.177 Y178.110
 X116.613 Y177.334
 X116.702 Y177.388
 X116.977 Y177.628
 X117.201 Y177.909
 X117.242 Y177.986
 X117.373 Y178.228
 X117.485 Y178.572
 X117.533 Y178.931
 X117.531 Y178.988
 X117.517 Y179.293
 X117.437 Y179.646
 X117.294 Y179.979
 X117.095 Y180.281
 X116.845 Y180.542
 X116.552 Y180.755
 X116.226 Y180.912
 X115.877 Y181.009
 X115.516 Y181.041
G00 Z5.000
 X114.960 Y182.085
G00 Z0.500
G01 Z-6.300 F2540
 X115.516 Y182.135
 X116.072 Y182.085
 X116.610 Y181.936
 X117.080 Y181.710
 X117.113 Y181.694
 X117.564 Y181.366
 X117.950 Y180.963
 X118.257 Y180.497
 X118.477 Y179.984
 X118.601 Y179.440
 X118.619 Y179.037
 X118.626 Y178.882
 X118.551 Y178.329
 X118.532 Y178.272
 X118.379 Y177.798
 X118.202 Y177.469
 X118.114 Y177.307
 X117.768 Y176.873
 X117.346 Y176.503
 X117.164 Y176.394
 X117.606 Y175.623
G03 X117.8708 Y175.7809 I-1.9169 J3.5085
 X118.4116 Y176.2534 I-2.3546 J3.2408
 X118.8594 Y176.8149 I-2.8954 J2.7683
 X118.9848 Y177.0480 I-3.4563 J2.0102
 X119.1997 Y177.4473 I-3.4078 J2.0913
 X119.3782 Y177.9968 I-3.7058 J1.5078
 X119.4216 Y178.1303 I-3.7827 J1.3029
 X119.518 Y178.842 I-3.9054 J0.8914
 X119.5075 Y179.0770 I-3.9983 J-0.0618
 X119.4858 Y179.5594 I-3.9983 J0.0621
 X119.326 Y180.2596 I-3.9696 J-0.5377
 X119.0437 Y180.92 I-3.8098 J-1.2379
 X118.6481 Y181.5193 I-3.5276 J-1.8983
 X118.1518 Y182.0384 I-3.1319 J-2.4976
 X117.5708 Y182.4605 I-2.6356 J-3.0167
 X117.4656 Y182.5112 I-1.7886 J-3.5795
 X116.9237 Y182.7722 I-2.0022 J-3.4645
 X116.4609 Y182.8999 I-1.2933 J-3.7838
 X116.2314 Y182.9632 I-1.1781 J-3.8213
 X115.5162 Y183.0276 I-0.7153 J-3.9415
 X115.4361 Y183.0204 I0.3187 J-3.99
 X114.8009 Y182.9632 I0.0401 J-4.0025
 X114.4509 Y182.8666 I0.8875 J-3.8981
 X114.1086 Y182.7722 I0.8914 J-3.8972
 X113.5167 Y182.4871 I1.4352 J-3.7373
G01 X113.976 Y181.721
 X114.422 Y181.936
 X114.960 Y182.085
G00 Z5.000
 X119.040 Y176.940
G00 Z0.500
G01 Z-6.300 F2540
G03 X118.9432 Y176.7596 I-3.6632 J1.8549
 X118.5081 Y176.214 I-3.4162 J2.2781
G01 X118.589 Y176.072
 X118.657 Y175.907
G02 X119.2542 Y175.9606 I0.6659 J-4.0517
 X119.5699 Y175.9321 I-0.21 J-4.1007
G01 X119.517 Y176.164
 X119.375 Y176.497
 X119.175 Y176.799
 X119.040 Y176.940
G00 Z5.000
 X119.645 Y177.884
G00 Z0.500
G01 Z-6.300 F2540
 X120.030 Y177.481
 X120.338 Y177.015
 X120.557 Y176.502
 X120.681 Y175.958
 X120.693 Y175.701
G02 X121.3603 Y175.3793 I-1.4406 J-3.8451
 X121.5794 Y175.2201 I-2.3026 J-3.3997
G01 X121.598 Y175.360
 X121.566 Y176.077
 X121.406 Y176.778
 X121.124 Y177.438
 X120.728 Y178.037
 X120.232 Y178.556
 X119.651 Y178.979
 X119.611 Y178.998
G02 X119.6183 Y178.8375 I-4.0976 J-0.2644
 X119.5195 Y178.108 I-4.1019 J0.1842
 X119.4846 Y178.0004 I-3.9222 J1.215
G01 X119.645 Y177.884
G00 Z5.000
 X119.615 Y173.841
G00 Z0.500
G01 Z-6.300 F2540
 X119.254 Y173.874
 X118.894 Y173.841
 X118.666 Y173.778
 X119.130 Y172.970
 X119.254 Y172.981
 X119.455 Y172.963
 X119.650 Y172.909
 X119.832 Y172.821
 X119.903 Y172.770
 X119.995 Y172.703
 X120.135 Y172.557
 X120.246 Y172.388
 X120.325 Y172.202
 X120.370 Y172.005
 X120.379 Y171.804
 X120.352 Y171.604
 X120.290 Y171.412
 X120.194 Y171.234
 X120.106 Y171.123
 X120.534 Y170.302
 X120.577 Y170.340
 X120.714 Y170.459
 X120.939 Y170.742
 X121.111 Y171.061
 X121.127 Y171.108
 X121.223 Y171.405
 X121.271 Y171.764
 X121.255 Y172.125
 X121.175 Y172.478
 X121.032 Y172.811
 X120.833 Y173.113
 X120.583 Y173.375
 X120.425 Y173.489
 X120.290 Y173.588
 X119.964 Y173.745
 X119.615 Y173.841
G00 Z5.000
 X119.254 Y174.967
G00 Z0.500
G01 Z-6.300 F2540
 X119.810 Y174.917
 X120.348 Y174.769
 X120.851 Y174.527
 X121.066 Y174.371
 X121.302 Y174.199
 X121.688 Y173.795
 X121.995 Y173.329
 X122.215 Y172.816
 X122.339 Y172.272
 X122.364 Y171.715
 X122.360 Y171.684
 X122.289 Y171.162
 X122.162 Y170.772
 X122.117 Y170.631
 X121.852 Y170.139
 X121.504 Y169.703
 X121.294 Y169.519
 X121.052 Y169.308
 X121.468 Y168.509
 X121.607 Y168.612
G03 X121.8792 Y168.8497 I-2.4916 J3.1265
 X122.1496 Y169.0860 I-2.4924 J3.1257
 X122.5469 Y169.5841 I-2.9208 J2.7368
 X122.5974 Y169.6474 I-3.104 J2.5272
 X122.9377 Y170.2799 I-3.3432 J2.2068
 X123.0082 Y170.497 I-3.7664 J1.3438
 X123.1596 Y170.9629 I-3.7203 J1.4664
 X123.2412 Y171.5647 I-3.9133 J0.8365
 X123.256 Y171.6746 I-3.9576 J0.5921
 X123.2238 Y172.392 I-4.0018 J0.1797
 X123.0640 Y173.0922 I-3.9696 J-0.5377
 X122.7818 Y173.7525 I-3.8098 J-1.2379
 X122.3861 Y174.3519 I-3.5276 J-1.8983
 X121.8898 Y174.871 I-3.1319 J-2.4976
 X121.5883 Y175.090 I-2.498 J-3.1213
 X121.3088 Y175.2931 I-2.4874 J-3.1297
 X120.6618 Y175.6047 I-2.0546 J-3.4388
 X120.6313 Y175.6131 I-1.0806 J-3.856
 X119.9695 Y175.7958 I-1.3923 J-3.7547
 X119.6294 Y175.8264 I-0.528 J-3.9628
 X119.2542 Y175.8602 I-0.5456 J-3.9604
 X118.6288 Y175.8039 I0.0450 J-4.0021
 X118.5389 Y175.7958 I0.3138 J-3.99
 X117.8451 Y175.6043 I0.7145 J-3.9417
G01 X117.660 Y175.529
 X118.111 Y174.745
 X118.160 Y174.769
 X118.698 Y174.917
 X119.254 Y174.967
G00 Z5.000
 X122.586 Y169.473
G00 Z0.500
G01 Z-6.300 F2540
G02 X122.2222 Y169.0166 I-3.3841 J2.3255
 X121.9755 Y168.801 I-2.8227 J2.9819
G01 X122.039 Y168.688
G03 X122.3732 Y168.7635 I1.0711 J-3.9639
 X122.9415 Y168.8147 I0.6513 J-4.0541
G01 X122.879 Y169.004
 X122.707 Y169.322
 X122.586 Y169.473
G00 Z5.000
 X123.114 Y170.498
G00 Z0.500
G01 Z-6.300 F2540
 X123.269 Y170.363
 X123.618 Y169.928
 X123.884 Y169.437
 X124.058 Y168.907
 X124.087 Y168.695
G02 X124.548 Y168.5676 I-0.86 J-4.0150
 X125.0237 Y168.3385 I-1.54 J-3.8063
G03 X125.0261 Y168.3966 I-3.9986 J0.1969
 X124.9276 Y169.108 I-4.0013 J-0.1915
 X124.7037 Y169.7903 I-3.9028 J-0.9029
 X124.3615 Y170.4217 I-3.6789 J-1.5853
 X123.9121 Y170.9819 I-3.3367 J-2.2167
 X123.3699 Y171.4528 I-2.8873 J-2.7768
 X123.3301 Y171.4764 I-2.0633 J-3.4314
G02 X123.2575 Y170.9405 I-4.0964 J0.282
 X123.1136 Y170.4975 I-3.9708 J1.0453
G00 Z5.000
 X123.332 Y166.724
G00 Z0.500
G01 Z-6.300 F2540
G02 X122.8 Y166.7139 I-0.2263 J-2.0013
 X122.3382 Y166.5789 I0.3294 J-1.9838
G01 X122.696 Y165.771
G02 X122.93 Y165.8396 I0.4341 J-1.0429
 X123.2243 Y165.8469 I0.1752 J-1.116
 X123.5105 Y165.7781 I-0.119 J-1.1234
 X123.7692 Y165.6376 I-0.4051 J-1.0545
 X123.9828 Y165.4351 I-0.6637 J-0.9141
 X124.1369 Y165.1843 I-0.8773 J-0.7117
 X124.221 Y164.9022 I-1.0313 J-0.461
 X124.2294 Y164.6079 I-1.1154 J-0.179
 X124.1615 Y164.3215 I-1.1238 J0.1151
 X124.0219 Y164.0623 I-1.0559 J0.4015
 X123.8202 Y163.848 I-0.9164 J0.6605
 X123.6096 Y163.7176 I-0.6964 J0.8895
G01 X123.902 Y162.880
G02 X124.3183 Y163.1154 I-0.7734 J1.8562
 X124.6967 Y163.4888 I-1.2131 J1.6077
 X124.9642 Y163.9482 I-1.5915 J1.2343
 X125.1022 Y164.4616 I-1.859 J0.7749
 X125.101 Y164.9933 I-1.997 J0.2615
 X124.9608 Y165.5061 I-1.9958 J-0.2701
 X124.6913 Y165.9643 I-1.8556 J-0.7829
 X124.3113 Y166.3361 I-1.5861 J-1.2412
 X123.8473 Y166.5955 I-1.2061 J-1.6129
 X123.3315 Y166.7244 I-0.7421 J-1.8723
G00 Z5.000
 X123.105 Y167.836
G00 Z0.500
G01 Z-6.300 F2540
 X123.661 Y167.786
 X124.199 Y167.638
 X124.663 Y167.414
 X124.702 Y167.395
 X125.153 Y167.067
 X125.539 Y166.664
 X125.846 Y166.198
 X126.066 Y165.685
 X126.190 Y165.141
 X126.215 Y164.583
 X126.161 Y164.184
 X126.140 Y164.030
 X125.968 Y163.500
 X125.703 Y163.008
 X125.355 Y162.572
 X124.935 Y162.205
 X124.456 Y161.918
 X124.262 Y161.846
 X124.555 Y161.006
G03 X124.8433 Y161.114 I-1.2598 J3.7943
 X125.4598 Y161.4823 I-1.7381 J3.6092
 X126.0006 Y161.9548 I-2.3546 J3.2408
 X126.1657 Y162.1618 I-3.0418 J2.5951
 X126.4484 Y162.5163 I-2.9797 J2.6662
 X126.7222 Y163.0251 I-3.377 J2.1453
 X126.7887 Y163.1487 I-3.4893 J1.9574
 X127.0106 Y163.8317 I-3.6835 J1.5744
 X127.0422 Y164.0649 I-3.9451 J0.6531
 X127.107 Y164.5434 I-3.9229 J0.7751
 X127.0748 Y165.2609 I-4.0018 J0.1797
 X126.915 Y165.961 I-3.9696 J-0.5377
 X126.6327 Y166.6214 I-3.8098 J-1.2379
 X126.2371 Y167.2208 I-3.5276 J-1.8983
 X125.7408 Y167.7399 I-3.1319 J-2.4976
 X125.1598 Y168.162 I-2.6356 J-3.0167
 X125.0488 Y168.2155 I-1.7914 J-3.5779
 X124.5128 Y168.4736 I-1.9993 J-3.466
 X124.0287 Y168.6072 I-1.3038 J-3.7806
 X123.8205 Y168.6646 I-1.1677 J-3.8248
 X123.1052 Y168.729 I-0.7153 J-3.9415
 X123.0131 Y168.7207 I0.3127 J-3.99
 X122.3887 Y168.6645 I0.0455 J-4.0021
 X122.0266 Y168.5827 I0.7007 J-3.945
 X121.6966 Y168.4734 I1.0939 J-3.8546
G01 X121.521 Y168.408
 X121.572 Y168.308
 X121.894 Y167.581
 X122.011 Y167.638
 X122.549 Y167.786
 X123.105 Y167.836
G00 Z5.000
 X124.771 Y160.952
G00 Z0.500
G01 Z-6.300 F2540
 X124.590 Y160.906
 X124.887 Y160.054
 X124.971 Y160.081
 X125.526 Y160.156
 X126.085 Y160.131
 X126.631 Y160.007
 X127.146 Y159.787
 X127.613 Y159.478
 X127.816 Y159.284
 X128.018 Y159.091
 X128.330 Y158.662
 X129.145 Y159.032
G03 X129.1135 Y159.0963 I-3.6309 J-1.7089
 X128.6904 Y159.6788 I-3.4474 J-2.0597
 X128.4307 Y159.927 I-2.8967 J-2.7698
 X128.17 Y160.1763 I-2.8972 J-2.7692
 X127.5487 Y160.5817 I-2.4951 J-3.1455
 X126.9071 Y160.8559 I-1.8928 J-3.5407
 X126.5801 Y160.9306 I-1.0545 J-3.8666
 X126.2052 Y161.0161 I-1.0783 J-3.8601
 X125.5892 Y161.0438 I-0.4874 J-3.9822
 X125.486 Y161.0484 I-0.2316 J-4.0052
 X124.7708 Y160.9516 I0.1793 J-4.0119
G00 Z5.000
 X125.632 Y161.142
G00 Z0.500
G01 Z-6.300 F2540
G02 X126.2187 Y161.1156 I0.1093 J-4.1146
 X126.5383 Y161.0427 I-0.7553 J-4.0462
G01 X126.531 Y161.197
 X126.451 Y161.550
 X126.309 Y161.883
 X126.201 Y162.046
G03 X126.0732 Y161.8854 I-3.2731 J2.4792
 X125.5477 Y161.4263 I-2.9545 J2.8514
G01 X125.602 Y161.272
 X125.632 Y161.142
G00 Z5.000
 X127.623 Y160.657
G00 Z0.500
G01 Z-6.300 F2540
G02 X128.2326 Y160.2548 I-1.9537 J-3.6229
 X128.439 Y160.0575 I-2.7396 J-3.0720
G03 X128.5322 Y160.746 I-3.907 J0.8798
 X128.5 Y161.4634 I-4.0018 J0.1797
 X128.3402 Y162.1636 I-3.9696 J-0.5377
 X128.0579 Y162.824 I-3.8098 J-1.2379
 X127.6623 Y163.4233 I-3.5276 J-1.8983
 X127.166 Y163.9424 I-3.1319 J-2.4976
 X127.1301 Y163.9685 I-2.3714 J-3.2262
G02 X127.1085 Y163.8094 I-4.0789 J0.4715
 X126.881 Y163.1093 I-4.0031 J0.9137
 X126.8274 Y163.0097 I-3.6422 J1.8958
G01 X126.964 Y162.867
 X127.272 Y162.401
 X127.491 Y161.888
 X127.615 Y161.344
 X127.640 Y160.786
 X127.623 Y160.657
G00 Z5.000
 X126.931 Y158.623
G00 Z0.500
G01 Z-6.300 F2540
 X126.628 Y158.824
 X126.293 Y158.967
 X125.939 Y159.048
 X125.575 Y159.064
 X125.249 Y159.016
 X125.455 Y158.146
 X125.497 Y158.156
 X125.615 Y158.172
 X125.819 Y158.163
 X126.017 Y158.117
 X126.205 Y158.037
 X126.375 Y157.925
 X126.449 Y157.854
 X126.522 Y157.784
 X126.615 Y157.656
 X127.354 Y158.094
 X127.384 Y158.111
 X127.194 Y158.372
 X127.063 Y158.497
 X126.931 Y158.623
G00 Z5.000
G00 X0 Y0 (home)
M05
M30
%
