%
(Generated by SketchUcam V1.4d-80c0152)
(File: cnc.skp)
(Bit diameter: 0,1mm)
(Feed rate: 2540,0mm/min)
(Material Thickness: 6,3mm)
(Material length: 210,0mm X width: 210,0mm)
(Overhead Gantry: false)
(Plunge Depth first)
(Optimization is ON)
(www.PhlatBoyz.com)
G90 G21 G49 G17 F2540
M3 S15000
G00 Z5.000
 X157.656 Y83.385
G00 Z0.500
G01 Z-6.300 F2540
 X158.094 Y82.646
 X158.111 Y82.616
 X158.372 Y82.806
 X158.497 Y82.937
 X158.623 Y83.069
 X158.824 Y83.372
 X158.967 Y83.707
 X159.048 Y84.061
 X159.064 Y84.425
 X159.016 Y84.751
 X158.146 Y84.545
 X158.156 Y84.503
 X158.172 Y84.385
 X158.163 Y84.181
 X158.117 Y83.983
 X158.037 Y83.795
 X157.925 Y83.625
 X157.854 Y83.551
 X157.784 Y83.478
 X157.656 Y83.385
G00 Z5.000
 X158.662 Y81.670
G00 Z0.500
G01 Z-6.300 F2540
 X159.032 Y80.855
G03 X159.0963 Y80.8865 I-1.7089 J3.6309
 X159.6788 Y81.3096 I-2.0597 J3.4474
 X159.927 Y81.5693 I-2.7698 J2.8967
 X160.1763 Y81.83 I-2.7692 J2.8972
 X160.5817 Y82.4513 I-3.1455 J2.4951
 X160.8559 Y83.0929 I-3.5407 J1.8928
 X160.9306 Y83.4199 I-3.8666 J1.0545
 X161.0161 Y83.7948 I-3.8601 J1.0783
 X161.0438 Y84.4108 I-3.9822 J0.4874
 X161.0484 Y84.514 I-4.0052 J0.2316
 X160.9516 Y85.2292 I-4.0119 J-0.1793
G01 X160.906 Y85.410
 X160.054 Y85.113
 X160.081 Y85.029
 X160.156 Y84.474
 X160.131 Y83.915
 X160.007 Y83.369
 X159.787 Y82.854
 X159.478 Y82.387
 X159.284 Y82.184
 X159.091 Y81.982
 X158.662 Y81.670
G00 Z5.000
 X160.058 Y81.561
G00 Z0.500
G01 Z-6.300 F2540
G03 X160.746 Y81.4678 I0.8798 J3.907
 X161.4634 Y81.5 I0.1797 J4.0018
 X162.1636 Y81.6598 I-0.5377 J3.9696
 X162.824 Y81.9421 I-1.2379 J3.8098
 X163.4233 Y82.3377 I-1.8983 J3.5276
 X163.9424 Y82.834 I-2.4976 J3.1319
 X163.9685 Y82.8699 I-3.2262 J2.3714
G02 X163.8094 Y82.8915 I0.4715 J4.0789
 X163.1093 Y83.119 I0.9137 J4.0031
 X163.0097 Y83.1726 I1.8958 J3.6422
G01 X162.867 Y83.036
 X162.401 Y82.728
 X161.888 Y82.509
 X161.344 Y82.385
 X160.786 Y82.360
 X160.657 Y82.377
G02 X160.2548 Y81.7674 I-3.6229 J1.9537
 X160.0575 Y81.561 I-3.0720 J2.7396
G00 Z5.000
 X161.043 Y83.462
G00 Z0.500
G01 Z-6.300 F2540
 X161.197 Y83.469
 X161.550 Y83.549
 X161.883 Y83.691
 X162.046 Y83.799
G03 X161.8854 Y83.9268 I2.4792 J3.2731
 X161.4263 Y84.4523 I2.8514 J2.9545
G01 X161.272 Y84.398
 X161.142 Y84.368
G02 X161.1156 Y83.7813 I-4.1146 J-0.1093
 X161.0427 Y83.4617 I-4.0462 J0.7553
G00 Z5.000
 X161.482 Y84.540
G00 Z0.500
G01 Z-6.300 F2540
G03 X161.9548 Y83.9994 I3.2408 J2.3546
 X162.1618 Y83.8343 I2.5951 J3.0418
 X162.5163 Y83.5516 I2.6662 J2.9797
 X163.0251 Y83.2778 I2.1453 J3.377
 X163.1487 Y83.2113 I1.9574 J3.4893
 X163.8317 Y82.9894 I1.5744 J3.6835
 X164.0649 Y82.9578 I0.6531 J3.9451
 X164.5434 Y82.893 I0.7751 J3.9229
 X165.2609 Y82.9252 I0.1797 J4.0018
 X165.961 Y83.0850 I-0.5377 J3.9696
 X166.6214 Y83.3673 I-1.2379 J3.8098
 X167.2208 Y83.7629 I-1.8983 J3.5276
 X167.7399 Y84.2592 I-2.4976 J3.1319
 X168.162 Y84.8402 I-3.0167 J2.6356
 X168.2155 Y84.9512 I-3.5779 J1.7914
 X168.4736 Y85.4872 I-3.466 J1.9993
 X168.6072 Y85.9713 I-3.7806 J1.3038
 X168.6646 Y86.1795 I-3.8248 J1.1677
 X168.729 Y86.8948 I-3.9415 J0.7153
 X168.7207 Y86.9869 I-3.99 J-0.3127
 X168.6646 Y87.6101 I-4.0020 J-0.0461
 X168.5659 Y87.968 I-3.899 J-0.8835
 X168.473 Y88.3046 I-3.8966 J-0.8943
G01 X168.408 Y88.479
 X168.308 Y88.428
 X167.581 Y88.106
 X167.638 Y87.989
 X167.786 Y87.451
 X167.836 Y86.895
 X167.786 Y86.339
 X167.638 Y85.801
 X167.414 Y85.337
 X167.395 Y85.298
 X167.067 Y84.847
 X166.664 Y84.461
 X166.198 Y84.154
 X165.685 Y83.934
 X165.141 Y83.810
 X164.583 Y83.785
 X164.184 Y83.839
 X164.030 Y83.860
 X163.500 Y84.032
 X163.008 Y84.297
 X162.572 Y84.645
 X162.205 Y85.065
 X161.918 Y85.544
 X161.846 Y85.738
 X161.006 Y85.445
G03 X161.114 Y85.1567 I3.7943 J1.2598
 X161.4823 Y84.5402 I3.6092 J1.7381
G00 Z5.000
 X163.115 Y85.682
G00 Z0.500
G01 Z-6.300 F2540
G02 X163.4888 Y85.3033 I1.6077 J1.2131
 X163.9482 Y85.0358 I1.2343 J1.5915
 X164.4616 Y84.8978 I0.7749 J1.859
 X164.9933 Y84.899 I0.2615 J1.997
 X165.5061 Y85.0392 I-0.2701 J1.9958
 X165.9643 Y85.3087 I-0.7829 J1.8556
 X166.3361 Y85.6887 I-1.2412 J1.5861
 X166.5955 Y86.1527 I-1.6129 J1.2061
 X166.7244 Y86.6685 I-1.8723 J0.7421
 X166.7139 Y87.2 I-2.0013 J0.2263
 X166.5789 Y87.6618 I-1.9838 J-0.3294
G01 X165.771 Y87.304
G02 X165.8396 Y87.070 I-1.0429 J-0.4341
 X165.8469 Y86.7757 I-1.116 J-0.1752
 X165.7781 Y86.4895 I-1.1234 J0.119
 X165.6376 Y86.2308 I-1.0545 J0.4051
 X165.4351 Y86.0172 I-0.9141 J0.6637
 X165.1843 Y85.8631 I-0.7117 J0.8773
 X164.9022 Y85.779 I-0.461 J1.0313
 X164.6079 Y85.7706 I-0.179 J1.1154
 X164.3215 Y85.8385 I0.1151 J1.1238
 X164.0623 Y85.9781 I0.4015 J1.0559
 X163.848 Y86.1798 I0.6605 J0.9164
 X163.7176 Y86.3904 I0.8895 J0.6964
G01 X162.880 Y86.098
G02 X163.1154 Y85.6817 I1.8562 J0.7734
G00 Z5.000
 X168.339 Y84.976
G00 Z0.500
G01 Z-6.300 F2540
G03 X168.3966 Y84.9739 I0.1969 J3.9986
 X169.108 Y85.0724 I-0.1915 J4.0013
 X169.7903 Y85.2963 I-0.9029 J3.9028
 X170.4217 Y85.6385 I-1.5853 J3.6789
 X170.9819 Y86.0879 I-2.2167 J3.3367
 X171.4528 Y86.6301 I-2.7768 J2.8873
 X171.4764 Y86.6699 I-3.4314 J2.0633
G02 X170.9405 Y86.7425 I0.282 J4.0964
 X170.4975 Y86.8864 I1.0453 J3.9708
G01 X170.363 Y86.731
 X169.928 Y86.382
 X169.437 Y86.116
 X168.907 Y85.942
 X168.695 Y85.913
G02 X168.5676 Y85.452 I-4.0150 J0.86
 X168.3385 Y84.9763 I-3.8063 J1.54
G00 Z5.000
 X168.815 Y87.059
G00 Z0.500
G01 Z-6.300 F2540
 X169.004 Y87.121
 X169.322 Y87.293
 X169.473 Y87.414
G02 X169.0166 Y87.7778 I2.3255 J3.3841
 X168.8006 Y88.0250 I2.9817 J2.823
G01 X168.673 Y87.956
G02 X168.7634 Y87.628 I-3.9094 J-1.2555
 X168.8147 Y87.0585 I-4.0540 J-0.6519
G00 Z5.000
 X169.086 Y87.850
G00 Z0.500
G01 Z-6.300 F2540
G03 X169.5841 Y87.4531 I2.7368 J2.9208
 X169.6474 Y87.4026 I2.5272 J3.104
 X170.2799 Y87.0623 I2.2068 J3.3432
 X170.497 Y86.9918 I1.3438 J3.7664
 X170.9629 Y86.8404 I1.4664 J3.7203
 X171.5647 Y86.7588 I0.8365 J3.9133
 X171.6746 Y86.744 I0.5921 J3.9576
 X172.392 Y86.7762 I0.1797 J4.0018
 X173.0922 Y86.936 I-0.5377 J3.9696
 X173.7525 Y87.2182 I-1.2379 J3.8098
 X174.3519 Y87.6139 I-1.8983 J3.5276
 X174.871 Y88.1102 I-2.4976 J3.1319
 X175.090 Y88.4117 I-3.1213 J2.498
 X175.2931 Y88.6912 I-3.1297 J2.4874
 X175.6047 Y89.3382 I-3.4388 J2.0546
 X175.6131 Y89.3687 I-3.856 J1.0806
 X175.7958 Y90.0305 I-3.7547 J1.3923
 X175.8264 Y90.3706 I-3.9628 J0.528
 X175.8602 Y90.7458 I-3.9604 J0.5456
 X175.8039 Y91.3712 I-4.0021 J-0.0450
 X175.7958 Y91.4611 I-3.99 J-0.3138
 X175.6043 Y92.1549 I-3.9417 J-0.7145
G01 X175.529 Y92.340
 X174.745 Y91.889
 X174.769 Y91.840
 X174.917 Y91.302
 X174.967 Y90.746
 X174.917 Y90.190
 X174.769 Y89.652
 X174.527 Y89.149
 X174.371 Y88.934
 X174.199 Y88.698
 X173.795 Y88.312
 X173.329 Y88.005
 X172.816 Y87.785
 X172.272 Y87.661
 X171.715 Y87.636
 X171.684 Y87.640
 X171.162 Y87.711
 X170.772 Y87.838
 X170.631 Y87.883
 X170.139 Y88.148
 X169.703 Y88.496
 X169.519 Y88.706
 X169.308 Y88.948
 X168.509 Y88.532
 X168.612 Y88.393
G03 X168.8497 Y88.1208 I3.1265 J2.4916
 X169.0860 Y87.8504 I3.1257 J2.4924
G00 Z5.000
 X170.340 Y89.423
G00 Z0.500
G01 Z-6.300 F2540
 X170.459 Y89.286
 X170.742 Y89.061
 X171.061 Y88.889
 X171.108 Y88.873
 X171.405 Y88.777
 X171.764 Y88.729
 X172.125 Y88.745
 X172.478 Y88.825
 X172.811 Y88.968
 X173.113 Y89.167
 X173.375 Y89.417
 X173.489 Y89.575
 X173.588 Y89.710
 X173.745 Y90.036
 X173.841 Y90.385
 X173.874 Y90.746
 X173.841 Y91.106
 X173.778 Y91.334
 X172.970 Y90.870
 X172.981 Y90.746
 X172.963 Y90.545
 X172.909 Y90.350
 X172.821 Y90.168
 X172.770 Y90.097
 X172.703 Y90.005
 X172.557 Y89.865
 X172.388 Y89.754
 X172.202 Y89.675
 X172.005 Y89.630
 X171.804 Y89.621
 X171.604 Y89.648
 X171.412 Y89.710
 X171.234 Y89.806
 X171.123 Y89.894
 X170.302 Y89.466
 X170.340 Y89.423
G00 Z5.000
 X175.220 Y88.421
G00 Z0.500
G01 Z-6.300 F2540
 X175.360 Y88.402
 X176.077 Y88.434
 X176.778 Y88.594
 X177.438 Y88.876
 X178.037 Y89.272
 X178.556 Y89.768
 X178.979 Y90.349
 X178.998 Y90.389
G02 X178.8375 Y90.3817 I-0.2644 J4.0976
 X178.108 Y90.4805 I0.1842 J4.1019
 X178.0004 Y90.5154 I1.215 J3.9222
G01 X177.884 Y90.355
 X177.481 Y89.970
 X177.015 Y89.662
 X176.502 Y89.443
 X175.958 Y89.319
 X175.701 Y89.307
G02 X175.3793 Y88.6397 I-3.8451 J1.4406
 X175.2201 Y88.4206 I-3.3997 J2.3026
G00 Z5.000
 X175.932 Y90.430
G00 Z0.500
G01 Z-6.300 F2540
 X176.164 Y90.483
 X176.497 Y90.625
 X176.799 Y90.825
 X176.940 Y90.960
G03 X176.7595 Y91.0569 I1.8549 J3.6632
 X176.2079 Y91.5002 I2.287 J3.4102
G01 X176.073 Y91.411
 X175.907 Y91.343
G02 X175.9606 Y90.7458 I-4.0517 J-0.6659
 X175.9321 Y90.4301 I-4.1007 J0.21
G00 Z5.000
 X176.246 Y91.598
G00 Z0.500
G01 Z-6.300 F2540
G03 X176.815 Y91.1406 I2.7833 J2.8798
 X177.0480 Y91.0152 I2.0102 J3.4563
 X177.4473 Y90.8003 I2.0913 J3.4078
 X177.9968 Y90.6218 I1.5078 J3.7058
 X178.1303 Y90.5784 I1.3029 J3.7827
 X178.842 Y90.482 I0.8914 J3.9054
 X179.0770 Y90.4925 I-0.0618 J3.9983
 X179.5594 Y90.5142 I0.0621 J3.9983
 X180.2596 Y90.674 I-0.5377 J3.9696
 X180.92 Y90.9563 I-1.2379 J3.8098
 X181.5193 Y91.3519 I-1.8983 J3.5276
 X182.0384 Y91.8482 I-2.4976 J3.1319
 X182.4605 Y92.4292 I-3.0167 J2.6356
 X182.5112 Y92.5344 I-3.5795 J1.7886
 X182.7722 Y93.0763 I-3.4645 J2.0022
 X182.8999 Y93.5391 I-3.7838 J1.2933
 X182.9632 Y93.7686 I-3.8213 J1.1781
 X183.0276 Y94.4838 I-3.9415 J0.7153
 X183.0204 Y94.5639 I-3.99 J-0.3187
 X182.9632 Y95.1991 I-4.0025 J-0.0401
 X182.8666 Y95.5491 I-3.8981 J-0.8875
 X182.7722 Y95.8914 I-3.8972 J-0.8914
 X182.4871 Y96.4833 I-3.7373 J-1.4352
G01 X181.721 Y96.024
 X181.936 Y95.578
 X182.085 Y95.040
 X182.135 Y94.484
 X182.085 Y93.928
 X181.936 Y93.390
 X181.710 Y92.920
 X181.694 Y92.887
 X181.366 Y92.436
 X180.963 Y92.050
 X180.497 Y91.743
 X179.984 Y91.523
 X179.440 Y91.399
 X179.037 Y91.381
 X178.882 Y91.374
 X178.329 Y91.449
 X178.272 Y91.468
 X177.798 Y91.621
 X177.469 Y91.798
 X177.307 Y91.886
 X176.873 Y92.232
 X176.503 Y92.654
 X176.394 Y92.836
 X175.623 Y92.394
G03 X175.7809 Y92.1293 I3.5085 J1.9169
 X176.2455 Y91.5983 I3.2346 J2.3617
G00 Z5.000
 X177.388 Y93.298
G00 Z0.500
G01 Z-6.300 F2540
 X177.628 Y93.023
 X177.909 Y92.799
 X177.986 Y92.758
 X178.228 Y92.627
 X178.572 Y92.515
 X178.931 Y92.467
 X178.988 Y92.469
 X179.293 Y92.483
 X179.646 Y92.563
 X179.979 Y92.706
 X180.281 Y92.905
 X180.542 Y93.155
 X180.755 Y93.448
 X180.912 Y93.774
 X181.009 Y94.123
 X181.041 Y94.484
 X181.009 Y94.844
 X180.912 Y95.193
 X180.783 Y95.461
 X180.018 Y95.001
 X180.076 Y94.880
 X180.130 Y94.685
 X180.148 Y94.484
 X180.130 Y94.283
 X180.076 Y94.088
 X179.989 Y93.906
 X179.870 Y93.743
 X179.724 Y93.603
 X179.555 Y93.492
 X179.370 Y93.413
 X179.173 Y93.368
 X178.971 Y93.359
 X178.771 Y93.386
 X178.579 Y93.448
 X178.401 Y93.544
 X178.245 Y93.668
 X178.110 Y93.823
 X177.334 Y93.387
 X177.388 Y93.298
G00 Z5.000
 X182.638 Y92.566
G00 Z0.500
G01 Z-6.300 F2540
G03 X183.0461 Y92.5847 I0.0251 J3.9979
 X183.7463 Y92.7445 I-0.5377 J3.9696
 X184.4066 Y93.0268 I-1.2379 J3.8098
 X185.0060 Y93.4224 I-1.8983 J3.5276
 X185.5251 Y93.9187 I-2.4976 J3.1319
 X185.9609 Y94.5186 I-3.0099 J2.6451
G02 X185.816 Y94.5121 I-0.2567 J4.0980
 X185.0864 Y94.6109 I0.1842 J4.1019
 X184.9589 Y94.6524 I1.2049 J3.9253
G01 X184.853 Y94.506
 X184.449 Y94.121
 X183.984 Y93.813
 X183.470 Y93.594
 X182.988 Y93.484
G02 X182.8662 Y93.0410 I-4.0130 J0.8693
 X182.6376 Y92.5664 I-3.8061 J1.5406
G00 Z5.000
 X183.115 Y94.627
G00 Z0.500
G01 Z-6.300 F2540
 X183.465 Y94.776
 X183.767 Y94.976
 X183.898 Y95.101
G02 X183.738 Y95.1872 I1.865 J3.6581
 X183.1655 Y95.6438 I2.2636 J3.4258
G01 X183.042 Y95.562
 X182.975 Y95.534
G02 X183.0620 Y95.217 I-3.9113 J-1.2498
 X183.1151 Y94.6265 I-4.0523 J-0.6624
G00 Z5.000
 X183.793 Y95.271
G00 Z0.500
G01 Z-6.300 F2540
G03 X184.0065 Y95.1564 I2.0005 J3.4623
 X184.4258 Y94.9307 I2.1011 J3.4022
 X184.9553 Y94.7587 I1.4979 J3.7092
 X185.1088 Y94.7088 I1.3127 J3.7788
 X185.8205 Y94.6124 I0.8914 J3.9054
 X186.0353 Y94.622 I-0.0719 J3.9985
 X186.5379 Y94.6446 I0.0722 J3.9985
 X186.888 Y94.7245 I-0.7137 J3.9336
 X187.2381 Y94.8044 I-0.7137 J3.9336
 X187.8984 Y95.0867 I-1.2379 J3.8098
 X188.4978 Y95.4823 I-1.8983 J3.5276
 X188.9672 Y95.9311 I-2.5226 J3.1083
 X189.0169 Y95.9786 I-2.7414 J2.9171
 X189.439 Y96.5596 I-3.0167 J2.6356
 X189.4946 Y96.6751 I-3.5767 J1.7935
G01 X189.751 Y97.207
 X189.882 Y97.681
 X189.942 Y97.899
 X190.006 Y98.614
 X189.998 Y98.705
 X189.942 Y99.330
 X189.842 Y99.690
 X189.751 Y100.022
 X189.547 Y100.445
G03 X189.5166 Y100.5078 I3.6841 J1.8131
G01 X188.915 Y100.207
 X188.726 Y100.100
 X188.746 Y100.059
 X188.915 Y99.708
 X189.063 Y99.170
 X189.113 Y98.614
 X189.063 Y98.058
 X188.915 Y97.520
 X188.693 Y97.061
 X188.673 Y97.018
 X188.344 Y96.566
 X187.941 Y96.180
 X187.475 Y95.873
 X186.962 Y95.654
 X186.418 Y95.529
 X185.995 Y95.510
 X185.861 Y95.504
 X185.307 Y95.579
 X185.230 Y95.604
 X184.777 Y95.752
 X184.428 Y95.939
 X184.285 Y96.016
 X183.877 Y96.341
 X183.468 Y96.801
 X183.342 Y96.996
 X182.579 Y96.538
 X182.759 Y96.261
G03 X183.22 Y95.7425 I3.2076 J2.3923
 X183.2356 Y95.7158 I3.4618 J2.0065
 X183.7934 Y95.271 I2.7664 J2.8969
G00 Z5.000
 X184.629 Y97.135
G00 Z0.500
G01 Z-6.300 F2540
 X184.888 Y96.929
 X184.944 Y96.899
 X185.207 Y96.757
 X185.551 Y96.646
 X185.910 Y96.597
 X185.947
 X186.271 Y96.613
 X186.624 Y96.694
 X186.957 Y96.836
 X187.259 Y97.035
 X187.521 Y97.286
 X187.734 Y97.579
 X187.891 Y97.905
 X187.987 Y98.254
 X188.019 Y98.614
 X187.987 Y98.975
 X187.891 Y99.324
 X187.776 Y99.562
 X187.000 Y99.123
 X187.055 Y99.010
 X187.108 Y98.815
 X187.127 Y98.614
 X187.108 Y98.413
 X187.055 Y98.218
 X186.967 Y98.037
 X186.848 Y97.873
 X186.702 Y97.734
 X186.534 Y97.622
 X186.348 Y97.543
 X186.151 Y97.498
 X185.950 Y97.489
 X185.750 Y97.516
 X185.557 Y97.578
 X185.304 Y97.715
 X185.018 Y98.001
 X184.277 Y97.556
 X184.336 Y97.464
 X184.629 Y97.135
G00 Z5.000
 X189.621 Y96.707
G00 Z0.500
G01 Z-6.300 F2540
G03 X190.0198 Y96.725 I0.0203 J3.9979
 X190.72 Y96.8848 I-0.5377 J3.9696
 X191.0612 Y97.0306 I-1.3989 J3.7451
 X191.3804 Y97.167 I-1.4102 J3.7408
 X191.9797 Y97.5627 I-1.8983 J3.5276
 X192.4988 Y98.0590 I-2.4976 J3.1319
 X192.6622 Y98.2839 I-3.151 J2.4611
G02 X192.1731 Y98.3607 I0.3918 J4.0873
 X191.7001 Y98.5256 I1.1125 J3.9525
G01 X191.423 Y98.261
 X190.957 Y97.953
 X190.444 Y97.734
 X189.970 Y97.626
 X189.845 Y97.171
 X189.621 Y96.707
G00 Z5.000
 X190.093 Y98.768
G00 Z0.500
G01 Z-6.300 F2540
 X190.439 Y98.916
 X190.689 Y99.082
G02 X190.2714 Y99.4369 I2.4447 J3.299
 X190.0372 Y99.7168 I3.0287 J2.7726
G01 X189.950 Y99.675
 X190.040 Y99.347
 X190.093 Y98.768
G00 Z5.000
 X190.343 Y99.508
G00 Z0.500
G01 Z-6.300 F2540
G03 X190.8036 Y99.1157 I2.817 J2.8464
 X190.8932 Y99.0488 I2.4402 J3.1754
 X191.5194 Y98.6945 I2.278 J3.2952
 X191.7041 Y98.6301 I1.4084 J3.7433
 X192.1975 Y98.4581 I1.5604 J3.6825
 X192.7585 Y98.37 I0.9 J3.898
 X192.907 Y98.3466 I0.6953 J3.9397
 X193.625 Y98.3636 I0.2647 J3.9971
 X193.9767 Y98.436 I-0.6299 J3.9479
 X194.3284 Y98.5085 I-0.6299 J3.9479
 X194.9946 Y98.7766 I-1.1566 J3.8353
 X195.6022 Y99.1595 I-1.8229 J3.5671
 X196.1317 Y99.6446 I-2.4305 J3.1843
 X196.2714 Y99.8285 I-3.1133 J2.5096
 X196.5661 Y100.2165 I-3.0312 J2.6082
 X196.8391 Y100.7539 I-3.4209 J2.0760
 X196.8914 Y100.8568 I-3.541 J1.8637
 X197.0971 Y101.5449 I-3.7197 J1.4869
 X197.1189 Y101.7399 I-3.9628 J0.5405
 X197.1767 Y102.2586 I-3.9375 J0.7015
 X197.1437 Y102.74 I-3.9986 J-0.0326
G01 X197.128 Y102.975
G03 X197.0751 Y103.1822 I3.9529 J1.1112
G01 X196.933 Y103.731
 X196.500 Y103.617
 X196.074 Y103.447
 X196.217 Y102.950
 X196.246 Y102.834
 X196.284 Y102.278
 X196.222 Y101.723
 X196.062 Y101.188
 X195.810 Y100.691
 X195.563 Y100.366
 X195.472 Y100.246
 X195.060 Y99.869
 X194.588 Y99.572
 X194.071 Y99.363
 X193.797 Y99.307
 X193.524 Y99.251
 X192.966 Y99.238
 X192.897 Y99.248
 X192.415 Y99.324
 X191.997 Y99.470
 X191.888 Y99.508
 X191.379 Y99.796
 X190.976 Y100.136
 X190.767 Y100.386
 X190.615 Y100.568
 X190.424 Y100.903
 X190.408 Y100.938
 X189.606 Y100.552
G03 X189.6364 Y100.4895 I3.6108 J1.7005
 X189.8816 Y100.0585 I3.5916 J1.7584
 X190.0853 Y99.8152 I3.1654 J2.4421
 X190.3427 Y99.5076 I3.1908 J2.4088
G00 Z5.000
 X191.513 Y101.192
G00 Z0.500
G01 Z-6.300 F2540
 X191.603 Y101.085
 X191.752 Y100.906
 X191.999 Y100.697
 X192.339 Y100.504
 X192.681 Y100.385
 X193.038 Y100.329
 X193.400 Y100.337
 X193.577 Y100.374
 X193.755 Y100.410
 X194.091 Y100.546
 X194.397 Y100.739
 X194.664 Y100.983
 X194.696 Y101.025
 X194.883 Y101.271
 X195.047 Y101.594
 X195.150 Y101.941
 X195.191 Y102.301
 X195.166 Y102.663
 X195.057 Y103.041
 X194.227 Y102.711
 X194.285 Y102.508
 X194.298 Y102.320
 X194.276 Y102.119
 X194.218 Y101.926
 X194.126 Y101.746
 X194.004 Y101.585
 X193.855 Y101.448
 X193.684 Y101.341
 X193.497 Y101.265
 X193.398 Y101.245
 X193.299 Y101.225
 X193.097 Y101.220
 X192.898 Y101.251
 X192.707 Y101.318
 X192.510 Y101.429
 X192.386 Y101.535
 X192.285 Y101.656
 X192.247 Y101.701
 X192.171 Y101.834
 X191.376 Y101.437
 X191.390 Y101.409
 X191.513 Y101.192
G00 Z5.000
 X196.403 Y99.836
G00 Z0.500
G01 Z-6.300 F2540
 X196.773 Y99.786
 X197.491 Y99.818
 X198.191 Y99.978
 X198.851 Y100.260
 X199.451 Y100.656
 X199.483 Y100.687
G02 X199.33 Y100.7363 I1.1923 J3.9292
 X198.6818 Y101.0852 I1.6138 J3.7757
 X198.5934 Y101.1557 I2.5157 J3.2452
G01 X198.428 Y101.047
 X197.915 Y100.827
 X197.371 Y100.703
 X196.915 Y100.683
G02 X196.6512 Y100.1632 I-3.7835 J1.5954
 X196.4029 Y99.8363 I-3.3899 J2.317
G00 Z5.000
 X197.225 Y101.787
G00 Z0.500
G01 Z-6.300 F2540
 X197.577 Y101.867
 X197.757 Y101.944
G03 X197.6218 Y102.0986 I3.0238 J2.7779
 X197.2442 Y102.7362 I3.3296 J2.4028
G02 X197.2771 Y102.2565 I-4.0730 J-0.5205
 X197.2247 Y101.7871 I-4.1002 J0.2194
G00 Z5.000
 X197.703 Y102.158
G00 Z0.500
G01 Z-6.300 F2540
G03 X197.8773 Y101.9582 I3.0965 J2.5296
 X198.1756 Y101.6167 I3.1554 J2.4557
 X198.6273 Y101.2565 I2.7138 J2.9397
 X198.7371 Y101.169 I2.549 J3.0837
 X199.3695 Y100.8287 I2.2068 J3.3432
 X199.5933 Y100.756 I1.347 J3.7651
G02 X200.0525 Y100.6067 I1.4631 J3.7215
 X200.7642 Y100.5103 I0.8914 J3.9054
 X201.4816 Y100.5425 I0.1797 J4.0018
 X202.1818 Y100.7024 I-0.5377 J3.9696
 X202.8422 Y100.9846 I-1.2379 J3.8098
 X203.4415 Y101.3802 I-1.8983 J3.5276
 X203.8942 Y101.8131 I-2.531 J3.1004
 X203.9606 Y101.8765 I-2.7324 J2.9244
 X204.3828 Y102.4576 I-3.0167 J2.6356
 X204.6944 Y103.1046 I-3.4388 J2.0546
 X204.8854 Y103.7969 I-3.7504 J1.4076
 X204.9498 Y104.5122 I-3.9415 J0.7153
 X204.9059 Y105.0 I-3.9973 J-0.1139
 X204.9498 Y105.4878 I-3.9534 J0.6017
 X204.8854 Y106.2031 I-4.0059 J-0.0
 X204.6944 Y106.8954 I-3.9415 J-0.7153
 X204.3828 Y107.5424 I-3.7504 J-1.4076
 X203.9606 Y108.1235 I-3.4388 J-2.0546
 X203.8942 Y108.1869 I-2.7988 J-2.8609
 X203.4415 Y108.6198 I-2.9837 J-2.6676
 X202.8422 Y109.0154 I-2.4976 J-3.1319
 X202.1818 Y109.2976 I-1.8983 J-3.5276
 X201.4816 Y109.4575 I-1.2379 J-3.8098
 X200.7642 Y109.4897 I-0.5377 J-3.9696
 X200.0525 Y109.3933 I0.1797 J-4.0018
 X199.5933 Y109.244 I1.0038 J-3.8707
G03 X199.3695 Y109.1713 I1.1233 J-3.8378
 X198.7371 Y108.831 I1.5744 J-3.6835
 X198.6273 Y108.7435 I2.4392 J-3.1712
 X198.1756 Y108.3833 I2.2621 J-3.2999
 X197.8773 Y108.0418 I2.857 J-2.7972
 X197.7032 Y107.8425 I2.9224 J-2.7289
 X197.3296 Y107.2117 I3.2448 J-2.3479
 X197.2243 Y106.9995 I3.5376 J-1.8877
 X197.172 Y106.793 I3.8532 J-1.0857
G01 X197.030 Y106.244
 X197.875 Y106.021
 X198.016 Y106.510
 X198.141 Y106.841
 X198.425 Y107.318
 X198.547 Y107.457
 X198.793 Y107.738
 X199.182 Y108.048
 X199.229 Y108.086
 X199.720 Y108.350
 X199.868 Y108.398
 X200.251 Y108.523
 X200.804 Y108.598
 X201.362 Y108.573
 X201.906 Y108.448
 X202.419 Y108.229
 X202.885 Y107.922
 X203.288 Y107.536
 X203.616 Y107.084
 X203.858 Y106.582
 X203.977 Y106.152
 X204.007 Y106.044
 X204.057 Y105.488
 X204.021 Y105.086
 Y105.000
 Y104.914
 X204.057 Y104.512
 X204.007 Y103.956
 X203.977 Y103.848
 X203.858 Y103.418
 X203.616 Y102.916
 X203.288 Y102.464
 X202.885 Y102.078
 X202.419 Y101.771
 X201.906 Y101.552
 X201.362 Y101.427
 X200.804 Y101.402
 X200.251 Y101.477
 X199.868 Y101.602
 X199.720 Y101.650
 X199.229 Y101.914
 X199.182 Y101.952
 X198.793 Y102.262
 X198.547 Y102.543
 X198.425 Y102.682
 X198.141 Y103.159
 X198.016 Y103.490
 X197.875 Y103.979
 X197.030 Y103.756
 X197.172 Y103.207
G03 X197.2243 Y103.0005 I3.9055 J0.8791
 X197.3296 Y102.7883 I3.6429 J1.6755
 X197.7032 Y102.1575 I3.6184 J1.7171
G00 Z5.000
 X199.126 Y103.634
G00 Z0.500
G01 Z-6.300 F2540
 X199.310 Y103.325
 X199.367 Y103.260
 X199.548 Y103.053
 X199.831 Y102.827
 X200.150 Y102.655
 X200.205 Y102.638
 X200.495 Y102.543
 X200.853 Y102.495
 X201.215 Y102.511
 X201.568 Y102.592
 X201.901 Y102.734
 X202.203 Y102.933
 X202.465 Y103.184
 X202.677 Y103.476
 X202.834 Y103.803
 X202.931 Y104.152
 X202.963 Y104.512
 X202.936 Y104.818
 X202.932 Y104.855
 X202.047 Y104.771
 X202.050 Y104.738
 X202.070 Y104.512
 X202.052 Y104.311
 X201.999 Y104.116
 X201.911 Y103.934
 X201.792 Y103.771
 X201.646 Y103.631
 X201.478 Y103.520
 X201.292 Y103.441
 X201.095 Y103.396
 X200.893 Y103.387
 X200.693 Y103.414
 X200.501 Y103.476
 X200.323 Y103.572
 X200.165 Y103.698
 X200.033 Y103.850
 X199.930 Y104.022
 X199.895 Y104.113
 X199.789 Y104.483
 X198.929 Y104.257
 X199.051 Y103.833
 X199.126 Y103.634
G00 Z5.000
 X199.789 Y105.517
G00 Z0.500
G01 Z-6.300 F2540
 X199.895 Y105.887
 X199.930 Y105.978
 X200.033 Y106.150
 X200.165 Y106.302
 X200.323 Y106.428
 X200.501 Y106.524
 X200.693 Y106.586
 X200.893 Y106.613
 X201.095 Y106.604
 X201.292 Y106.559
 X201.478 Y106.480
 X201.646 Y106.369
 X201.792 Y106.229
 X201.911 Y106.066
 X201.999 Y105.884
 X202.052 Y105.689
 X202.070 Y105.488
 X202.050 Y105.262
 X202.047 Y105.229
 X202.932 Y105.145
 X202.936 Y105.182
 X202.963 Y105.488
 X202.931 Y105.848
 X202.834 Y106.197
 X202.677 Y106.524
 X202.465 Y106.816
 X202.203 Y107.067
 X201.901 Y107.266
 X201.568 Y107.408
 X201.215 Y107.489
 X200.853 Y107.505
 X200.495 Y107.457
 X200.205 Y107.362
 X200.150 Y107.345
 X199.831 Y107.173
 X199.548 Y106.947
 X199.367 Y106.740
 X199.310 Y106.675
 X199.126 Y106.366
 X199.051 Y106.167
 X198.929 Y105.743
 X199.789 Y105.517
G00 Z5.000
 X197.244 Y107.264
G00 Z0.500
G01 Z-6.300 F2540
G03 X197.6218 Y107.9014 I3.7073 J-1.7652
 X197.7567 Y108.0558 I3.1586 J-2.6235
G01 X197.577 Y108.133
 X197.225 Y108.213
G02 X197.2771 Y107.7435 I-4.0479 J-0.6888
 X197.2442 Y107.2638 I-4.1059 J0.0407
G00 Z5.000
 X196.915 Y109.317
G00 Z0.500
G01 Z-6.300 F2540
 X197.371 Y109.297
 X197.915 Y109.173
 X198.428 Y108.953
 X198.593 Y108.844
G02 X198.6818 Y108.9148 I2.6041 J-3.1747
 X199.33 Y109.2637 I2.262 J-3.4268
 X199.4828 Y109.3133 I1.345 J-3.8796
G01 X199.451 Y109.344
 X198.851 Y109.740
 X198.191 Y110.022
 X197.491 Y110.182
 X196.773 Y110.214
 X196.403 Y110.164
G02 X196.6512 Y109.8368 I-3.1416 J-2.6439
 X196.9151 Y109.3174 I-3.5196 J-2.1148
G00 Z5.000
 X195.047 Y108.406
G00 Z0.500
G01 Z-6.300 F2540
 X194.883 Y108.729
 X194.696 Y108.975
 X194.664 Y109.017
 X194.397 Y109.261
 X194.091 Y109.454
 X193.755 Y109.590
 X193.577 Y109.626
 X193.400 Y109.663
 X193.038 Y109.671
 X192.681 Y109.615
 X192.339 Y109.496
 X191.999 Y109.303
 X191.752 Y109.094
 X191.603 Y108.915
 X191.513 Y108.808
 X191.390 Y108.591
 X191.376 Y108.563
 X192.171 Y108.166
 X192.247 Y108.299
 X192.285 Y108.344
 X192.386 Y108.465
 X192.510 Y108.571
 X192.707 Y108.682
 X192.898 Y108.749
 X193.097 Y108.780
 X193.299 Y108.775
 X193.398 Y108.755
 X193.497 Y108.735
 X193.684 Y108.659
 X193.855 Y108.552
 X194.004 Y108.415
 X194.126 Y108.254
 X194.218 Y108.074
 X194.276 Y107.881
 X194.298 Y107.680
 X194.285 Y107.492
 X194.227 Y107.289
 X195.057 Y106.959
 X195.166 Y107.337
 X195.191 Y107.699
 X195.150 Y108.059
 X195.047 Y108.406
G00 Z5.000
 X195.810 Y109.309
G00 Z0.500
G01 Z-6.300 F2540
 X196.062 Y108.812
 X196.222 Y108.277
 X196.284 Y107.722
 X196.246 Y107.166
 X196.217 Y107.050
 X196.074 Y106.553
 X196.500 Y106.383
 X196.933 Y106.269
 X197.075 Y106.818
G03 X197.1275 Y107.0249 I4.0053 J-0.9041
G01 X197.144 Y107.260
G03 X197.1767 Y107.7414 I-3.9656 J0.5139
 X197.1189 Y108.2601 I-3.9953 J-0.1828
 X197.0971 Y108.4551 I-3.9845 J-0.3454
 X196.8914 Y109.1432 I-3.9254 J-0.7989
 X196.8391 Y109.2461 I-3.5933 J-1.7608
 X196.5661 Y109.7835 I-3.6939 J-1.5386
 X196.2714 Y110.1715 I-3.3259 J-2.2202
 X196.1317 Y110.3554 I-3.253 J-2.3257
 X195.6022 Y110.8405 I-2.96 J-2.6991
 X194.9946 Y111.2234 I-2.4305 J-3.1843
 X194.3284 Y111.4915 I-1.8229 J-3.5671
 X193.9767 Y111.564 I-0.9816 J-3.8754
 X193.625 Y111.6364 I-0.9816 J-3.8754
 X192.907 Y111.6534 I-0.4532 J-3.9802
 X192.7585 Y111.63 I0.5467 J-3.963
 X192.1975 Y111.5419 I0.3391 J-3.9861
 X191.7041 Y111.3699 I1.0669 J-3.8546
 X191.5194 Y111.3055 I1.2237 J-3.8077
 X190.8932 Y110.9512 I1.6517 J-3.6496
 X190.8036 Y110.8843 I2.3506 J-3.2423
 X190.3427 Y110.4924 I2.3561 J-3.2383
 X190.0853 Y110.1848 I2.9334 J-2.7164
 X189.8816 Y109.9415 I2.9617 J-2.6855
 X189.6364 Y109.5105 I3.3465 J-2.1893
 X189.6061 Y109.4475 I3.5806 J-1.7631
G01 X190.402 Y109.050
 X190.424 Y109.097
 X190.615 Y109.432
 X190.767 Y109.614
 X190.976 Y109.864
 X191.379 Y110.204
 X191.888 Y110.492
 X191.997 Y110.530
 X192.415 Y110.676
 X192.897 Y110.752
 X192.966 Y110.762
 X193.524 Y110.749
 X193.797 Y110.693
 X194.071 Y110.637
 X194.588 Y110.428
 X195.060 Y110.131
 X195.472 Y109.754
 X195.563 Y109.634
 X195.810 Y109.309
G00 Z5.000
 X190.689 Y110.918
G00 Z0.500
G01 Z-6.300 F2540
 X190.439 Y111.084
 X190.093 Y111.232
 X190.040 Y110.653
 X189.950 Y110.325
 X190.016 Y110.297
G02 X190.2714 Y110.5631 I3.0847 J-2.7101
 X190.6893 Y110.9184 I2.8626 J-2.9437
G00 Z5.000
 X190.957 Y112.047
G00 Z0.500
G01 Z-6.300 F2540
 X191.423 Y111.739
 X191.700 Y111.474
G02 X192.1731 Y111.6393 I1.5856 J-3.7876
 X192.6622 Y111.7161 I0.8809 J-4.0105
G03 X192.4988 Y111.941 I-3.3144 J-2.2362
 X191.9797 Y112.4373 I-3.0167 J-2.6356
 X191.3804 Y112.833 I-2.4976 J-3.1319
 X191.0612 Y112.9694 I-1.7293 J-3.6044
 X190.72 Y113.1152 I-1.7402 J-3.5992
 X190.0198 Y113.275 I-1.2379 J-3.8098
 X189.621 Y113.2929 I-0.3786 J-3.98
G01 X189.845 Y112.829
 X189.970 Y112.374
 X190.444 Y112.266
 X190.957 Y112.047
G00 Z5.000
 X188.019 Y111.386
G00 Z0.500
G01 Z-6.300 F2540
 X187.987 Y111.746
 X187.891 Y112.095
 X187.734 Y112.421
 X187.521 Y112.714
 X187.259 Y112.965
 X186.957 Y113.164
 X186.624 Y113.306
 X186.271 Y113.387
 X185.947 Y113.401
 X185.910
 X185.551 Y113.354
 X185.207 Y113.243
 X184.944 Y113.101
 X184.888 Y113.071
 X184.629 Y112.865
 X184.336 Y112.536
 X184.277 Y112.444
 X185.018 Y111.999
 X185.304 Y112.285
 X185.557 Y112.422
 X185.750 Y112.484
 X185.950 Y112.511
 X186.151 Y112.502
 X186.348 Y112.457
 X186.534 Y112.378
 X186.702 Y112.266
 X186.848 Y112.127
 X186.967 Y111.963
 X187.055 Y111.782
 X187.108 Y111.587
 X187.127 Y111.386
 X187.108 Y111.185
 X187.055 Y110.990
 X187.000 Y110.877
 X187.776 Y110.438
 X187.891 Y110.676
 X187.987 Y111.025
 X188.019 Y111.386
G00 Z5.000
 X189.063 Y111.942
G00 Z0.500
G01 Z-6.300 F2540
 X189.113 Y111.386
 X189.063 Y110.830
 X188.915 Y110.292
 X188.746 Y109.941
 X188.726 Y109.900
 X188.915 Y109.793
 X189.517 Y109.492
G03 X189.547 Y109.5555 I3.7145 J-1.7499
G01 X189.751 Y109.978
 X189.842 Y110.310
 X189.942 Y110.670
 X189.998 Y111.295
 X190.006 Y111.386
 X189.942 Y112.101
 X189.882 Y112.319
 X189.751 Y112.793
 X189.495 Y113.325
G03 X189.439 Y113.4404 I-3.6322 J-1.6781
 X189.0169 Y114.0214 I-3.4388 J-2.0546
 X188.9672 Y114.0689 I-2.7911 J-2.8696
 X188.4978 Y114.5177 I-2.992 J-2.6595
 X187.8984 Y114.9133 I-2.4976 J-3.1319
 X187.2381 Y115.1956 I-1.8983 J-3.5276
 X186.888 Y115.2755 I-1.0637 J-3.8537
 X186.5379 Y115.3554 I-1.0637 J-3.8537
 X186.0353 Y115.378 I-0.4303 J-3.9759
 X185.8205 Y115.3876 I-0.2868 J-3.9888
 X185.1088 Y115.2912 I0.1797 J-4.0018
 X184.9553 Y115.2413 I1.1591 J-3.8286
 X184.4258 Y115.0693 I0.9684 J-3.8813
 X184.0065 Y114.8436 I1.6818 J-3.6278
 X183.7934 Y114.729 I1.7874 J-3.5769
 X183.2356 Y114.2842 I2.2087 J-3.3417
 X183.22 Y114.2575 I3.4462 J-2.0332
 X182.7586 Y113.7395 I2.7462 J-2.9104
G01 X182.579 Y113.462
 X183.342 Y113.004
 X183.468 Y113.199
 X183.877 Y113.659
 X184.285 Y113.984
 X184.428 Y114.061
 X184.777 Y114.248
 X185.230 Y114.396
 X185.307 Y114.421
 X185.861 Y114.496
 X185.995 Y114.490
 X186.418 Y114.471
 X186.962 Y114.346
 X187.475 Y114.127
 X187.941 Y113.820
 X188.344 Y113.434
 X188.673 Y112.982
 X188.693 Y112.939
 X188.915 Y112.480
 X189.063 Y111.942
G00 Z5.000
 X183.898 Y114.899
G00 Z0.500
G01 Z-6.300 F2540
 X183.767 Y115.024
 X183.465 Y115.224
 X183.115 Y115.373
G02 X183.0620 Y114.783 I-4.1055 J0.0718
 X182.9746 Y114.4664 I-3.9986 J0.9332
G01 X183.042 Y114.438
 X183.166 Y114.356
G02 X183.738 Y114.8128 I2.8362 J-2.9692
 X183.8985 Y114.8991 I2.0255 J-3.5717
G00 Z5.000
 X184.449 Y115.879
G00 Z0.500
G01 Z-6.300 F2540
 X184.853 Y115.494
 X184.959 Y115.348
G02 X185.0864 Y115.3891 I1.3325 J-3.8839
 X185.816 Y115.4879 I0.9137 J-4.0031
 X185.9609 Y115.4814 I-0.1117 J-4.1046
G03 X185.5251 Y116.0813 I-3.4457 J-2.0452
 X185.0060 Y116.5776 I-3.0167 J-2.6356
 X184.4066 Y116.9732 I-2.4976 J-3.1319
 X183.7463 Y117.2555 I-1.8983 J-3.5276
 X183.0461 Y117.4153 I-1.2379 J-3.8098
 X182.6376 Y117.4336 I-0.3834 J-3.9795
G02 X182.8662 Y116.959 I-3.5776 J-2.0152
 X182.9883 Y116.5163 I-3.8908 J-1.312
G01 X183.470 Y116.406
 X183.984 Y116.187
 X184.449 Y115.879
G00 Z5.000
 X181.041 Y115.516
G00 Z0.500
G01 Z-6.300 F2540
 X181.009 Y115.877
 X180.912 Y116.226
 X180.755 Y116.552
 X180.542 Y116.845
 X180.281 Y117.095
 X179.979 Y117.294
 X179.646 Y117.437
 X179.293 Y117.517
 X178.988 Y117.531
 X178.931 Y117.533
 X178.572 Y117.485
 X178.228 Y117.373
 X177.986 Y117.242
 X177.909 Y117.201
 X177.628 Y116.977
 X177.388 Y116.702
 X177.334 Y116.613
 X178.096 Y116.155
 X178.245 Y116.332
 X178.401 Y116.456
 X178.579 Y116.552
 X178.771 Y116.614
 X178.971 Y116.641
 X179.173 Y116.632
 X179.370 Y116.587
 X179.555 Y116.508
 X179.724 Y116.397
 X179.870 Y116.257
 X179.989 Y116.094
 X180.076 Y115.912
 X180.130 Y115.717
 X180.148 Y115.516
 X180.130 Y115.315
 X180.076 Y115.120
 X180.018 Y114.999
 X180.783 Y114.539
 X180.912 Y114.807
 X181.009 Y115.156
 X181.041 Y115.516
G00 Z5.000
 X182.085 Y116.072
G00 Z0.500
G01 Z-6.300 F2540
 X182.135 Y115.516
 X182.085 Y114.960
 X181.936 Y114.422
 X181.721 Y113.976
 X182.487 Y113.517
G03 X182.7722 Y114.1086 I-3.4522 J2.0271
 X182.8666 Y114.4509 I-3.8027 J1.2337
 X182.9632 Y114.8009 I-3.8015 J1.2374
 X183.0204 Y115.4361 I-3.9453 J0.6753
 X183.0276 Y115.5162 I-3.9828 J0.3988
 X182.9632 Y116.2314 I-4.0059 J0.0
 X182.8999 Y116.4609 I-3.8846 J-0.9486
 X182.7722 Y116.9237 I-3.9115 J-0.8305
 X182.5112 Y117.4656 I-3.7255 J-1.4603
 X182.4605 Y117.5708 I-3.6302 J-1.6834
 X182.0384 Y118.1518 I-3.4388 J-2.0546
 X181.5193 Y118.6481 I-3.0167 J-2.6356
 X180.92 Y119.0437 I-2.4976 J-3.1319
 X180.2596 Y119.326 I-1.8983 J-3.5276
 X179.5594 Y119.4858 I-1.2379 J-3.8098
 X179.0770 Y119.5075 I-0.4203 J-3.9766
 X178.842 Y119.518 I-0.2968 J-3.9877
 X178.1303 Y119.4216 I0.1797 J-4.0018
 X177.9968 Y119.3782 I1.1694 J-3.8261
 X177.4473 Y119.1997 I0.9584 J-3.8843
 X177.0480 Y118.9848 I1.692 J-3.6227
 X176.8149 Y118.8594 I1.7771 J-3.5817
 X176.2534 Y118.4116 I2.2068 J-3.3432
 X175.7801 Y117.8699 I2.7679 J-2.8959
 X175.6108 Y117.6134 I3.2554 J-2.333
G01 X176.394 Y117.164
 X176.503 Y117.346
 X176.873 Y117.768
 X177.307 Y118.114
 X177.469 Y118.202
 X177.798 Y118.379
 X178.272 Y118.532
 X178.329 Y118.551
 X178.882 Y118.626
 X179.037 Y118.619
 X179.440 Y118.601
 X179.984 Y118.477
 X180.497 Y118.257
 X180.963 Y117.950
 X181.366 Y117.564
 X181.694 Y117.113
 X181.710 Y117.080
 X181.936 Y116.610
 X182.085 Y116.072
G00 Z5.000
 X176.940 Y119.040
G00 Z0.500
G01 Z-6.300 F2540
 X176.799 Y119.175
 X176.497 Y119.375
 X176.164 Y119.517
 X175.932 Y119.570
G02 X175.9606 Y119.2542 I-4.0723 J-0.5256
 X175.9068 Y118.6567 I-4.1055 J0.0683
G01 X176.072 Y118.589
 X176.214 Y118.508
G03 X176.7596 Y118.9432 I2.8236 J-2.9811
 X176.94 Y119.0403 I2.0354 J-3.5661
G00 Z5.000
 X177.481 Y120.030
G00 Z0.500
G01 Z-6.300 F2540
 X177.884 Y119.645
 X178.000 Y119.485
G02 X178.108 Y119.5195 I1.3225 J-3.8873
 X178.8375 Y119.6183 I0.9137 J-4.0031
 X178.9979 Y119.6111 I-0.104 J-4.1048
G01 X178.979 Y119.651
 X178.556 Y120.232
 X178.037 Y120.728
 X177.438 Y121.124
 X176.778 Y121.406
 X176.077 Y121.566
 X175.360 Y121.598
 X175.220 Y121.579
G02 X175.3793 Y121.3603 I-3.2405 J-2.5217
 X175.7007 Y120.6929 I-3.5237 J-2.108
G01 X175.958 Y120.681
 X176.502 Y120.557
 X177.015 Y120.338
 X177.481 Y120.030
G00 Z5.000
 X173.874 Y119.254
G00 Z0.500
G01 Z-6.300 F2540
 X173.841 Y119.615
 X173.745 Y119.964
 X173.588 Y120.290
 X173.489 Y120.425
 X173.375 Y120.583
 X173.113 Y120.833
 X172.811 Y121.032
 X172.478 Y121.175
 X172.125 Y121.255
 X171.764 Y121.271
 X171.405 Y121.223
 X171.108 Y121.127
 X171.061 Y121.111
 X170.742 Y120.939
 X170.459 Y120.714
 X170.340 Y120.577
 X170.302 Y120.534
 X171.123 Y120.106
 X171.234 Y120.194
 X171.412 Y120.290
 X171.604 Y120.352
 X171.804 Y120.379
 X172.005 Y120.370
 X172.202 Y120.325
 X172.388 Y120.246
 X172.557 Y120.135
 X172.703 Y119.995
 X172.770 Y119.903
 X172.821 Y119.832
 X172.909 Y119.650
 X172.963 Y119.455
 X172.981 Y119.254
 X172.970 Y119.130
 X173.778 Y118.666
 X173.841 Y118.894
 X173.874 Y119.254
G00 Z5.000
 X174.917 Y119.810
G00 Z0.500
G01 Z-6.300 F2540
 X174.967 Y119.254
 X174.917 Y118.698
 X174.769 Y118.160
 X174.745 Y118.111
 X175.518 Y117.667
 X175.605 Y117.847
G03 X175.7958 Y118.5389 I-3.7504 J1.4076
 X175.8039 Y118.6288 I-3.9819 J0.4037
 X175.8602 Y119.2542 I-3.9458 J0.6703
 X175.8264 Y119.6294 I-3.9942 J-0.1703
 X175.7958 Y119.9695 I-3.9934 J-0.188
 X175.6131 Y120.6313 I-3.9373 J-0.7305
 X175.6047 Y120.6618 I-3.8644 J-1.0501
 X175.2931 Y121.3088 I-3.7504 J-1.4076
 X175.090 Y121.5883 I-3.3328 J-2.2079
 X174.871 Y121.8898 I-3.3403 J-2.1966
 X174.3519 Y122.3861 I-3.0167 J-2.6356
 X173.7525 Y122.7818 I-2.4976 J-3.1319
 X173.0922 Y123.0640 I-1.8983 J-3.5276
 X172.392 Y123.2238 I-1.2379 J-3.8098
 X171.6746 Y123.256 I-0.5377 J-3.9696
 X171.5647 Y123.2412 I0.4822 J-3.9725
 X170.9629 Y123.1596 I0.2347 J-3.9948
 X170.497 Y123.0082 I1.0004 J-3.8717
 X170.2799 Y122.9377 I1.1267 J-3.8369
 X169.6474 Y122.5974 I1.5744 J-3.6835
 X169.5841 Y122.5469 I2.4638 J-3.1545
 X169.0860 Y122.1496 I2.2386 J-3.3181
 X168.8497 Y121.8792 I2.8895 J-2.7629
 X168.6104 Y121.6052 I2.888 J-2.7647
G01 X168.495 Y121.475
 X169.308 Y121.052
 X169.519 Y121.294
 X169.703 Y121.504
 X170.139 Y121.852
 X170.631 Y122.117
 X170.772 Y122.162
 X171.162 Y122.289
 X171.684 Y122.360
 X171.715 Y122.364
 X172.272 Y122.339
 X172.816 Y122.215
 X173.329 Y121.995
 X173.795 Y121.688
 X174.199 Y121.302
 X174.371 Y121.066
 X174.527 Y120.851
 X174.769 Y120.348
 X174.917 Y119.810
G00 Z5.000
 X169.473 Y122.586
G00 Z0.500
G01 Z-6.300 F2540
 X169.322 Y122.707
 X169.004 Y122.879
 X168.815 Y122.941
G03 X168.7635 Y122.3732 I-4.1052 J0.0830
 X168.688 Y122.0386 I-4.0395 J0.7366
G01 X168.801 Y121.975
G02 X169.0166 Y122.2222 I3.1975 J-2.576
 X169.4729 Y122.5861 I2.7818 J-3.0202
G00 Z5.000
 X169.928 Y123.618
G00 Z0.500
G01 Z-6.300 F2540
 X170.363 Y123.269
 X170.498 Y123.114
G02 X170.9405 Y123.2575 I1.4883 J-3.8269
 X171.4764 Y123.3301 I0.8179 J-4.0238
G03 X171.4528 Y123.3699 I-3.4549 J-2.0236
 X170.9819 Y123.9121 I-3.2477 J-2.345
 X170.4217 Y124.3615 I-2.7768 J-2.8873
 X169.7903 Y124.7037 I-2.2167 J-3.3367
 X169.108 Y124.9276 I-1.5853 J-3.6789
 X168.3966 Y125.0261 I-0.9029 J-3.9028
 X168.3385 Y125.0237 I0.1388 J-4.0011
G02 X168.5676 Y124.548 I-3.5773 J-2.0157
 X168.6948 Y124.0871 I-3.8878 J-1.321
G01 X168.907 Y124.058
 X169.437 Y123.884
 X169.928 Y123.618
G00 Z5.000
 X166.724 Y123.332
G00 Z0.500
G01 Z-6.300 F2540
G02 X166.5955 Y123.8473 I-2.0013 J-0.2263
 X166.3361 Y124.3113 I-1.8723 J-0.7421
 X165.9643 Y124.6913 I-1.6129 J-1.2061
 X165.5061 Y124.9608 I-1.2412 J-1.5861
 X164.9933 Y125.101 I-0.7829 J-1.8556
 X164.4616 Y125.1022 I-0.2701 J-1.9958
 X163.9482 Y124.9642 I0.2615 J-1.997
 X163.4888 Y124.6967 I0.7749 J-1.859
 X163.1154 Y124.3183 I1.2343 J-1.5915
 X162.8802 Y123.9016 I1.6209 J-1.19
G01 X163.718 Y123.610
G02 X163.848 Y123.8202 I1.0199 J-0.4858
 X164.0623 Y124.0219 I0.8749 J-0.7147
 X164.3215 Y124.1615 I0.6606 J-0.9164
 X164.6079 Y124.2294 I0.4016 J-1.0559
 X164.9022 Y124.221 I0.1152 J-1.1238
 X165.1843 Y124.1369 I-0.1789 J-1.1154
 X165.4351 Y123.9828 I-0.4609 J-1.0314
 X165.6376 Y123.7692 I-0.7116 J-0.8774
 X165.7781 Y123.5105 I-0.9141 J-0.6638
 X165.8469 Y123.2243 I-1.0545 J-0.4052
 X165.8396 Y122.93 I-1.1234 J-0.1191
 X165.7707 Y122.696 I-1.1118 J0.2001
G01 X166.579 Y122.338
G02 X166.7139 Y122.8 I-1.8488 J0.7913
 X166.7244 Y123.3315 I-1.9908 J0.3052
G00 Z5.000
 X167.786 Y123.661
G00 Z0.500
G01 Z-6.300 F2540
 X167.836 Y123.105
 X167.786 Y122.549
 X167.638 Y122.011
 X167.581 Y121.894
 X168.308 Y121.572
 X168.392 Y121.529
 X168.474 Y121.699
G03 X168.5827 Y122.0266 I-3.7456 J1.4228
 X168.6645 Y122.3887 I-3.8632 J1.0629
 X168.7207 Y123.0131 I-3.9459 J0.6698
 X168.729 Y123.1052 I-3.9817 J0.4048
 X168.6646 Y123.8205 I-4.0059 J0.0
 X168.6072 Y124.0287 I-3.8823 J-0.9594
 X168.4736 Y124.5128 I-3.9142 J-0.8198
 X168.2155 Y125.0488 I-3.7241 J-1.4633
 X168.162 Y125.1598 I-3.6314 J-1.6804
 X167.7399 Y125.7408 I-3.4388 J-2.0546
 X167.2208 Y126.2371 I-3.0167 J-2.6356
 X166.6214 Y126.6327 I-2.4976 J-3.1319
 X165.961 Y126.915 I-1.8983 J-3.5276
 X165.2609 Y127.0748 I-1.2379 J-3.8098
 X164.5434 Y127.107 I-0.5377 J-3.9696
 X164.0649 Y127.0422 I0.2965 J-3.9878
 X163.8317 Y127.0106 I0.42 J-3.9767
 X163.1487 Y126.7887 I0.8914 J-3.9054
 X163.0251 Y126.7222 I1.8337 J-3.5558
 X162.5163 Y126.4484 I1.6365 J-3.6508
 X162.1618 Y126.1657 I2.3117 J-3.2624
 X161.9549 Y126.0007 I2.3881 J-3.2068
 X161.4763 Y125.4487 I2.7742 J-2.8886
 X161.1111 Y124.8385 I3.2405 J-2.354
 X161.0462 Y124.7395 I3.3249 J-2.2508
 X160.9884 Y124.5615 I3.7897 J-1.3298
G01 X161.846 Y124.262
 X161.918 Y124.456
 X162.205 Y124.935
 X162.572 Y125.355
 X163.008 Y125.703
 X163.500 Y125.968
 X164.030 Y126.140
 X164.184 Y126.161
 X164.583 Y126.215
 X165.141 Y126.190
 X165.685 Y126.066
 X166.198 Y125.846
 X166.664 Y125.539
 X167.067 Y125.153
 X167.395 Y124.702
 X167.414 Y124.663
 X167.638 Y124.199
 X167.786 Y123.661
G00 Z5.000
 X160.894 Y124.594
G00 Z0.500
G01 Z-6.300 F2540
G03 X160.9518 Y124.7725 I3.933 J-1.1795
 X161.0484 Y125.486 I-3.9152 J0.8936
 X161.0438 Y125.5892 I-4.0098 J-0.1283
 X161.0161 Y126.2052 I-4.0098 J0.1285
 X160.9306 Y126.5801 I-3.9456 J-0.7033
 X160.8559 Y126.9071 I-3.9412 J-0.7276
 X160.573 Y127.5691 I-3.8193 J-1.241
 X160.1763 Y128.17 I-3.5364 J-1.903
 X159.927 Y128.4307 I-3.0185 J-2.6364
 X159.6788 Y128.6904 I-3.0180 J-2.637
 X159.0963 Y129.1135 I-2.6422 J-3.0242
 X159.0320 Y129.1445 I-1.7733 J-3.5999
G01 X158.661 Y128.327
 X159.091 Y128.018
 X159.284 Y127.816
 X159.478 Y127.613
 X159.787 Y127.146
 X160.007 Y126.631
 X160.131 Y126.085
 X160.156 Y125.526
 X160.081 Y124.971
 X160.054 Y124.887
 X160.894 Y124.594
G00 Z5.000
 X161.142 Y125.632
G00 Z0.500
G01 Z-6.300 F2540
 X161.274 Y125.602
 X161.422 Y125.538
G03 X161.8854 Y126.0731 I3.3227 J-2.4124
 X162.0456 Y126.2009 I2.6394 J-3.1454
G01 X161.883 Y126.309
 X161.550 Y126.451
 X161.197 Y126.531
 X161.043 Y126.538
G02 X161.1156 Y126.2187 I-3.9732 J-1.0750
 X161.142 Y125.6318 I-4.0883 J-0.4776
G00 Z5.000
 X160.657 Y127.623
G00 Z0.500
G01 Z-6.300 F2540
 X160.786 Y127.640
 X161.344 Y127.615
 X161.888 Y127.491
 X162.401 Y127.272
 X162.867 Y126.964
 X163.010 Y126.827
G02 X163.1093 Y126.881 I1.9953 J-3.5887
 X163.8094 Y127.1085 I1.6138 J-3.7756
 X163.9685 Y127.1301 I0.6306 J-4.0574
G03 X163.9424 Y127.166 I-3.2523 J-2.3355
 X163.4233 Y127.6623 I-3.0167 J-2.6356
 X162.824 Y128.0579 I-2.4976 J-3.1319
 X162.1636 Y128.3402 I-1.8983 J-3.5276
 X161.4634 Y128.5 I-1.2379 J-3.8098
 X160.746 Y128.5322 I-0.5377 J-3.9696
 X160.0575 Y128.439 I0.1913 J-4.0003
G02 X160.2548 Y128.2326 I-2.8746 J-2.9459
 X160.6573 Y127.6228 I-3.2204 J-2.5635
G00 Z5.000
 X158.967 Y126.293
G00 Z0.500
G01 Z-6.300 F2540
 X158.824 Y126.628
 X158.623 Y126.931
 X158.497 Y127.063
 X158.372 Y127.194
 X158.111 Y127.384
 X158.094 Y127.354
 X157.656 Y126.615
 X157.784 Y126.522
 X157.854 Y126.449
 X157.925 Y126.375
 X158.037 Y126.205
 X158.117 Y126.017
 X158.163 Y125.819
 X158.172 Y125.615
 X158.156 Y125.497
 X158.146 Y125.455
 X159.016 Y125.249
 X159.064 Y125.575
 X159.048 Y125.939
 X158.967 Y126.293
G00 Z5.000
G00 X0 Y0 (home)
M05
M30
%
