%
(Generated by SketchUcam V1.4d-80c0152)
(File: cnc.skp)
(Bit diameter: 0,1mm)
(Feed rate: 2540,0mm/min)
(Material Thickness: 6,3mm)
(Material length: 210,0mm X width: 210,0mm)
(Overhead Gantry: false)
(Plunge Depth first)
(Optimization is ON)
(www.PhlatBoyz.com)
G90 G21 G49 G17 F2540
M3 S15000
G00 Z5.000
 X83.367 Y43.379
G00 Z0.500
G01 Z-6.300 F2540
G03 X83.7629 Y42.7792 I3.5276 J1.8983
 X84.2592 Y42.2601 I3.1319 J2.4976
 X84.8402 Y41.838 I2.6356 J3.0167
 X84.9512 Y41.7845 I1.7914 J3.5779
 X85.4872 Y41.5264 I1.9993 J3.466
 X85.9713 Y41.3928 I1.3038 J3.7806
 X86.1795 Y41.3354 I1.1677 J3.8248
 X86.8948 Y41.271 I0.7153 J3.9415
 X86.9869 Y41.2793 I-0.3127 J3.99
 X87.6101 Y41.3354 I-0.0461 J4.0020
 X87.968 Y41.4341 I-0.8835 J3.899
 X88.3024 Y41.5264 I-0.8954 J3.8963
G01 X88.471 Y41.608
 X88.428 Y41.691
 X88.087 Y42.410
 X87.989 Y42.362
 X87.451 Y42.214
 X86.895 Y42.164
 X86.339 Y42.214
 X85.801 Y42.362
 X85.337 Y42.586
 X85.298 Y42.605
 X84.847 Y42.933
 X84.461 Y43.336
 X84.154 Y43.802
 X83.934 Y44.315
 X83.810 Y44.859
 X83.785 Y45.417
 X83.839 Y45.816
 X83.860 Y45.970
 X84.032 Y46.500
 X84.297 Y46.992
 X84.645 Y47.428
 X85.065 Y47.795
 X85.544 Y48.082
 X85.738 Y48.154
 X85.445 Y48.994
G03 X85.1567 Y48.886 I1.2598 J-3.7943
 X84.5513 Y48.5237 I1.7462 J-3.6043
 X83.9993 Y48.0451 I2.3366 J-3.2528
 X83.8343 Y47.8382 I3.0418 J-2.595
 X83.5516 Y47.4837 I2.9797 J-2.6662
 X83.2778 Y46.9749 I3.377 J-2.1453
 X83.2113 Y46.8513 I3.4893 J-1.9574
 X82.9894 Y46.1683 I3.6835 J-1.5744
 X82.9578 Y45.9351 I3.9451 J-0.6531
 X82.893 Y45.4566 I3.9229 J-0.7751
 X82.9252 Y44.7391 I4.0018 J-0.1797
 X83.0850 Y44.0390 I3.9696 J0.5377
 X83.3673 Y43.3786 I3.8098 J1.2379
G00 Z5.000
 X85.039 Y44.494
G00 Z0.500
G01 Z-6.300 F2540
G02 X85.3087 Y44.0357 I1.8556 J0.7829
 X85.6887 Y43.6639 I1.5861 J1.2412
 X86.1527 Y43.4045 I1.2061 J1.6129
 X86.6685 Y43.2756 I0.7421 J1.8723
 X87.2 Y43.2861 I0.2263 J2.0013
 X87.6618 Y43.4211 I-0.3294 J1.9838
G01 X87.304 Y44.229
G02 X87.070 Y44.1604 I-0.4341 J1.0429
 X86.7757 Y44.1531 I-0.1752 J1.116
 X86.4895 Y44.2219 I0.119 J1.1234
 X86.2308 Y44.3624 I0.4051 J1.0545
 X86.0172 Y44.5649 I0.6637 J0.9141
 X85.8631 Y44.8157 I0.8773 J0.7117
 X85.779 Y45.0978 I1.0313 J0.461
 X85.7706 Y45.3921 I1.1154 J0.179
 X85.8385 Y45.6785 I1.1238 J-0.1151
 X85.9781 Y45.9377 I1.0559 J-0.4015
 X86.1798 Y46.152 I0.9164 J-0.6605
 X86.3904 Y46.2824 I0.6964 J-0.8895
G01 X86.098 Y47.120
G02 X85.6817 Y46.8846 I0.7734 J-1.8562
 X85.3033 Y46.5112 I1.2131 J-1.6077
 X85.0358 Y46.0518 I1.5915 J-1.2343
 X84.8978 Y45.5384 I1.859 J-0.7749
 X84.899 Y45.0067 I1.997 J-0.2615
 X85.0392 Y44.4939 I1.9958 J0.2701
G00 Z5.000
 X83.799 Y47.954
G00 Z0.500
G01 Z-6.300 F2540
G03 X83.9269 Y48.1146 I3.2732 J-2.4792
 X84.4616 Y48.5782 I2.9471 J-2.8591
G01 X84.398 Y48.726
 X84.368 Y48.858
G02 X83.7813 Y48.8844 I-0.1093 J4.1146
 X83.4617 Y48.9573 I0.7553 J4.0462
G01 X83.469 Y48.803
 X83.549 Y48.450
 X83.691 Y48.117
 X83.799 Y47.954
G00 Z5.000
 X83.036 Y47.133
G00 Z0.500
G01 Z-6.300 F2540
 X82.728 Y47.599
 X82.509 Y48.112
 X82.385 Y48.656
 X82.360 Y49.214
 X82.377 Y49.343
G02 X81.7674 Y49.7452 I1.9537 J3.6229
 X81.561 Y49.9425 I2.7396 J3.0720
G03 X81.4678 Y49.254 I3.907 J-0.8798
 X81.5 Y48.5366 I4.0018 J-0.1797
 X81.6598 Y47.8364 I3.9696 J0.5377
 X81.9421 Y47.176 I3.8098 J1.2379
 X82.3377 Y46.5767 I3.5276 J1.8983
 X82.834 Y46.0576 I3.1319 J2.4976
 X82.8699 Y46.0315 I2.3714 J3.2262
G02 X82.8915 Y46.1906 I4.0789 J-0.4715
 X83.119 Y46.8907 I4.0031 J-0.9137
 X83.1726 Y46.9903 I3.6422 J-1.8958
G01 X83.036 Y47.133
G00 Z5.000
 X83.093 Y49.144
G00 Z0.500
G01 Z-6.300 F2540
G03 X83.4199 Y49.0694 I1.0545 J3.8666
 X83.7948 Y48.9839 I1.0783 J3.8601
 X84.4108 Y48.9562 I0.4874 J3.9822
 X84.514 Y48.9516 I0.2316 J4.0052
 X85.2292 Y49.0484 I-0.1793 J4.0119
G01 X85.410 Y49.094
 X85.113 Y49.946
 X85.029 Y49.919
 X84.474 Y49.844
 X83.915 Y49.869
 X83.369 Y49.993
 X82.854 Y50.213
 X82.387 Y50.522
 X82.184 Y50.716
 X81.982 Y50.909
 X81.673 Y51.339
 X80.855 Y50.968
G03 X80.8865 Y50.9037 I3.6309 J1.7089
 X81.3096 Y50.3212 I3.4474 J2.0597
 X81.5693 Y50.0730 I2.8967 J2.7698
 X81.83 Y49.8237 I2.8972 J2.7692
 X82.4513 Y49.4183 I2.4951 J3.1455
 X83.0929 Y49.1441 I1.8928 J3.5407
G00 Z5.000
 X83.372 Y51.176
G00 Z0.500
G01 Z-6.300 F2540
 X83.707 Y51.033
 X84.061 Y50.952
 X84.425 Y50.936
 X84.751 Y50.984
 X84.545 Y51.854
 X84.503 Y51.844
 X84.385 Y51.828
 X84.181 Y51.837
 X83.983 Y51.883
 X83.795 Y51.963
 X83.625 Y52.075
 X83.551 Y52.146
 X83.478 Y52.216
 X83.385 Y52.344
 X82.646 Y51.906
 X82.616 Y51.889
 X82.806 Y51.628
 X82.937 Y51.503
 X83.069 Y51.377
 X83.372 Y51.176
G00 Z5.000
 X84.976 Y41.661
G00 Z0.500
G01 Z-6.300 F2540
G03 X84.9739 Y41.6034 I3.9986 J-0.1969
 X85.0724 Y40.892 I4.0013 J0.1915
 X85.2963 Y40.2097 I3.9028 J0.9029
 X85.6385 Y39.5783 I3.6789 J1.5853
 X86.0879 Y39.0181 I3.3367 J2.2167
 X86.6301 Y38.5472 I2.8873 J2.7768
 X86.6699 Y38.5236 I2.0633 J3.4314
G02 X86.7425 Y39.0595 I4.0964 J-0.282
 X86.8864 Y39.5025 I3.9708 J-1.0453
G01 X86.731 Y39.637
 X86.382 Y40.072
 X86.116 Y40.563
 X85.942 Y41.093
 X85.913 Y41.305
G02 X85.452 Y41.4324 I0.86 J4.0150
 X84.9763 Y41.6615 I1.54 J3.8063
G00 Z5.000
 X87.059 Y41.185
G00 Z0.500
G01 Z-6.300 F2540
 X87.121 Y40.996
 X87.293 Y40.678
 X87.414 Y40.527
G03 X87.7772 Y40.9826 I3.3838 J-2.3259
 X88.0169 Y41.2097 I2.9412 J-2.8652
G01 X87.956 Y41.327
G02 X87.628 Y41.2366 I-1.2552 J3.9095
 X87.0585 Y41.1853 I-0.6519 J4.0540
G00 Z5.000
 X89.466 Y39.698
G00 Z0.500
G01 Z-6.300 F2540
 X89.423 Y39.660
 X89.286 Y39.541
 X89.061 Y39.258
 X88.889 Y38.939
 X88.873 Y38.892
 X88.777 Y38.595
 X88.729 Y38.236
 X88.745 Y37.875
 X88.825 Y37.522
 X88.968 Y37.189
 X89.167 Y36.887
 X89.417 Y36.625
 X89.575 Y36.511
 X89.710 Y36.412
 X90.036 Y36.255
 X90.385 Y36.159
 X90.746 Y36.126
 X91.106 Y36.159
 X91.334 Y36.222
 X90.870 Y37.030
 X90.746 Y37.019
 X90.545 Y37.037
 X90.350 Y37.091
 X90.168 Y37.179
 X90.097 Y37.230
 X90.005 Y37.297
 X89.865 Y37.443
 X89.754 Y37.612
 X89.675 Y37.798
 X89.630 Y37.995
 X89.621 Y38.196
 X89.648 Y38.396
 X89.710 Y38.588
 X89.806 Y38.766
 X89.894 Y38.877
 X89.466 Y39.698
G00 Z5.000
 X88.496 Y40.297
G00 Z0.500
G01 Z-6.300 F2540
 X88.706 Y40.481
 X88.948 Y40.692
 X88.525 Y41.505
 X88.394 Y41.389
G03 X88.1117 Y41.1617 I2.3678 J-3.2305
 X87.851 Y40.9148 I2.6211 J-3.0284
 X87.4531 Y40.4159 I2.9205 J-2.7372
 X87.4026 Y40.3526 I3.104 J-2.5272
 X87.0623 Y39.7201 I3.3432 J-2.2068
 X86.9918 Y39.503 I3.7664 J-1.3438
 X86.8404 Y39.0371 I3.7203 J-1.4664
 X86.7588 Y38.4353 I3.9133 J-0.8365
 X86.744 Y38.3254 I3.9576 J-0.5921
 X86.7762 Y37.608 I4.0018 J-0.1797
 X86.936 Y36.9078 I3.9696 J0.5377
 X87.2182 Y36.2475 I3.8098 J1.2379
 X87.6139 Y35.6481 I3.5276 J1.8983
 X88.1102 Y35.129 I3.1319 J2.4976
 X88.4117 Y34.91 I2.498 J3.1213
 X88.6912 Y34.7069 I2.4874 J3.1297
 X89.3382 Y34.3953 I2.0546 J3.4388
 X89.3687 Y34.3869 I1.0806 J3.856
 X90.0305 Y34.2042 I1.3923 J3.7547
 X90.3706 Y34.1736 I0.528 J3.9628
 X90.7458 Y34.1398 I0.5456 J3.9604
 X91.3712 Y34.1961 I-0.0450 J4.0021
 X91.4611 Y34.2042 I-0.3138 J3.99
 X92.1549 Y34.3957 I-0.7145 J3.9417
G01 X92.340 Y34.471
 X91.889 Y35.255
 X91.840 Y35.231
 X91.302 Y35.083
 X90.746 Y35.033
 X90.190 Y35.083
 X89.652 Y35.231
 X89.149 Y35.473
 X88.934 Y35.629
 X88.698 Y35.801
 X88.312 Y36.205
 X88.005 Y36.671
 X87.785 Y37.184
 X87.661 Y37.728
 X87.636 Y38.285
 X87.640 Y38.316
 X87.711 Y38.838
 X87.838 Y39.228
 X87.883 Y39.369
 X88.148 Y39.861
 X88.496 Y40.297
G00 Z5.000
 X88.421 Y34.780
G00 Z0.500
G01 Z-6.300 F2540
 X88.402 Y34.640
 X88.434 Y33.923
 X88.594 Y33.222
 X88.876 Y32.562
 X89.272 Y31.963
 X89.768 Y31.444
 X90.349 Y31.021
 X90.389 Y31.002
G02 X90.3817 Y31.1625 I4.0976 J0.2644
 X90.4805 Y31.892 I4.1019 J-0.1842
 X90.5154 Y31.9996 I3.9222 J-1.215
G01 X90.355 Y32.116
 X89.970 Y32.519
 X89.662 Y32.985
 X89.443 Y33.498
 X89.319 Y34.042
 X89.307 Y34.299
G02 X88.6397 Y34.6207 I1.4406 J3.8451
 X88.4206 Y34.7799 I2.3026 J3.3997
G00 Z5.000
 X90.430 Y34.068
G00 Z0.500
G01 Z-6.300 F2540
 X90.483 Y33.836
 X90.625 Y33.503
 X90.825 Y33.201
 X90.960 Y33.060
G03 X91.0569 Y33.2405 I3.6632 J-1.8549
 X91.5002 Y33.7921 I3.4102 J-2.287
G01 X91.411 Y33.927
 X91.343 Y34.093
G02 X90.7458 Y34.0394 I-0.6659 J4.0517
 X90.4301 Y34.0679 I0.21 J4.1007
G00 Z5.000
 X93.023 Y32.372
G00 Z0.500
G01 Z-6.300 F2540
 X92.799 Y32.091
 X92.758 Y32.014
 X92.627 Y31.772
 X92.515 Y31.428
 X92.467 Y31.069
 X92.469 Y31.012
 X92.483 Y30.707
 X92.563 Y30.354
 X92.706 Y30.021
 X92.905 Y29.719
 X93.155 Y29.458
 X93.448 Y29.245
 X93.774 Y29.088
 X94.123 Y28.991
 X94.484 Y28.959
 X94.844 Y28.991
 X95.193 Y29.088
 X95.461 Y29.217
 X95.001 Y29.982
 X94.880 Y29.924
 X94.685 Y29.870
 X94.484 Y29.852
 X94.283 Y29.870
 X94.088 Y29.924
 X93.906 Y30.011
 X93.743 Y30.130
 X93.603 Y30.276
 X93.492 Y30.445
 X93.413 Y30.630
 X93.368 Y30.827
 X93.359 Y31.029
 X93.386 Y31.229
 X93.448 Y31.421
 X93.544 Y31.599
 X93.668 Y31.755
 X93.823 Y31.890
 X93.387 Y32.666
 X93.298 Y32.612
 X93.023 Y32.372
G00 Z5.000
 X92.232 Y33.127
G00 Z0.500
G01 Z-6.300 F2540
 X92.654 Y33.497
 X92.836 Y33.606
 X92.394 Y34.377
G03 X92.1293 Y34.2191 I1.9169 J-3.5085
 X91.5983 Y33.7545 I2.3617 J-3.2346
 X91.1406 Y33.185 I2.8798 J-2.7833
 X91.0152 Y32.952 I3.4563 J-2.0102
 X90.8003 Y32.5527 I3.4078 J-2.0913
 X90.6218 Y32.0032 I3.7058 J-1.5078
 X90.5784 Y31.8697 I3.7827 J-1.3029
 X90.482 Y31.158 I3.9054 J-0.8914
 X90.4925 Y30.923 I3.9983 J0.0618
 X90.5142 Y30.4406 I3.9983 J-0.0621
 X90.674 Y29.7404 I3.9696 J0.5377
 X90.9563 Y29.080 I3.8098 J1.2379
 X91.3519 Y28.4807 I3.5276 J1.8983
 X91.8482 Y27.9616 I3.1319 J2.4976
 X92.4292 Y27.5395 I2.6356 J3.0167
 X92.5344 Y27.4888 I1.7886 J3.5795
 X93.0763 Y27.2278 I2.0022 J3.4645
 X93.5391 Y27.1001 I1.2933 J3.7838
 X93.7686 Y27.0368 I1.1781 J3.8213
 X94.4838 Y26.9724 I0.7153 J3.9415
 X94.5639 Y26.9796 I-0.3187 J3.99
 X95.1991 Y27.0368 I-0.0401 J4.0025
 X95.5491 Y27.1334 I-0.8875 J3.8981
 X95.8914 Y27.2278 I-0.8914 J3.8972
 X96.4833 Y27.5129 I-1.4352 J3.7373
G01 X96.024 Y28.279
 X95.578 Y28.064
 X95.040 Y27.915
 X94.484 Y27.865
 X93.928 Y27.915
 X93.390 Y28.064
 X92.920 Y28.290
 X92.887 Y28.306
 X92.436 Y28.634
 X92.050 Y29.037
 X91.743 Y29.503
 X91.523 Y30.016
 X91.399 Y30.560
 X91.381 Y30.963
 X91.374 Y31.118
 X91.449 Y31.671
 X91.468 Y31.728
 X91.621 Y32.202
 X91.798 Y32.531
 X91.886 Y32.693
 X92.232 Y33.127
G00 Z5.000
 X92.566 Y27.362
G00 Z0.500
G01 Z-6.300 F2540
G03 X92.5847 Y26.9539 I3.9979 J-0.0251
 X92.7445 Y26.2537 I3.9696 J0.5377
 X93.0268 Y25.5934 I3.8098 J1.2379
 X93.4224 Y24.994 I3.5276 J1.8983
 X93.9187 Y24.4749 I3.1319 J2.4976
 X94.5186 Y24.0391 I2.6451 J3.0099
G02 X94.5121 Y24.184 I4.0980 J0.2567
 X94.6109 Y24.9136 I4.1019 J-0.1842
 X94.6524 Y25.0411 I3.9253 J-1.2049
G01 X94.506 Y25.147
 X94.121 Y25.551
 X93.813 Y26.016
 X93.594 Y26.530
 X93.484 Y27.012
G02 X93.0410 Y27.1338 I0.8693 J4.0130
 X92.5664 Y27.3624 I1.5406 J3.8061
G00 Z5.000
 X94.627 Y26.885
G00 Z0.500
G01 Z-6.300 F2540
 X94.776 Y26.535
 X94.976 Y26.233
 X95.101 Y26.102
G02 X95.1872 Y26.262 I3.6581 J-1.865
 X95.6438 Y26.8345 I3.4258 J-2.2636
G01 X95.562 Y26.958
 X95.534 Y27.025
G02 X95.217 Y26.938 I-1.2498 J3.9113
 X94.6265 Y26.8849 I-0.6624 J4.0523
G00 Z5.000
 X97.135 Y25.371
G00 Z0.500
G01 Z-6.300 F2540
 X96.929 Y25.112
 X96.899 Y25.056
 X96.757 Y24.793
 X96.646 Y24.449
 X96.597 Y24.090
 Y24.053
 X96.613 Y23.729
 X96.694 Y23.376
 X96.836 Y23.043
 X97.035 Y22.741
 X97.286 Y22.479
 X97.579 Y22.266
 X97.905 Y22.109
 X98.254 Y22.013
 X98.614 Y21.981
 X98.975 Y22.013
 X99.324 Y22.109
 X99.562 Y22.224
 X99.123 Y23.000
 X99.010 Y22.945
 X98.815 Y22.892
 X98.614 Y22.873
 X98.413 Y22.892
 X98.218 Y22.945
 X98.037 Y23.033
 X97.873 Y23.152
 X97.734 Y23.298
 X97.622 Y23.466
 X97.543 Y23.652
 X97.498 Y23.849
 X97.489 Y24.050
 X97.516 Y24.250
 X97.578 Y24.443
 X97.715 Y24.696
 X98.001 Y24.982
 X97.556 Y25.723
 X97.464 Y25.664
 X97.135 Y25.371
G00 Z5.000
 X95.939 Y25.572
G00 Z0.500
G01 Z-6.300 F2540
 X96.016 Y25.715
 X96.341 Y26.123
 X96.801 Y26.532
 X96.996 Y26.658
 X96.538 Y27.421
 X96.261 Y27.241
G03 X95.7425 Y26.78 I2.3923 J-3.2076
 X95.7158 Y26.7644 I2.0065 J-3.4618
 X95.271 Y26.2066 I2.8969 J-2.7664
 X95.1564 Y25.9935 I3.4623 J-2.0005
 X94.9307 Y25.5742 I3.4022 J-2.1011
 X94.7587 Y25.0447 I3.7092 J-1.4979
 X94.7088 Y24.8912 I3.7788 J-1.3127
 X94.6124 Y24.1795 I3.9054 J-0.8914
 X94.622 Y23.9647 I3.9985 J0.0719
 X94.6446 Y23.4621 I3.9985 J-0.0722
 X94.7245 Y23.112 I3.9336 J0.7137
 X94.8044 Y22.7619 I3.9336 J0.7137
 X95.0867 Y22.1016 I3.8098 J1.2379
 X95.4823 Y21.5022 I3.5276 J1.8983
 X95.9311 Y21.0328 I3.1083 J2.5226
 X95.9786 Y20.9831 I2.9171 J2.7414
 X96.5596 Y20.561 I2.6356 J3.0167
 X96.6751 Y20.5054 I1.7935 J3.5767
G01 X97.207 Y20.249
 X97.681 Y20.118
 X97.899 Y20.058
 X98.614 Y19.994
 X98.705 Y20.002
 X99.330 Y20.058
 X99.690 Y20.158
 X100.022 Y20.249
 X100.445 Y20.453
G03 X100.5078 Y20.4834 I1.8131 J-3.6841
G01 X100.207 Y21.085
 X100.100 Y21.274
 X100.059 Y21.254
 X99.708 Y21.085
 X99.170 Y20.937
 X98.614 Y20.887
 X98.058 Y20.937
 X97.520 Y21.085
 X97.061 Y21.307
 X97.018 Y21.327
 X96.566 Y21.656
 X96.180 Y22.059
 X95.873 Y22.525
 X95.654 Y23.038
 X95.529 Y23.582
 X95.510 Y24.005
 X95.504 Y24.139
 X95.579 Y24.693
 X95.604 Y24.770
 X95.752 Y25.223
 X95.939 Y25.572
G00 Z5.000
 X96.707 Y20.379
G00 Z0.500
G01 Z-6.300 F2540
G03 X96.725 Y19.9802 I3.9979 J-0.0203
 X96.8848 Y19.28 I3.9696 J0.5377
 X97.0306 Y18.9388 I3.7451 J1.3989
 X97.167 Y18.6196 I3.7408 J1.4102
 X97.5627 Y18.0203 I3.5276 J1.8983
 X98.0590 Y17.5012 I3.1319 J2.4976
 X98.2839 Y17.3378 I2.4611 J3.151
G02 X98.3607 Y17.8269 I4.0873 J-0.3918
 X98.5256 Y18.2999 I3.9525 J-1.1125
G01 X98.261 Y18.577
 X97.953 Y19.043
 X97.734 Y19.556
 X97.626 Y20.030
 X97.171 Y20.155
 X96.707 Y20.379
G00 Z5.000
 X98.768 Y19.907
G00 Z0.500
G01 Z-6.300 F2540
 X98.916 Y19.561
 X99.082 Y19.311
G02 X99.4369 Y19.7286 I3.299 J-2.4447
 X99.7168 Y19.9628 I2.7726 J-3.0287
G01 X99.675 Y20.050
 X99.347 Y19.960
 X98.768 Y19.907
G00 Z5.000
 X99.508 Y19.657
G00 Z0.500
G01 Z-6.300 F2540
G03 X99.1157 Y19.1964 I2.8464 J-2.817
 X99.0488 Y19.1068 I3.1754 J-2.4402
 X98.6945 Y18.4806 I3.2952 J-2.278
 X98.6301 Y18.2959 I3.7433 J-1.4084
 X98.4581 Y17.8025 I3.6825 J-1.5604
 X98.37 Y17.2415 I3.898 J-0.9
 X98.3466 Y17.0930 I3.9397 J-0.6953
 X98.3636 Y16.375 I3.9971 J-0.2647
 X98.436 Y16.0233 I3.9479 J0.6299
 X98.5085 Y15.6716 I3.9479 J0.6299
 X98.7766 Y15.0054 I3.8353 J1.1566
 X99.1595 Y14.3978 I3.5671 J1.8229
 X99.6446 Y13.8683 I3.1843 J2.4305
 X99.8285 Y13.7286 I2.5096 J3.1133
 X100.2165 Y13.4339 I2.6082 J3.0312
 X100.7539 Y13.1609 I2.0760 J3.4209
 X100.8568 Y13.1086 I1.8637 J3.541
 X101.5449 Y12.9029 I1.4869 J3.7197
 X101.7399 Y12.8811 I0.5405 J3.9628
 X102.2586 Y12.8233 I0.7015 J3.9375
 X102.74 Y12.8563 I-0.0326 J3.9986
G01 X102.975 Y12.872
G03 X103.1822 Y12.9249 I1.1112 J-3.9529
G01 X103.731 Y13.067
 X103.617 Y13.500
 X103.447 Y13.926
 X102.950 Y13.783
 X102.834 Y13.754
 X102.278 Y13.716
 X101.723 Y13.778
 X101.188 Y13.938
 X100.691 Y14.190
 X100.366 Y14.437
 X100.246 Y14.528
 X99.869 Y14.940
 X99.572 Y15.412
 X99.363 Y15.929
 X99.307 Y16.203
 X99.251 Y16.476
 X99.238 Y17.034
 X99.248 Y17.103
 X99.324 Y17.585
 X99.470 Y18.003
 X99.508 Y18.112
 X99.796 Y18.621
 X100.136 Y19.024
 X100.386 Y19.233
 X100.568 Y19.385
 X100.903 Y19.576
 X100.938 Y19.592
 X100.552 Y20.394
G03 X100.4895 Y20.3636 I1.7005 J-3.6108
 X100.0585 Y20.1184 I1.7584 J-3.5916
 X99.8152 Y19.9147 I2.4421 J-3.1654
 X99.5076 Y19.6573 I2.4088 J-3.1908
G00 Z5.000
 X101.192 Y18.487
G00 Z0.500
G01 Z-6.300 F2540
 X101.085 Y18.397
 X100.906 Y18.248
 X100.697 Y18.001
 X100.497 Y17.641
 X100.385 Y17.319
 X100.329 Y16.962
 X100.337 Y16.600
 X100.374 Y16.423
 X100.410 Y16.245
 X100.546 Y15.909
 X100.739 Y15.603
 X100.983 Y15.336
 X101.025 Y15.304
 X101.271 Y15.117
 X101.594 Y14.953
 X101.941 Y14.850
 X102.301 Y14.809
 X102.663 Y14.834
 X103.041 Y14.943
 X102.711 Y15.773
 X102.508 Y15.715
 X102.320 Y15.702
 X102.119 Y15.724
 X101.926 Y15.782
 X101.746 Y15.874
 X101.585 Y15.996
 X101.448 Y16.145
 X101.341 Y16.316
 X101.265 Y16.503
 X101.245 Y16.602
 X101.225 Y16.701
 X101.220 Y16.903
 X101.251 Y17.102
 X101.318 Y17.293
 X101.429 Y17.490
 X101.535 Y17.614
 X101.656 Y17.715
 X101.701 Y17.753
 X101.834 Y17.829
 X101.437 Y18.624
 X101.409 Y18.610
 X101.192 Y18.487
G00 Z5.000
 X101.787 Y12.775
G00 Z0.500
G01 Z-6.300 F2540
 X101.867 Y12.423
 X101.944 Y12.243
G03 X102.0986 Y12.3782 I2.7779 J-3.0238
 X102.7362 Y12.7558 I2.4028 J-3.3296
G02 X102.2565 Y12.7229 I-0.5205 J4.0730
 X101.7871 Y12.7753 I0.2194 J4.1002
G00 Z5.000
 X100.827 Y12.085
G00 Z0.500
G01 Z-6.300 F2540
 X100.703 Y12.629
 X100.683 Y13.085
G02 X100.1632 Y13.3488 I1.5954 J3.7835
 X99.8363 Y13.5971 I2.317 J3.3899
G01 X99.786 Y13.227
 X99.818 Y12.509
 X99.978 Y11.809
 X100.260 Y11.149
 X100.656 Y10.549
 X100.687 Y10.517
G02 X100.7363 Y10.67 I3.9292 J-1.1923
 X101.0852 Y11.3182 I3.7757 J-1.6138
 X101.1557 Y11.4066 I3.2452 J-2.5157
G01 X101.047 Y11.572
 X100.827 Y12.085
G00 Z5.000
 X101.617 Y11.824
G00 Z0.500
G01 Z-6.300 F2540
G03 X101.2565 Y11.3727 I2.9397 J-2.7138
 X101.169 Y11.2629 I3.0837 J-2.549
 X100.8287 Y10.6305 I3.3432 J-2.2068
 X100.756 Y10.4067 I3.7651 J-1.347
G02 X100.6067 Y9.9475 I3.7215 J-1.4631
 X100.5103 Y9.2358 I3.9054 J-0.8914
 X100.5425 Y8.5184 I4.0018 J-0.1797
 X100.7024 Y7.8182 I3.9696 J0.5377
 X100.9846 Y7.1578 I3.8098 J1.2379
 X101.3802 Y6.5585 I3.5276 J1.8983
 X101.8131 Y6.1058 I3.1004 J2.531
 X101.8765 Y6.0394 I2.9244 J2.7324
 X102.4576 Y5.6172 I2.6356 J3.0167
 X103.1046 Y5.3056 I2.0546 J3.4388
 X103.7969 Y5.1146 I1.4076 J3.7504
 X104.5122 Y5.0502 I0.7153 J3.9415
 X105.0 Y5.0941 I-0.1139 J3.9973
 X105.4878 Y5.0502 I0.6017 J3.9534
 X106.2031 Y5.1146 I0.0 J4.0059
 X106.8954 Y5.3056 I-0.7153 J3.9415
 X107.5424 Y5.6172 I-1.4076 J3.7504
 X108.1235 Y6.0394 I-2.0546 J3.4388
 X108.1869 Y6.1058 I-2.8609 J2.7988
 X108.6198 Y6.5585 I-2.6676 J2.9837
 X109.0154 Y7.1578 I-3.1319 J2.4976
 X109.2976 Y7.8182 I-3.5276 J1.8983
 X109.4575 Y8.5184 I-3.8098 J1.2379
 X109.4897 Y9.2358 I-3.9696 J0.5377
 X109.3933 Y9.9475 I-4.0018 J-0.1797
 X109.244 Y10.4067 I-3.8707 J-1.0038
G03 X109.1713 Y10.6305 I-3.8378 J-1.1233
 X108.831 Y11.2629 I-3.6835 J-1.5744
 X108.7435 Y11.3727 I-3.1712 J-2.4392
 X108.3833 Y11.8244 I-3.2999 J-2.2621
 X108.0418 Y12.1227 I-2.7972 J-2.857
 X107.8425 Y12.2968 I-2.7289 J-2.9224
 X107.2117 Y12.6704 I-2.3479 J-3.2448
 X106.9995 Y12.7757 I-1.8877 J-3.5376
 X106.7923 Y12.8282 I-1.0860 J-3.8531
G01 X106.247 Y12.985
 X106.021 Y12.125
 X106.510 Y11.984
 X106.841 Y11.859
 X107.318 Y11.575
 X107.457 Y11.453
 X107.738 Y11.207
 X108.048 Y10.818
 X108.086 Y10.771
 X108.350 Y10.280
 X108.398 Y10.132
 X108.523 Y9.749
 X108.598 Y9.196
 X108.573 Y8.638
 X108.448 Y8.094
 X108.229 Y7.581
 X107.922 Y7.115
 X107.536 Y6.712
 X107.084 Y6.384
 X106.582 Y6.142
 X106.152 Y6.023
 X106.044 Y5.993
 X105.488 Y5.943
 X105.086 Y5.979
 X105.000
 X104.914
 X104.512 Y5.943
 X103.956 Y5.993
 X103.848 Y6.023
 X103.418 Y6.142
 X102.916 Y6.384
 X102.464 Y6.712
 X102.078 Y7.115
 X101.771 Y7.581
 X101.552 Y8.094
 X101.427 Y8.638
 X101.402 Y9.196
 X101.477 Y9.749
 X101.602 Y10.132
 X101.650 Y10.280
 X101.914 Y10.771
 X101.952 Y10.818
 X102.262 Y11.207
 X102.543 Y11.453
 X102.682 Y11.575
 X103.159 Y11.859
 X103.490 Y11.984
 X103.979 Y12.125
 X103.756 Y12.970
 X103.207 Y12.828
G03 X103.0005 Y12.7757 I0.8791 J-3.9055
 X102.7883 Y12.6704 I1.6755 J-3.6429
 X102.1575 Y12.2968 I1.7171 J-3.6184
 X101.9582 Y12.1227 I2.5296 J-3.0965
 X101.6167 Y11.8244 I2.4557 J-3.1554
G00 Z5.000
 X103.325 Y10.690
G00 Z0.500
G01 Z-6.300 F2540
 X103.260 Y10.633
 X103.053 Y10.452
 X102.827 Y10.169
 X102.655 Y9.850
 X102.638 Y9.795
 X102.543 Y9.505
 X102.495 Y9.147
 X102.511 Y8.785
 X102.592 Y8.432
 X102.734 Y8.099
 X102.933 Y7.797
 X103.184 Y7.535
 X103.476 Y7.323
 X103.803 Y7.166
 X104.152 Y7.069
 X104.512 Y7.037
 X104.818 Y7.064
 X104.855 Y7.068
 X104.771 Y7.953
 X104.738 Y7.950
 X104.512 Y7.930
 X104.311 Y7.948
 X104.116 Y8.001
 X103.934 Y8.089
 X103.771 Y8.208
 X103.631 Y8.354
 X103.520 Y8.522
 X103.441 Y8.708
 X103.396 Y8.905
 X103.387 Y9.107
 X103.414 Y9.307
 X103.476 Y9.499
 X103.572 Y9.677
 X103.698 Y9.835
 X103.850 Y9.967
 X104.022 Y10.070
 X104.113 Y10.105
 X104.483 Y10.211
 X104.257 Y11.071
 X103.833 Y10.949
 X103.634 Y10.874
 X103.325 Y10.690
G00 Z5.000
 X105.517 Y10.211
G00 Z0.500
G01 Z-6.300 F2540
 X105.887 Y10.105
 X105.978 Y10.070
 X106.150 Y9.967
 X106.302 Y9.835
 X106.428 Y9.677
 X106.524 Y9.499
 X106.586 Y9.307
 X106.613 Y9.107
 X106.604 Y8.905
 X106.559 Y8.708
 X106.480 Y8.522
 X106.369 Y8.354
 X106.229 Y8.208
 X106.066 Y8.089
 X105.884 Y8.001
 X105.689 Y7.948
 X105.488 Y7.930
 X105.262 Y7.950
 X105.229 Y7.953
 X105.145 Y7.068
 X105.182 Y7.064
 X105.488 Y7.037
 X105.848 Y7.069
 X106.197 Y7.166
 X106.524 Y7.323
 X106.816 Y7.535
 X107.067 Y7.797
 X107.266 Y8.099
 X107.408 Y8.432
 X107.489 Y8.785
 X107.505 Y9.147
 X107.457 Y9.505
 X107.362 Y9.795
 X107.345 Y9.850
 X107.173 Y10.169
 X106.947 Y10.452
 X106.740 Y10.633
 X106.675 Y10.690
 X106.366 Y10.874
 X106.167 Y10.949
 X105.743 Y11.071
 X105.517 Y10.211
G00 Z5.000
 X108.844 Y11.407
G00 Z0.500
G01 Z-6.300 F2540
G02 X108.9148 Y11.3182 I-3.1747 J-2.6041
 X109.2637 Y10.67 I-3.4268 J-2.262
 X109.3133 Y10.5172 I-3.8796 J-1.345
G01 X109.344 Y10.549
 X109.740 Y11.149
 X110.022 Y11.809
 X110.182 Y12.509
 X110.214 Y13.227
 X110.164 Y13.597
G02 X109.8368 Y13.3488 I-2.6439 J3.1416
 X109.3174 Y13.0849 I-2.1148 J3.5196
G01 X109.297 Y12.629
 X109.173 Y12.085
 X108.953 Y11.572
 X108.844 Y11.407
G00 Z5.000
 X108.056 Y12.243
G00 Z0.500
G01 Z-6.300 F2540
 X108.133 Y12.423
 X108.213 Y12.775
G02 X107.7435 Y12.7229 I-0.6888 J4.0479
 X107.2638 Y12.7558 I0.0407 J4.1059
G03 X107.9014 Y12.3782 I-1.7652 J-3.7073
 X108.0558 Y12.2433 I-2.6235 J-3.1586
G00 Z5.000
 X107.741 Y12.823
G00 Z0.500
G01 Z-6.300 F2540
G03 X108.2601 Y12.8811 I-0.1828 J3.9953
 X108.4551 Y12.9029 I-0.3454 J3.9845
 X109.1432 Y13.1086 I-0.7989 J3.9254
 X109.2461 Y13.1609 I-1.7608 J3.5933
 X109.7835 Y13.4339 I-1.5386 J3.6939
 X110.1715 Y13.7286 I-2.2202 J3.3259
 X110.3554 Y13.8683 I-2.3257 J3.253
 X110.8405 Y14.3978 I-2.6991 J2.96
 X111.2234 Y15.0054 I-3.1843 J2.4305
 X111.4915 Y15.6716 I-3.5671 J1.8229
 X111.564 Y16.0233 I-3.8754 J0.9816
 X111.6364 Y16.375 I-3.8754 J0.9816
 X111.6534 Y17.0930 I-3.9802 J0.4532
 X111.63 Y17.2415 I-3.963 J-0.5467
 X111.5419 Y17.8025 I-3.9861 J-0.3391
 X111.3699 Y18.2959 I-3.8546 J-1.0669
 X111.3055 Y18.4806 I-3.8077 J-1.2237
 X110.9512 Y19.1068 I-3.6496 J-1.6517
 X110.8843 Y19.1964 I-3.2423 J-2.3506
 X110.4924 Y19.6573 I-3.2383 J-2.3561
 X110.1848 Y19.9147 I-2.7164 J-2.9334
 X109.9415 Y20.1184 I-2.6855 J-2.9617
 X109.5105 Y20.3636 I-2.1893 J-3.3465
 X109.4482 Y20.3936 I-1.7628 J-3.5808
G01 X109.062 Y19.592
 X109.097 Y19.576
 X109.432 Y19.385
 X109.614 Y19.233
 X109.864 Y19.024
 X110.190 Y18.640
 X110.492 Y18.112
 X110.530 Y18.003
 X110.676 Y17.585
 X110.752 Y17.103
 X110.762 Y17.034
 X110.749 Y16.476
 X110.693 Y16.203
 X110.637 Y15.929
 X110.428 Y15.412
 X110.131 Y14.940
 X109.754 Y14.528
 X109.634 Y14.437
 X109.309 Y14.190
 X108.812 Y13.938
 X108.277 Y13.778
 X107.722 Y13.716
 X107.166 Y13.754
 X107.050 Y13.783
 X106.553 Y13.926
 X106.383 Y13.500
 X106.273 Y13.082
 X106.818 Y12.925
G03 X107.0249 Y12.8725 I-0.9044 J-4.0052
G01 X107.260 Y12.856
G03 X107.7414 Y12.8233 I0.5139 J3.9656
G00 Z5.000
 X107.337 Y14.834
G00 Z0.500
G01 Z-6.300 F2540
 X107.699 Y14.809
 X108.059 Y14.850
 X108.406 Y14.953
 X108.729 Y15.117
 X108.975 Y15.304
 X109.017 Y15.336
 X109.261 Y15.603
 X109.454 Y15.909
 X109.590 Y16.245
 X109.626 Y16.423
 X109.663 Y16.600
 X109.671 Y16.962
 X109.615 Y17.319
 X109.503 Y17.641
 X109.303 Y18.001
 X109.094 Y18.248
 X108.915 Y18.397
 X108.808 Y18.487
 X108.591 Y18.610
 X108.563 Y18.624
 X108.166 Y17.829
 X108.299 Y17.753
 X108.344 Y17.715
 X108.465 Y17.614
 X108.571 Y17.490
 X108.682 Y17.293
 X108.749 Y17.102
 X108.780 Y16.903
 X108.775 Y16.701
 X108.755 Y16.602
 X108.735 Y16.503
 X108.659 Y16.316
 X108.552 Y16.145
 X108.415 Y15.996
 X108.254 Y15.874
 X108.074 Y15.782
 X107.881 Y15.724
 X107.680 Y15.702
 X107.492 Y15.715
 X107.289 Y15.773
 X106.959 Y14.943
 X107.337 Y14.834
G00 Z5.000
 X111.716 Y17.338
G00 Z0.500
G01 Z-6.300 F2540
G03 X111.941 Y17.5012 I-2.2362 J3.3144
 X112.4373 Y18.0203 I-2.6356 J3.0167
 X112.833 Y18.6196 I-3.1319 J2.4976
 X112.9694 Y18.9388 I-3.6044 J1.7293
 X113.1152 Y19.28 I-3.5992 J1.7402
 X113.275 Y19.9802 I-3.8098 J1.2379
 X113.2929 Y20.379 I-3.98 J0.3786
G01 X112.829 Y20.155
 X112.374 Y20.030
 X112.266 Y19.556
 X112.047 Y19.043
 X111.739 Y18.577
 X111.474 Y18.300
G02 X111.6393 Y17.8269 I-3.7876 J-1.5856
 X111.7161 Y17.3378 I-4.0105 J-0.8809
G00 Z5.000
 X110.918 Y19.311
G00 Z0.500
G01 Z-6.300 F2540
 X111.084 Y19.561
 X111.232 Y19.907
 X110.653 Y19.960
 X110.325 Y20.050
 X110.297 Y19.984
G02 X110.5631 Y19.7286 I-2.7101 J-3.0847
 X110.9184 Y19.3107 I-2.9437 J-2.8626
G00 Z5.000
 X110.670 Y20.058
G00 Z0.500
G01 Z-6.300 F2540
 X111.295 Y20.002
 X111.386 Y19.994
 X112.101 Y20.058
 X112.319 Y20.118
 X112.793 Y20.249
 X113.325 Y20.505
G03 X113.4404 Y20.561 I-1.6781 J3.6322
 X114.0214 Y20.9831 I-2.0546 J3.4388
 X114.0689 Y21.0328 I-2.8696 J2.7911
 X114.5177 Y21.5022 I-2.6595 J2.992
 X114.9133 Y22.1016 I-3.1319 J2.4976
 X115.1956 Y22.7619 I-3.5276 J1.8983
 X115.2755 Y23.112 I-3.8537 J1.0637
 X115.3554 Y23.4621 I-3.8537 J1.0637
 X115.378 Y23.9647 I-3.9759 J0.4303
 X115.3876 Y24.1795 I-3.9888 J0.2868
 X115.2912 Y24.8912 I-4.0018 J-0.1797
 X115.2413 Y25.0447 I-3.8286 J-1.1591
 X115.0693 Y25.5742 I-3.8813 J-0.9684
 X114.8436 Y25.9935 I-3.6278 J-1.6818
 X114.729 Y26.2066 I-3.5769 J-1.7874
 X114.2842 Y26.7644 I-3.3417 J-2.2087
 X114.2575 Y26.78 I-2.0332 J-3.4462
 X113.7401 Y27.2408 I-2.9101 J-2.7465
G01 X113.456 Y27.411
 X113.004 Y26.658
 X113.199 Y26.532
 X113.659 Y26.123
 X113.984 Y25.715
 X114.061 Y25.572
 X114.248 Y25.223
 X114.396 Y24.770
 X114.421 Y24.693
 X114.496 Y24.139
 X114.490 Y24.005
 X114.471 Y23.582
 X114.346 Y23.038
 X114.127 Y22.525
 X113.820 Y22.059
 X113.434 Y21.656
 X112.982 Y21.327
 X112.939 Y21.307
 X112.480 Y21.085
 X111.942 Y20.937
 X111.386 Y20.887
 X110.830 Y20.937
 X110.292 Y21.085
 X109.941 Y21.254
 X109.900 Y21.274
 X109.793 Y21.085
 X109.492 Y20.483
G03 X109.5555 Y20.453 I-1.7499 J-3.7145
G01 X109.978 Y20.249
 X110.310 Y20.158
 X110.670 Y20.058
G00 Z5.000
 X110.676 Y22.109
G00 Z0.500
G01 Z-6.300 F2540
 X111.025 Y22.013
 X111.386 Y21.981
 X111.746 Y22.013
 X112.095 Y22.109
 X112.421 Y22.266
 X112.714 Y22.479
 X112.965 Y22.741
 X113.164 Y23.043
 X113.306 Y23.376
 X113.387 Y23.729
 X113.401 Y24.053
 Y24.090
 X113.354 Y24.449
 X113.243 Y24.793
 X113.101 Y25.056
 X113.071 Y25.112
 X112.865 Y25.371
 X112.536 Y25.664
 X112.444 Y25.723
 X111.999 Y24.982
 X112.285 Y24.696
 X112.422 Y24.443
 X112.484 Y24.250
 X112.511 Y24.050
 X112.502 Y23.849
 X112.457 Y23.652
 X112.378 Y23.466
 X112.266 Y23.298
 X112.127 Y23.152
 X111.963 Y23.033
 X111.782 Y22.945
 X111.587 Y22.892
 X111.386 Y22.873
 X111.185 Y22.892
 X110.990 Y22.945
 X110.877 Y23.000
 X110.438 Y22.224
 X110.676 Y22.109
G00 Z5.000
 X115.481 Y24.039
G00 Z0.500
G01 Z-6.300 F2540
G03 X116.0813 Y24.4749 I-2.0452 J3.4457
 X116.5776 Y24.994 I-2.6356 J3.0167
 X116.9732 Y25.5934 I-3.1319 J2.4976
 X117.2555 Y26.2537 I-3.5276 J1.8983
 X117.4153 Y26.9539 I-3.8098 J1.2379
 X117.4336 Y27.3624 I-3.9795 J0.3834
G02 X116.959 Y27.1338 I-2.0152 J3.5776
 X116.5163 Y27.0117 I-1.312 J3.8908
G01 X116.406 Y26.530
 X116.187 Y26.016
 X115.879 Y25.551
 X115.494 Y25.147
 X115.348 Y25.041
G02 X115.3891 Y24.9136 I-3.8839 J-1.3325
 X115.4879 Y24.184 I-4.0031 J-0.9137
 X115.4814 Y24.0391 I-4.1046 J0.1117
G00 Z5.000
 X114.899 Y26.102
G00 Z0.500
G01 Z-6.300 F2540
 X115.024 Y26.233
 X115.224 Y26.535
 X115.373 Y26.885
G02 X114.783 Y26.938 I0.0718 J4.1055
 X114.4664 Y27.0254 I0.9332 J3.9986
G01 X114.438 Y26.958
 X114.356 Y26.834
G02 X114.8128 Y26.262 I-2.9692 J-2.8362
 X114.8991 Y26.1015 I-3.5717 J-2.0255
G00 Z5.000
 X114.801 Y27.037
G00 Z0.500
G01 Z-6.300 F2540
G03 X115.4361 Y26.9796 I0.6753 J3.9453
 X115.5162 Y26.9724 I0.3988 J3.9828
 X116.2314 Y27.0368 I0.0 J4.0059
 X116.4609 Y27.1001 I-0.9486 J3.8846
 X116.9237 Y27.2278 I-0.8305 J3.9115
 X117.4656 Y27.4888 I-1.4603 J3.7255
 X117.5708 Y27.5395 I-1.6834 J3.6302
 X118.1518 Y27.9616 I-2.0546 J3.4388
 X118.6481 Y28.4807 I-2.6356 J3.0167
 X119.0437 Y29.080 I-3.1319 J2.4976
 X119.326 Y29.7404 I-3.5276 J1.8983
 X119.4858 Y30.4406 I-3.8098 J1.2379
 X119.5075 Y30.923 I-3.9766 J0.4203
 X119.518 Y31.158 I-3.9877 J0.2968
 X119.4216 Y31.8697 I-4.0018 J-0.1797
 X119.3782 Y32.0032 I-3.8261 J-1.1694
 X119.1997 Y32.5527 I-3.8843 J-0.9584
 X118.9848 Y32.952 I-3.6227 J-1.692
 X118.8594 Y33.185 I-3.5817 J-1.7771
 X118.4017 Y33.7545 I-3.3375 J-2.2139
 X117.8707 Y34.2191 I-2.8927 J-2.7699
 X117.6064 Y34.377 I-2.1812 J-3.3506
G01 X117.164 Y33.606
 X117.346 Y33.497
 X117.768 Y33.127
 X118.114 Y32.693
 X118.202 Y32.531
 X118.379 Y32.202
 X118.532 Y31.728
 X118.551 Y31.671
 X118.626 Y31.118
 X118.619 Y30.963
 X118.601 Y30.560
 X118.477 Y30.016
 X118.257 Y29.503
 X117.950 Y29.037
 X117.564 Y28.634
 X117.113 Y28.306
 X117.080 Y28.290
 X116.610 Y28.064
 X116.072 Y27.915
 X115.516 Y27.865
 X114.960 Y27.915
 X114.422 Y28.064
 X113.976 Y28.279
 X113.510 Y27.502
G03 X114.1081 Y27.228 I1.9613 J3.4976
 X114.4509 Y27.1334 I1.2339 J3.8026
 X114.8009 Y27.0368 I1.2374 J3.8015
G00 Z5.000
 X114.807 Y29.088
G00 Z0.500
G01 Z-6.300 F2540
 X115.156 Y28.991
 X115.516 Y28.959
 X115.877 Y28.991
 X116.226 Y29.088
 X116.552 Y29.245
 X116.845 Y29.458
 X117.095 Y29.719
 X117.294 Y30.021
 X117.437 Y30.354
 X117.517 Y30.707
 X117.531 Y31.012
 X117.533 Y31.069
 X117.485 Y31.428
 X117.373 Y31.772
 X117.242 Y32.014
 X117.201 Y32.091
 X116.977 Y32.372
 X116.702 Y32.612
 X116.613 Y32.666
 X116.155 Y31.904
 X116.332 Y31.755
 X116.456 Y31.599
 X116.552 Y31.421
 X116.614 Y31.229
 X116.641 Y31.029
 X116.632 Y30.827
 X116.587 Y30.630
 X116.508 Y30.445
 X116.397 Y30.276
 X116.257 Y30.130
 X116.094 Y30.011
 X115.912 Y29.924
 X115.717 Y29.870
 X115.516 Y29.852
 X115.315 Y29.870
 X115.120 Y29.924
 X114.999 Y29.982
 X114.539 Y29.217
 X114.807 Y29.088
G00 Z5.000
 X119.611 Y31.002
G00 Z0.500
G01 Z-6.300 F2540
 X119.651 Y31.021
 X120.232 Y31.444
 X120.728 Y31.963
 X121.124 Y32.562
 X121.406 Y33.222
 X121.566 Y33.923
 X121.598 Y34.640
 X121.579 Y34.780
G02 X121.3603 Y34.6207 I-2.5217 J3.2405
 X120.6929 Y34.2993 I-2.108 J3.5237
G01 X120.681 Y34.042
 X120.557 Y33.498
 X120.338 Y32.985
 X120.030 Y32.519
 X119.645 Y32.116
 X119.485 Y32.000
G02 X119.5195 Y31.892 I-3.8873 J-1.3225
 X119.6183 Y31.1625 I-4.0031 J-0.9137
 X119.6111 Y31.0021 I-4.1048 J0.104
G00 Z5.000
 X119.040 Y33.060
G00 Z0.500
G01 Z-6.300 F2540
 X119.175 Y33.201
 X119.375 Y33.503
 X119.517 Y33.836
 X119.570 Y34.068
G02 X119.2542 Y34.0394 I-0.5256 J4.0723
 X118.6567 Y34.0932 I0.0683 J4.1055
G01 X118.589 Y33.927
 X118.500 Y33.792
G03 X118.9431 Y33.2405 I-2.9669 J-2.8386
 X119.0403 Y33.060 I-3.5661 J-2.0354
G00 Z5.000
 X119.254 Y34.140
G00 Z0.500
G01 Z-6.300 F2540
G03 X119.6294 Y34.1736 I-0.1703 J3.9942
 X119.9695 Y34.2042 I-0.188 J3.9934
 X120.6313 Y34.3869 I-0.7305 J3.9373
 X120.6618 Y34.3953 I-1.0501 J3.8644
 X121.3088 Y34.7069 I-1.4076 J3.7504
 X121.5883 Y34.91 I-2.2079 J3.3328
 X121.8898 Y35.129 I-2.1966 J3.3403
 X122.3861 Y35.6481 I-2.6356 J3.0167
 X122.7818 Y36.2475 I-3.1319 J2.4976
 X123.0640 Y36.9078 I-3.5276 J1.8983
 X123.2238 Y37.608 I-3.8098 J1.2379
 X123.256 Y38.3254 I-3.9696 J0.5377
 X123.2412 Y38.4353 I-3.9725 J-0.4822
 X123.1596 Y39.0371 I-3.9948 J-0.2347
 X123.0082 Y39.503 I-3.8717 J-1.0004
 X122.9377 Y39.7201 I-3.8369 J-1.1267
 X122.5974 Y40.3526 I-3.6835 J-1.5744
 X122.5469 Y40.4159 I-3.1545 J-2.4638
 X122.1496 Y40.914 I-3.3181 J-2.2386
 X121.8792 Y41.1503 I-2.7629 J-2.8895
 X121.607 Y41.3881 I-2.7638 J-2.8887
G01 X121.468 Y41.491
 X121.052 Y40.692
 X121.294 Y40.481
 X121.504 Y40.297
 X121.852 Y39.861
 X122.117 Y39.369
 X122.162 Y39.228
 X122.289 Y38.838
 X122.360 Y38.316
 X122.364 Y38.285
 X122.339 Y37.728
 X122.215 Y37.184
 X121.995 Y36.671
 X121.688 Y36.205
 X121.302 Y35.801
 X121.066 Y35.629
 X120.851 Y35.473
 X120.348 Y35.231
 X119.810 Y35.083
 X119.254 Y35.033
 X118.698 Y35.083
 X118.160 Y35.231
 X118.111 Y35.255
 X117.660 Y34.471
 X117.845 Y34.396
G03 X118.5389 Y34.2042 I1.4083 J3.7502
 X118.6288 Y34.1961 I0.4037 J3.9819
 X119.2542 Y34.1398 I0.6703 J3.9458
G00 Z5.000
 X118.894 Y36.159
G00 Z0.500
G01 Z-6.300 F2540
 X119.254 Y36.126
 X119.615 Y36.159
 X119.964 Y36.255
 X120.290 Y36.412
 X120.425 Y36.511
 X120.583 Y36.625
 X120.833 Y36.887
 X121.032 Y37.189
 X121.175 Y37.522
 X121.255 Y37.875
 X121.271 Y38.236
 X121.223 Y38.595
 X121.127 Y38.892
 X121.111 Y38.939
 X120.939 Y39.258
 X120.714 Y39.541
 X120.577 Y39.660
 X120.534 Y39.698
 X120.106 Y38.877
 X120.194 Y38.766
 X120.290 Y38.588
 X120.352 Y38.396
 X120.379 Y38.196
 X120.370 Y37.995
 X120.325 Y37.798
 X120.246 Y37.612
 X120.135 Y37.443
 X119.995 Y37.297
 X119.903 Y37.230
 X119.832 Y37.179
 X119.650 Y37.091
 X119.455 Y37.037
 X119.254 Y37.019
 X119.130 Y37.030
 X118.666 Y36.222
 X118.894 Y36.159
G00 Z5.000
 X123.330 Y38.524
G00 Z0.500
G01 Z-6.300 F2540
G03 X123.3699 Y38.5472 I-2.0236 J3.4549
 X123.9121 Y39.0181 I-2.345 J3.2477
 X124.3615 Y39.5783 I-2.8873 J2.7768
 X124.7037 Y40.2097 I-3.3367 J2.2167
 X124.9276 Y40.892 I-3.6789 J1.5853
 X125.0261 Y41.6034 I-3.9028 J0.9029
 X125.0237 Y41.6615 I-4.0011 J-0.1388
G02 X124.548 Y41.4324 I-2.0157 J3.5773
 X124.0871 Y41.3052 I-1.321 J3.8878
G01 X124.058 Y41.093
 X123.884 Y40.563
 X123.618 Y40.072
 X123.269 Y39.637
 X123.114 Y39.502
G02 X123.2575 Y39.0595 I-3.8269 J-1.4883
 X123.3301 Y38.5236 I-4.0238 J-0.8179
G00 Z5.000
 X122.586 Y40.527
G00 Z0.500
G01 Z-6.300 F2540
 X122.707 Y40.678
 X122.879 Y40.996
 X122.941 Y41.185
G02 X122.372 Y41.2366 I0.0824 J4.1053
 X122.0439 Y41.3271 I0.9274 J4.0
G01 X121.975 Y41.199
G02 X122.2222 Y40.9834 I-2.5758 J-3.1977
 X122.5861 Y40.5271 I-3.0202 J-2.7818
G00 Z5.000
 X122.390 Y41.335
G00 Z0.500
G01 Z-6.300 F2540
G03 X123.0131 Y41.2793 I0.6692 J3.9459
 X123.1052 Y41.271 I0.4048 J3.9817
 X123.8205 Y41.3354 I0.0 J4.0059
 X124.0287 Y41.3928 I-0.9594 J3.8823
 X124.5128 Y41.5264 I-0.8198 J3.9142
 X125.0488 Y41.7845 I-1.4633 J3.7241
 X125.1598 Y41.838 I-1.6804 J3.6314
 X125.7408 Y42.2601 I-2.0546 J3.4388
 X126.2371 Y42.7792 I-2.6356 J3.0167
 X126.6327 Y43.3786 I-3.1319 J2.4976
 X126.915 Y44.0390 I-3.5276 J1.8983
 X127.0748 Y44.7391 I-3.8098 J1.2379
 X127.107 Y45.4566 I-3.9696 J0.5377
 X127.0422 Y45.9351 I-3.9878 J-0.2965
 X127.0106 Y46.1683 I-3.9767 J-0.42
 X126.7887 Y46.8513 I-3.9054 J-0.8914
 X126.7222 Y46.9749 I-3.5558 J-1.8337
 X126.4484 Y47.4837 I-3.6508 J-1.6365
 X126.1657 Y47.8382 I-3.2624 J-2.3117
 X126.0007 Y48.0451 I-3.2068 J-2.3881
 X125.4487 Y48.5237 I-2.8886 J-2.7742
 X124.8433 Y48.886 I-2.3516 J-3.2419
 X124.5554 Y48.9941 I-1.5477 J-3.6863
G01 X124.262 Y48.154
 X124.456 Y48.082
 X124.935 Y47.795
 X125.355 Y47.428
 X125.703 Y46.992
 X125.968 Y46.500
 X126.140 Y45.970
 X126.161 Y45.816
 X126.215 Y45.417
 X126.190 Y44.859
 X126.066 Y44.315
 X125.846 Y43.802
 X125.539 Y43.336
 X125.153 Y42.933
 X124.702 Y42.605
 X124.663 Y42.586
 X124.199 Y42.362
 X123.661 Y42.214
 X123.105 Y42.164
 X122.549 Y42.214
 X122.011 Y42.362
 X121.894 Y42.419
 X121.572 Y41.692
 X121.521 Y41.592
 X121.695 Y41.527
G03 X122.0320 Y41.4341 I1.2309 J3.8037
 X122.3899 Y41.3354 I1.2414 J3.8002
G00 Z5.000
 X122.800 Y43.286
G00 Z0.500
G01 Z-6.300 F2540
G02 X123.3315 Y43.2756 I0.3052 J1.9908
 X123.8473 Y43.4045 I-0.2263 J2.0013
 X124.3113 Y43.6639 I-0.7421 J1.8723
 X124.6913 Y44.0357 I-1.2061 J1.6129
 X124.9608 Y44.4939 I-1.5861 J1.2412
 X125.101 Y45.0067 I-1.8556 J0.7829
 X125.1022 Y45.5384 I-1.9958 J0.2701
 X124.9642 Y46.0518 I-1.997 J-0.2615
 X124.6967 Y46.5112 I-1.859 J-0.7749
 X124.3183 Y46.8846 I-1.5915 J-1.2343
 X123.9016 Y47.1198 I-1.19 J-1.6209
G01 X123.610 Y46.282
G02 X123.8202 Y46.152 I-0.4858 J-1.0199
 X124.0219 Y45.9377 I-0.7147 J-0.8749
 X124.1615 Y45.6785 I-0.9164 J-0.6606
 X124.2294 Y45.3921 I-1.0559 J-0.4016
 X124.221 Y45.0978 I-1.1238 J-0.1152
 X124.1369 Y44.8157 I-1.1154 J0.1789
 X123.9828 Y44.5649 I-1.0314 J0.4609
 X123.7692 Y44.3624 I-0.8774 J0.7116
 X123.5105 Y44.2219 I-0.6638 J0.9141
 X123.2243 Y44.1531 I-0.4052 J1.0545
 X122.93 Y44.1604 I-0.1191 J1.1234
 X122.696 Y44.2293 I0.2001 J1.1118
G01 X122.338 Y43.421
G02 X122.8 Y43.2861 I0.7913 J1.8488
G00 Z5.000
 X127.130 Y46.031
G00 Z0.500
G01 Z-6.300 F2540
G03 X127.166 Y46.0576 I-2.3355 J3.2523
 X127.6623 Y46.5767 I-2.6356 J3.0167
 X128.0579 Y47.176 I-3.1319 J2.4976
 X128.3402 Y47.8364 I-3.5276 J1.8983
 X128.5 Y48.5366 I-3.8098 J1.2379
 X128.5322 Y49.254 I-3.9696 J0.5377
 X128.439 Y49.9425 I-4.0003 J-0.1913
G02 X128.2326 Y49.7452 I-2.9459 J2.8746
 X127.6228 Y49.3427 I-2.5635 J3.2204
G01 X127.640 Y49.214
 X127.615 Y48.656
 X127.491 Y48.112
 X127.272 Y47.599
 X126.964 Y47.133
 X126.827 Y46.990
G02 X126.881 Y46.8907 I-3.5887 J-1.9953
 X127.1085 Y46.1906 I-3.7756 J-1.6138
 X127.1301 Y46.0315 I-4.0574 J-0.6306
G00 Z5.000
 X126.201 Y47.954
G00 Z0.500
G01 Z-6.300 F2540
 X126.309 Y48.117
 X126.451 Y48.450
 X126.531 Y48.803
 X126.538 Y48.957
G02 X126.2187 Y48.8844 I-1.0750 J3.9732
 X125.6318 Y48.858 I-0.4776 J4.0883
G01 X125.602 Y48.726
 X125.538 Y48.578
G03 X126.0731 Y48.1146 I-2.4124 J-3.3227
 X126.2009 Y47.9544 I-3.1454 J-2.6394
G00 Z5.000
 X126.205 Y48.984
G00 Z0.500
G01 Z-6.300 F2540
G03 X126.5801 Y49.0694 I-0.7033 J3.9456
 X126.9071 Y49.1441 I-0.7276 J3.9412
 X127.5691 Y49.427 I-1.241 J3.8193
 X128.17 Y49.8237 I-1.903 J3.5364
 X128.4307 Y50.0730 I-2.6364 J3.0185
 X128.6904 Y50.3212 I-2.637 J3.0180
 X129.1135 Y50.9037 I-3.0242 J2.6422
 X129.1445 Y50.968 I-3.5999 J1.7733
G01 X128.327 Y51.339
 X128.018 Y50.909
 X127.816 Y50.716
 X127.613 Y50.522
 X127.146 Y50.213
 X126.631 Y49.993
 X126.085 Y49.869
 X125.526 Y49.844
 X124.971 Y49.919
 X124.887 Y49.946
 X124.590 Y49.094
 X124.771 Y49.048
G03 X125.486 Y48.9516 I0.8944 J3.9151
 X125.5892 Y48.9562 I-0.1283 J4.0098
 X126.2052 Y48.9839 I0.1285 J4.0098
G00 Z5.000
 X125.575 Y50.936
G00 Z0.500
G01 Z-6.300 F2540
 X125.939 Y50.952
 X126.293 Y51.033
 X126.628 Y51.176
 X126.931 Y51.377
 X127.063 Y51.503
 X127.194 Y51.628
 X127.382 Y51.886
 X127.352 Y51.908
 X126.615 Y52.344
 X126.522 Y52.216
 X126.449 Y52.146
 X126.375 Y52.075
 X126.205 Y51.963
 X126.017 Y51.883
 X125.819 Y51.837
 X125.615 Y51.828
 X125.497 Y51.844
 X125.455 Y51.854
 X125.248 Y50.980
 X125.575 Y50.936
G00 Z5.000
G00 X0 Y0 (home)
M05
M30
%
