%
(Generated by SketchUcam V1.4d-80c0152)
(File: cnc.skp)
(Bit diameter: 0,1mm)
(Feed rate: 2540,0mm/min)
(Material Thickness: 6,3mm)
(Material length: 210,0mm X width: 210,0mm)
(Overhead Gantry: false)
(Plunge Depth first)
(Optimization is ON)
(www.PhlatBoyz.com)
G90 G21 G49 G17 F2540
M3 S15000
G00 Z5.000
 X43.379 Y83.367
G00 Z0.500
G01 Z-6.300 F2540
G03 X44.0390 Y83.0850 I1.8983 J3.5276
 X44.7391 Y82.9252 I1.2379 J3.8098
 X45.4566 Y82.893 I0.5377 J3.9696
 X45.9351 Y82.9578 I-0.2965 J3.9878
 X46.1683 Y82.9894 I-0.42 J3.9767
 X46.8513 Y83.2113 I-0.8914 J3.9054
 X46.9749 Y83.2778 I-1.8337 J3.5558
 X47.4837 Y83.5516 I-1.6365 J3.6508
 X47.8382 Y83.8343 I-2.3117 J3.2624
 X48.0451 Y83.9993 I-2.3881 J3.2068
 X48.5237 Y84.5513 I-2.7742 J2.8886
 X48.886 Y85.1567 I-3.2419 J2.3516
 X48.9941 Y85.4446 I-3.6863 J1.5477
G01 X48.154 Y85.738
 X48.082 Y85.544
 X47.795 Y85.065
 X47.428 Y84.645
 X46.992 Y84.297
 X46.500 Y84.032
 X45.970 Y83.860
 X45.816 Y83.839
 X45.417 Y83.785
 X44.859 Y83.810
 X44.315 Y83.934
 X43.802 Y84.154
 X43.336 Y84.461
 X42.933 Y84.847
 X42.605 Y85.298
 X42.586 Y85.337
 X42.362 Y85.801
 X42.214 Y86.339
 X42.164 Y86.895
 X42.214 Y87.451
 X42.362 Y87.989
 X42.419 Y88.106
 X41.692 Y88.428
 X41.608 Y88.471
 X41.526 Y88.301
G03 X41.4173 Y87.9734 I3.7456 J-1.4228
 X41.3355 Y87.6113 I3.8632 J-1.0629
 X41.2793 Y86.9869 I3.9459 J-0.6698
 X41.271 Y86.8948 I3.9817 J-0.4048
 X41.3354 Y86.1795 I4.0059 J-0.0
 X41.3928 Y85.9713 I3.8823 J0.9594
 X41.5264 Y85.4872 I3.9142 J0.8198
 X41.7845 Y84.9512 I3.7241 J1.4633
 X41.838 Y84.8402 I3.6314 J1.6804
 X42.2601 Y84.2592 I3.4388 J2.0546
 X42.7792 Y83.7629 I3.0167 J2.6356
 X43.3786 Y83.3673 I2.4976 J3.1319
G00 Z5.000
 X44.494 Y85.039
G00 Z0.500
G01 Z-6.300 F2540
G02 X45.0067 Y84.899 I0.7829 J1.8556
 X45.5384 Y84.8978 I0.2701 J1.9958
 X46.0518 Y85.0358 I-0.2615 J1.997
 X46.5112 Y85.3033 I-0.7749 J1.859
 X46.8846 Y85.6817 I-1.2343 J1.5915
 X47.1198 Y86.0984 I-1.6209 J1.19
G01 X46.282 Y86.390
G02 X46.152 Y86.1798 I-1.0199 J0.4858
 X45.9377 Y85.9781 I-0.8749 J0.7147
 X45.6785 Y85.8385 I-0.6606 J0.9164
 X45.3921 Y85.7706 I-0.4016 J1.0559
 X45.0978 Y85.779 I-0.1152 J1.1238
 X44.8157 Y85.8631 I0.1789 J1.1154
 X44.5649 Y86.0172 I0.4609 J1.0314
 X44.3624 Y86.2308 I0.7116 J0.8774
 X44.2219 Y86.4895 I0.9141 J0.6638
 X44.1531 Y86.7757 I1.0545 J0.4052
 X44.1604 Y87.070 I1.1234 J0.1191
 X44.2293 Y87.304 I1.1118 J-0.2001
G01 X43.421 Y87.662
G02 X43.2861 Y87.2 I1.8488 J-0.7913
 X43.2756 Y86.6685 I1.9908 J-0.3052
 X43.4045 Y86.1527 I2.0013 J0.2263
 X43.6639 Y85.6887 I1.8723 J0.7421
 X44.0357 Y85.3087 I1.6129 J1.2061
 X44.4939 Y85.0392 I1.2412 J1.5861
G00 Z5.000
 X47.954 Y83.799
G00 Z0.500
G01 Z-6.300 F2540
 X48.117 Y83.691
 X48.450 Y83.549
 X48.803 Y83.469
 X48.957 Y83.462
G02 X48.8844 Y83.7813 I3.9732 J1.0750
 X48.858 Y84.3682 I4.0883 J0.4776
G01 X48.726 Y84.398
 X48.578 Y84.462
G03 X48.1146 Y83.9269 I-3.3227 J2.4124
 X47.9544 Y83.7991 I-2.6394 J3.1454
G00 Z5.000
 X47.599 Y82.728
G00 Z0.500
G01 Z-6.300 F2540
 X47.133 Y83.036
 X46.990 Y83.173
G02 X46.8907 Y83.119 I-1.9953 J3.5887
 X46.1906 Y82.8915 I-1.6138 J3.7756
 X46.0315 Y82.8699 I-0.6306 J4.0574
G03 X46.0576 Y82.834 I3.2523 J2.3355
 X46.5767 Y82.3377 I3.0167 J2.6356
 X47.176 Y81.9421 I2.4976 J3.1319
 X47.8364 Y81.6598 I1.8983 J3.5276
 X48.5366 Y81.5 I1.2379 J3.8098
 X49.254 Y81.4678 I0.5377 J3.9696
 X49.9425 Y81.561 I-0.1913 J4.0003
G02 X49.7452 Y81.7674 I2.8746 J2.9459
 X49.3427 Y82.3772 I3.2204 J2.5635
G01 X49.214 Y82.360
 X48.656 Y82.385
 X48.112 Y82.509
 X47.599 Y82.728
G00 Z5.000
 X49.069 Y83.420
G00 Z0.500
G01 Z-6.300 F2540
G03 X49.1441 Y83.0929 I3.9412 J0.7276
 X49.427 Y82.4309 I3.8193 J1.241
 X49.8237 Y81.83 I3.5364 J1.903
 X50.0730 Y81.5693 I3.0185 J2.6364
 X50.3212 Y81.3096 I3.0180 J2.637
 X50.9037 Y80.8865 I2.6422 J3.0242
 X50.968 Y80.8555 I1.7733 J3.5999
G01 X51.338 Y81.670
 X50.909 Y81.982
 X50.716 Y82.184
 X50.522 Y82.387
 X50.213 Y82.854
 X49.993 Y83.369
 X49.869 Y83.915
 X49.844 Y84.474
 X49.919 Y85.029
 X49.946 Y85.113
 X49.094 Y85.410
 X49.048 Y85.229
G03 X48.9516 Y84.514 I3.9151 J-0.8944
 X48.9562 Y84.4108 I4.0098 J0.1283
 X48.9839 Y83.7948 I4.0098 J-0.1285
 X49.0694 Y83.4199 I3.9456 J0.7033
G00 Z5.000
 X50.952 Y84.061
G00 Z0.500
G01 Z-6.300 F2540
 X51.033 Y83.707
 X51.176 Y83.372
 X51.377 Y83.069
 X51.503 Y82.937
 X51.628 Y82.806
 X51.889 Y82.616
 X51.906 Y82.646
 X52.344 Y83.385
 X52.216 Y83.478
 X52.146 Y83.551
 X52.075 Y83.625
 X51.963 Y83.795
 X51.883 Y83.983
 X51.837 Y84.181
 X51.828 Y84.385
 X51.844 Y84.503
 X51.854 Y84.545
 X50.980 Y84.752
 X50.936 Y84.425
 X50.952 Y84.061
G00 Z5.000
 X41.661 Y84.976
G00 Z0.500
G01 Z-6.300 F2540
G02 X41.4324 Y85.452 I3.5773 J2.0157
 X41.3052 Y85.9129 I3.8878 J1.321
G01 X41.093 Y85.942
 X40.563 Y86.116
 X40.072 Y86.382
 X39.637 Y86.731
 X39.502 Y86.886
G02 X39.0595 Y86.7425 I-1.4883 J3.8269
 X38.5236 Y86.6699 I-0.8179 J4.0238
G03 X38.5472 Y86.6301 I3.4549 J2.0236
 X39.0181 Y86.0879 I3.2477 J2.345
 X39.5783 Y85.6385 I2.7768 J2.8873
 X40.2097 Y85.2963 I2.2167 J3.3367
 X40.892 Y85.0724 I1.5853 J3.6789
 X41.6034 Y84.9739 I0.9029 J3.9028
 X41.6615 Y84.9763 I-0.1388 J4.0011
G00 Z5.000
 X41.185 Y87.059
G00 Z0.500
G01 Z-6.300 F2540
G03 X41.2365 Y87.6268 I4.1052 J-0.0830
 X41.3119 Y87.9609 I4.0394 J-0.7368
G01 X41.209 Y88.016
G03 X40.9826 Y87.7772 I-3.0921 J2.7016
 X40.5271 Y87.4139 I-2.7814 J3.0205
G01 X40.678 Y87.293
 X40.996 Y87.121
 X41.185 Y87.059
G00 Z5.000
 X39.258 Y89.061
G00 Z0.500
G01 Z-6.300 F2540
 X39.541 Y89.286
 X39.660 Y89.423
 X39.698 Y89.466
 X38.877 Y89.894
 X38.766 Y89.806
 X38.588 Y89.710
 X38.396 Y89.648
 X38.196 Y89.621
 X37.995 Y89.630
 X37.798 Y89.675
 X37.612 Y89.754
 X37.443 Y89.865
 X37.297 Y90.005
 X37.230 Y90.097
 X37.179 Y90.168
 X37.091 Y90.350
 X37.037 Y90.545
 X37.019 Y90.746
 X37.030 Y90.870
 X36.222 Y91.334
 X36.159 Y91.106
 X36.126 Y90.746
 X36.159 Y90.385
 X36.255 Y90.036
 X36.412 Y89.710
 X36.511 Y89.575
 X36.625 Y89.417
 X36.887 Y89.167
 X37.189 Y88.968
 X37.522 Y88.825
 X37.875 Y88.745
 X38.236 Y88.729
 X38.595 Y88.777
 X38.892 Y88.873
 X38.939 Y88.889
 X39.258 Y89.061
G00 Z5.000
 X39.861 Y88.148
G00 Z0.500
G01 Z-6.300 F2540
 X39.369 Y87.883
 X39.228 Y87.838
 X38.838 Y87.711
 X38.316 Y87.640
 X38.285 Y87.636
 X37.728 Y87.661
 X37.184 Y87.785
 X36.671 Y88.005
 X36.205 Y88.312
 X35.801 Y88.698
 X35.629 Y88.934
 X35.473 Y89.149
 X35.231 Y89.652
 X35.083 Y90.190
 X35.033 Y90.746
 X35.083 Y91.302
 X35.231 Y91.840
 X35.255 Y91.889
 X34.471 Y92.340
 X34.396 Y92.155
G03 X34.2029 Y91.4562 I3.7496 J-1.4108
 X34.1772 Y91.3711 I3.8281 J-1.2005
 X34.1398 Y90.7466 I3.9736 J-0.5516
 X34.1736 Y90.3706 I3.9943 J0.17
 X34.2042 Y90.0305 I3.9934 J0.188
 X34.3869 Y89.3687 I3.9373 J0.7305
 X34.3953 Y89.3382 I3.8644 J1.0501
 X34.7069 Y88.6912 I3.7504 J1.4076
 X34.91 Y88.4117 I3.3328 J2.2079
 X35.129 Y88.1102 I3.3403 J2.1966
 X35.6481 Y87.6139 I3.0167 J2.6356
 X36.2475 Y87.2182 I2.4976 J3.1319
 X36.9078 Y86.936 I1.8983 J3.5276
 X37.608 Y86.7762 I1.2379 J3.8098
 X38.3254 Y86.744 I0.5377 J3.9696
 X38.4353 Y86.7588 I-0.4822 J3.9725
 X39.0371 Y86.8404 I-0.2347 J3.9948
 X39.503 Y86.9918 I-1.0004 J3.8717
 X39.7201 Y87.0623 I-1.1267 J3.8369
 X40.3526 Y87.4026 I-1.5744 J3.6835
 X40.4159 Y87.4531 I-2.4638 J3.1545
 X40.9148 Y87.851 I-2.2382 J3.3184
 X41.1617 Y88.1117 I-2.7815 J2.8817
 X41.389 Y88.394 I-3.0032 J2.6501
G01 X41.505 Y88.525
 X40.692 Y88.948
 X40.481 Y88.706
 X40.297 Y88.496
 X39.861 Y88.148
G00 Z5.000
 X34.780 Y88.421
G00 Z0.500
G01 Z-6.300 F2540
G02 X34.6207 Y88.6397 I3.2405 J2.5217
 X34.2993 Y89.3071 I3.5237 J2.108
G01 X34.042 Y89.319
 X33.498 Y89.443
 X32.985 Y89.662
 X32.519 Y89.970
 X32.116 Y90.355
 X32.000 Y90.515
G02 X31.892 Y90.4805 I-1.3225 J3.8873
 X31.1625 Y90.3817 I-0.9137 J4.0031
 X31.0021 Y90.3889 I0.104 J4.1048
G01 X31.021 Y90.349
 X31.444 Y89.768
 X31.963 Y89.272
 X32.562 Y88.876
 X33.222 Y88.594
 X33.923 Y88.434
 X34.640 Y88.402
 X34.780 Y88.421
G00 Z5.000
 X34.068 Y90.430
G00 Z0.500
G01 Z-6.300 F2540
G02 X34.0395 Y90.7451 I4.0723 J0.5253
 X34.0756 Y91.3478 I4.1057 J0.0563
G01 X33.928 Y91.411
 X33.786 Y91.492
G03 X33.2404 Y91.0568 I-2.8236 J2.9811
 X33.060 Y90.9597 I-2.0354 J3.5661
G01 X33.201 Y90.825
 X33.503 Y90.625
 X33.836 Y90.483
 X34.068 Y90.430
G00 Z5.000
 X32.014 Y92.758
G00 Z0.500
G01 Z-6.300 F2540
 X32.091 Y92.799
 X32.372 Y93.023
 X32.612 Y93.298
 X32.666 Y93.387
 X31.904 Y93.845
 X31.755 Y93.668
 X31.599 Y93.544
 X31.421 Y93.448
 X31.229 Y93.386
 X31.029 Y93.359
 X30.827 Y93.368
 X30.630 Y93.413
 X30.445 Y93.492
 X30.276 Y93.603
 X30.130 Y93.743
 X30.011 Y93.906
 X29.924 Y94.088
 X29.870 Y94.283
 X29.852 Y94.484
 X29.870 Y94.685
 X29.924 Y94.880
 X29.982 Y95.001
 X29.217 Y95.461
 X29.088 Y95.193
 X28.991 Y94.844
 X28.959 Y94.484
 X28.991 Y94.123
 X29.088 Y93.774
 X29.245 Y93.448
 X29.458 Y93.155
 X29.719 Y92.905
 X30.021 Y92.706
 X30.354 Y92.563
 X30.707 Y92.483
 X31.012 Y92.469
 X31.069 Y92.467
 X31.428 Y92.515
 X31.772 Y92.627
 X32.014 Y92.758
G00 Z5.000
 X32.531 Y91.798
G00 Z0.500
G01 Z-6.300 F2540
 X32.202 Y91.621
 X31.728 Y91.468
 X31.671 Y91.449
 X31.118 Y91.374
 X30.963 Y91.381
 X30.560 Y91.399
 X30.016 Y91.523
 X29.503 Y91.743
 X29.037 Y92.050
 X28.634 Y92.436
 X28.306 Y92.887
 X28.290 Y92.920
 X28.064 Y93.390
 X27.915 Y93.928
 X27.865 Y94.484
 X27.915 Y95.040
 X28.064 Y95.578
 X28.279 Y96.024
 X27.513 Y96.483
G03 X27.2278 Y95.8914 I3.4522 J-2.0271
 X27.1334 Y95.5491 I3.8027 J-1.2337
 X27.0368 Y95.1991 I3.8015 J-1.2374
 X26.9796 Y94.5639 I3.9453 J-0.6753
 X26.9724 Y94.4838 I3.9828 J-0.3988
 X27.0368 Y93.7686 I4.0059 J-0.0
 X27.1001 Y93.5391 I3.8846 J0.9486
 X27.2278 Y93.0763 I3.9115 J0.8305
 X27.4888 Y92.5344 I3.7255 J1.4603
 X27.5395 Y92.4292 I3.6302 J1.6834
 X27.9616 Y91.8482 I3.4388 J2.0546
 X28.4807 Y91.3519 I3.0167 J2.6356
 X29.080 Y90.9563 I2.4976 J3.1319
 X29.7404 Y90.674 I1.8983 J3.5276
 X30.4406 Y90.5142 I1.2379 J3.8098
 X30.923 Y90.4925 I0.4203 J3.9766
 X31.158 Y90.482 I0.2968 J3.9877
 X31.8697 Y90.5784 I-0.1797 J4.0018
 X32.0032 Y90.6218 I-1.1694 J3.8261
 X32.5527 Y90.8003 I-0.9584 J3.8843
 X32.952 Y91.0152 I-1.692 J3.6227
 X33.1851 Y91.1406 I-1.7771 J3.5817
 X33.7466 Y91.5884 I-2.2068 J3.3432
 X34.2191 Y92.1292 I-2.7683 J2.8954
 X34.377 Y92.3936 I-3.3505 J2.1812
G01 X33.606 Y92.836
 X33.497 Y92.654
 X33.127 Y92.232
 X32.693 Y91.886
 X32.531 Y91.798
G00 Z5.000
 X27.362 Y92.566
G00 Z0.500
G01 Z-6.300 F2540
G02 X27.1338 Y93.0410 I3.5776 J2.0152
 X27.0117 Y93.4837 I3.8908 J1.312
G01 X26.530 Y93.594
 X26.016 Y93.813
 X25.551 Y94.121
 X25.147 Y94.506
 X25.041 Y94.652
G02 X24.9136 Y94.6109 I-1.3325 J3.8839
 X24.184 Y94.5121 I-0.9137 J4.0031
 X24.0391 Y94.5186 I0.1117 J4.1046
G03 X24.4749 Y93.9187 I3.4457 J2.0452
 X24.994 Y93.4224 I3.0167 J2.6356
 X25.5934 Y93.0268 I2.4976 J3.1319
 X26.2537 Y92.7445 I1.8983 J3.5276
 X26.9539 Y92.5847 I1.2379 J3.8098
 X27.3624 Y92.5664 I0.3834 J3.9795
G00 Z5.000
 X26.885 Y94.627
G00 Z0.500
G01 Z-6.300 F2540
G02 X26.938 Y95.217 I4.1055 J-0.0718
 X27.0254 Y95.5336 I3.9986 J-0.9332
G01 X26.958 Y95.562
 X26.834 Y95.644
G02 X26.262 Y95.1872 I-2.8362 J2.9692
 X26.1015 Y95.1009 I-2.0255 J3.5717
G01 X26.233 Y94.976
 X26.535 Y94.776
 X26.885 Y94.627
G00 Z5.000
 X25.994 Y95.156
G00 Z0.500
G01 Z-6.300 F2540
G03 X26.2066 Y95.271 I-1.7874 J3.5769
 X26.7644 Y95.7158 I-2.2087 J3.3417
 X26.78 Y95.7425 I-3.4462 J2.0332
 X27.2414 Y96.2605 I-2.7462 J2.9104
G01 X27.421 Y96.538
 X26.658 Y96.996
 X26.532 Y96.801
 X26.123 Y96.341
 X25.715 Y96.016
 X25.572 Y95.939
 X25.223 Y95.752
 X24.770 Y95.604
 X24.693 Y95.579
 X24.139 Y95.504
 X24.005 Y95.510
 X23.582 Y95.529
 X23.038 Y95.654
 X22.525 Y95.873
 X22.059 Y96.180
 X21.656 Y96.566
 X21.327 Y97.018
 X21.307 Y97.061
 X21.085 Y97.520
 X20.937 Y98.058
 X20.887 Y98.614
 X20.937 Y99.170
 X21.085 Y99.708
 X21.254 Y100.059
 X21.274 Y100.100
 X21.085 Y100.207
 X20.483 Y100.508
G03 X20.453 Y100.4445 I-3.7145 J1.7499
G01 X20.249 Y100.022
 X20.158 Y99.690
 X20.058 Y99.330
 X20.002 Y98.705
 X19.994 Y98.614
 X20.058 Y97.899
 X20.118 Y97.681
 X20.249 Y97.207
 X20.505 Y96.675
G03 X20.561 Y96.5596 I3.6322 J1.6781
 X20.9831 Y95.9786 I3.4388 J2.0546
 X21.0328 Y95.9311 I2.7911 J2.8696
 X21.5022 Y95.4823 I2.992 J2.6595
 X22.1016 Y95.0867 I2.4976 J3.1319
 X22.7619 Y94.8044 I1.8983 J3.5276
 X23.112 Y94.7245 I1.0637 J3.8537
 X23.4621 Y94.6446 I1.0637 J3.8537
 X23.9647 Y94.622 I0.4303 J3.9759
 X24.1795 Y94.6124 I0.2868 J3.9888
 X24.8912 Y94.7088 I-0.1797 J4.0018
 X25.0447 Y94.7587 I-1.1591 J3.8286
 X25.5742 Y94.9307 I-0.9684 J3.8813
 X25.9935 Y95.1564 I-1.6818 J3.6278
G00 Z5.000
 X24.793 Y96.757
G00 Z0.500
G01 Z-6.300 F2540
 X25.056 Y96.899
 X25.112 Y96.929
 X25.371 Y97.135
 X25.664 Y97.464
 X25.723 Y97.556
 X24.982 Y98.001
 X24.696 Y97.715
 X24.443 Y97.578
 X24.250 Y97.516
 X24.050 Y97.489
 X23.849 Y97.498
 X23.652 Y97.543
 X23.466 Y97.622
 X23.298 Y97.734
 X23.152 Y97.873
 X23.033 Y98.037
 X22.945 Y98.218
 X22.892 Y98.413
 X22.873 Y98.614
 X22.892 Y98.815
 X22.945 Y99.010
 X23.000 Y99.123
 X22.224 Y99.562
 X22.109 Y99.324
 X22.013 Y98.975
 X21.981 Y98.614
 X22.013 Y98.254
 X22.109 Y97.905
 X22.266 Y97.579
 X22.479 Y97.286
 X22.741 Y97.035
 X23.043 Y96.836
 X23.376 Y96.694
 X23.729 Y96.613
 X24.053 Y96.599
 X24.090
 X24.449 Y96.646
 X24.793 Y96.757
G00 Z5.000
 X20.379 Y96.707
G00 Z0.500
G01 Z-6.300 F2540
 X20.155 Y97.171
 X20.030 Y97.626
 X19.556 Y97.734
 X19.043 Y97.953
 X18.577 Y98.261
 X18.300 Y98.526
G02 X17.8269 Y98.3607 I-1.5856 J3.7876
 X17.3378 Y98.2839 I-0.8809 J4.0105
G03 X17.5012 Y98.0590 I3.3144 J2.2362
 X18.0203 Y97.5627 I3.0167 J2.6356
 X18.6196 Y97.167 I2.4976 J3.1319
 X18.9388 Y97.0306 I1.7293 J3.6044
 X19.28 Y96.8848 I1.7402 J3.5992
 X19.9802 Y96.725 I1.2379 J3.8098
 X20.379 Y96.7071 I0.3786 J3.98
G00 Z5.000
 X19.907 Y98.768
G00 Z0.500
G01 Z-6.300 F2540
 X19.960 Y99.347
 X20.050 Y99.675
 X19.984 Y99.703
G02 X19.7286 Y99.4369 I-3.0847 J2.7101
 X19.3107 Y99.0816 I-2.8626 J2.9437
G01 X19.561 Y98.916
 X19.907 Y98.768
G00 Z5.000
 X19.107 Y99.049
G00 Z0.500
G01 Z-6.300 F2540
G03 X19.1964 Y99.1157 I-2.3506 J3.2423
 X19.6573 Y99.5076 I-2.3561 J3.2383
 X19.9147 Y99.8152 I-2.9334 J2.7164
 X20.1184 Y100.0585 I-2.9617 J2.6855
 X20.3636 Y100.4895 I-3.3465 J2.1893
 X20.3939 Y100.5525 I-3.5806 J1.7631
G01 X19.598 Y100.950
 X19.576 Y100.903
 X19.385 Y100.568
 X19.233 Y100.386
 X19.024 Y100.136
 X18.640 Y99.810
 X18.112 Y99.508
 X18.003 Y99.470
 X17.585 Y99.324
 X17.103 Y99.248
 X17.034 Y99.238
 X16.476 Y99.251
 X16.203 Y99.307
 X15.929 Y99.363
 X15.412 Y99.572
 X14.940 Y99.869
 X14.528 Y100.246
 X14.437 Y100.366
 X14.190 Y100.691
 X13.938 Y101.188
 X13.778 Y101.723
 X13.716 Y102.278
 X13.754 Y102.834
 X13.783 Y102.950
 X13.926 Y103.447
 X13.500 Y103.617
 X13.082 Y103.727
 X12.925 Y103.182
G03 X12.8725 Y102.9751 I-4.0052 J0.9044
G01 X12.856 Y102.740
G03 X12.8233 Y102.2586 I3.9656 J-0.5139
 X12.8811 Y101.7399 I3.9953 J0.1828
 X12.9029 Y101.5449 I3.9845 J0.3454
 X13.1086 Y100.8568 I3.9254 J0.7989
 X13.1609 Y100.7539 I3.5933 J1.7608
 X13.4339 Y100.2165 I3.6939 J1.5386
 X13.7286 Y99.8285 I3.3259 J2.2202
 X13.8683 Y99.6446 I3.253 J2.3257
 X14.3978 Y99.1595 I2.96 J2.6991
 X15.0054 Y98.7766 I2.4305 J3.1843
 X15.6716 Y98.5085 I1.8229 J3.5671
 X16.0233 Y98.436 I0.9816 J3.8754
 X16.375 Y98.3636 I0.9816 J3.8754
 X17.0930 Y98.3466 I0.4532 J3.9802
 X17.2415 Y98.37 I-0.5467 J3.963
 X17.8025 Y98.4581 I-0.3391 J3.9861
 X18.2959 Y98.6301 I-1.0669 J3.8546
 X18.4806 Y98.6945 I-1.2237 J3.8077
 X19.1068 Y99.0488 I-1.6517 J3.6496
G00 Z5.000
 X17.661 Y100.504
G00 Z0.500
G01 Z-6.300 F2540
 X18.001 Y100.697
 X18.248 Y100.906
 X18.397 Y101.085
 X18.487 Y101.192
 X18.610 Y101.409
 X18.624 Y101.437
 X17.828 Y101.834
 X17.754 Y101.701
 X17.715 Y101.656
 X17.614 Y101.535
 X17.490 Y101.429
 X17.293 Y101.318
 X17.102 Y101.251
 X16.903 Y101.220
 X16.701 Y101.225
 X16.602 Y101.245
 X16.503 Y101.265
 X16.316 Y101.341
 X16.145 Y101.448
 X15.996 Y101.585
 X15.874 Y101.746
 X15.782 Y101.926
 X15.724 Y102.119
 X15.702 Y102.320
 X15.715 Y102.508
 X15.773 Y102.711
 X14.943 Y103.041
 X14.834 Y102.663
 X14.809 Y102.301
 X14.850 Y101.941
 X14.953 Y101.594
 X15.117 Y101.271
 X15.304 Y101.025
 X15.336 Y100.983
 X15.603 Y100.739
 X15.909 Y100.546
 X16.245 Y100.410
 X16.423 Y100.374
 X16.600 Y100.337
 X16.962 Y100.329
 X17.319 Y100.385
 X17.661 Y100.504
G00 Z5.000
 X12.775 Y101.787
G00 Z0.500
G01 Z-6.300 F2540
G02 X12.7229 Y102.2565 I4.0479 J0.6888
 X12.7558 Y102.7362 I4.1059 J-0.0407
G03 X12.3782 Y102.0986 I-3.7073 J1.7652
 X12.2433 Y101.9442 I-3.1586 J2.6235
G01 X12.423 Y101.867
 X12.775 Y101.787
G00 Z5.000
 X13.085 Y100.683
G00 Z0.500
G01 Z-6.300 F2540
 X12.629 Y100.703
 X12.085 Y100.827
 X11.572 Y101.047
 X11.407 Y101.156
G02 X11.3182 Y101.0852 I-2.6041 J3.1747
 X10.67 Y100.7363 I-2.262 J3.4268
 X10.5172 Y100.6867 I-1.345 J3.8796
G01 X10.549 Y100.656
 X11.149 Y100.260
 X11.809 Y99.978
 X12.509 Y99.818
 X13.227 Y99.786
 X13.597 Y99.836
G02 X13.3488 Y100.1632 I3.1416 J2.6439
 X13.0849 Y100.6826 I3.5196 J2.1148
G00 Z5.000
 X11.824 Y101.617
G00 Z0.500
G01 Z-6.300 F2540
G03 X12.1227 Y101.9582 I-2.857 J2.7972
 X12.2968 Y102.1575 I-2.9224 J2.7289
 X12.6704 Y102.7883 I-3.2448 J2.3479
 X12.7757 Y103.0005 I-3.5376 J1.8877
 X12.8282 Y103.2077 I-3.8531 J1.0860
G01 X12.985 Y103.753
 X12.125 Y103.979
 X11.984 Y103.490
 X11.859 Y103.159
 X11.575 Y102.682
 X11.453 Y102.543
 X11.207 Y102.262
 X10.818 Y101.952
 X10.771 Y101.914
 X10.280 Y101.650
 X10.132 Y101.602
 X9.749 Y101.477
 X9.196 Y101.402
 X8.638 Y101.427
 X8.094 Y101.552
 X7.581 Y101.771
 X7.115 Y102.078
 X6.712 Y102.464
 X6.384 Y102.916
 X6.142 Y103.418
 X6.023 Y103.848
 X5.993 Y103.956
 X5.943 Y104.512
 X5.979 Y104.914
 Y105.000
 Y105.086
 X5.943 Y105.488
 X5.993 Y106.044
 X6.023 Y106.152
 X6.142 Y106.582
 X6.384 Y107.084
 X6.712 Y107.536
 X7.115 Y107.922
 X7.581 Y108.229
 X8.094 Y108.448
 X8.638 Y108.573
 X9.196 Y108.598
 X9.749 Y108.523
 X10.132 Y108.398
 X10.280 Y108.350
 X10.771 Y108.086
 X10.818 Y108.048
 X11.207 Y107.738
 X11.453 Y107.457
 X11.575 Y107.318
 X11.859 Y106.841
 X11.984 Y106.510
 X12.125 Y106.021
 X12.985 Y106.247
 X12.828 Y106.792
 X12.776 Y107.000
 X12.666 Y107.224
 X12.297 Y107.842
 X12.123 Y108.042
G03 X11.8244 Y108.3833 I-3.1554 J-2.4557
 X11.3727 Y108.7435 I-2.7138 J-2.9397
 X11.2629 Y108.831 I-2.549 J-3.0837
 X10.6305 Y109.1713 I-2.2068 J-3.3432
 X10.4067 Y109.244 I-1.347 J-3.7651
G02 X9.9475 Y109.3933 I-1.4631 J-3.7215
 X9.2358 Y109.4897 I-0.8914 J-3.9054
 X8.5184 Y109.4575 I-0.1797 J-4.0018
 X7.8182 Y109.2976 I0.5377 J-3.9696
 X7.1578 Y109.0154 I1.2379 J-3.8098
 X6.5585 Y108.6198 I1.8983 J-3.5276
 X6.1058 Y108.1869 I2.531 J-3.1004
 X6.0394 Y108.1235 I2.7324 J-2.9244
 X5.6172 Y107.5424 I3.0167 J-2.6356
 X5.3056 Y106.8954 I3.4388 J-2.0546
 X5.1146 Y106.2031 I3.7504 J-1.4076
 X5.0502 Y105.4878 I3.9415 J-0.7153
 X5.0941 Y105.0 I3.9973 J0.1139
 X5.0502 Y104.5122 I3.9534 J-0.6017
 X5.1146 Y103.7969 I4.0059 J-0.0
 X5.3056 Y103.1046 I3.9415 J0.7153
 X5.6172 Y102.4576 I3.7504 J1.4076
 X6.0394 Y101.8765 I3.4388 J2.0546
 X6.1058 Y101.8131 I2.7988 J2.8609
 X6.5585 Y101.3802 I2.9837 J2.6676
 X7.1578 Y100.9846 I2.4976 J3.1319
 X7.8182 Y100.7024 I1.8983 J3.5276
 X8.5184 Y100.5425 I1.2379 J3.8098
 X9.2358 Y100.5103 I0.5377 J3.9696
 X9.9475 Y100.6067 I-0.1797 J4.0018
 X10.4067 Y100.756 I-1.0038 J3.8707
G03 X10.6305 Y100.8287 I-1.1233 J3.8378
 X11.2629 Y101.169 I-1.5744 J3.6835
 X11.3727 Y101.2565 I-2.4392 J3.1712
 X11.8244 Y101.6167 I-2.2621 J3.2999
G00 Z5.000
 X10.169 Y102.827
G00 Z0.500
G01 Z-6.300 F2540
 X10.452 Y103.053
 X10.633 Y103.260
 X10.690 Y103.325
 X10.874 Y103.634
 X10.949 Y103.833
 X11.071 Y104.257
 X10.211 Y104.483
 X10.105 Y104.113
 X10.070 Y104.022
 X9.967 Y103.850
 X9.835 Y103.698
 X9.677 Y103.572
 X9.499 Y103.476
 X9.307 Y103.414
 X9.107 Y103.387
 X8.905 Y103.396
 X8.708 Y103.441
 X8.522 Y103.520
 X8.354 Y103.631
 X8.208 Y103.771
 X8.089 Y103.934
 X8.001 Y104.116
 X7.948 Y104.311
 X7.930 Y104.512
 X7.950 Y104.738
 X7.953 Y104.771
 X7.068 Y104.855
 X7.064 Y104.818
 X7.037 Y104.512
 X7.069 Y104.152
 X7.166 Y103.803
 X7.323 Y103.476
 X7.535 Y103.184
 X7.797 Y102.933
 X8.099 Y102.734
 X8.432 Y102.592
 X8.785 Y102.511
 X9.147 Y102.495
 X9.505 Y102.543
 X9.795 Y102.638
 X9.850 Y102.655
 X10.169 Y102.827
G00 Z5.000
 X10.211 Y105.517
G00 Z0.500
G01 Z-6.300 F2540
 X11.071 Y105.743
 X10.949 Y106.167
 X10.874 Y106.366
 X10.690 Y106.675
 X10.633 Y106.740
 X10.452 Y106.947
 X10.169 Y107.173
 X9.850 Y107.345
 X9.795 Y107.362
 X9.505 Y107.457
 X9.147 Y107.505
 X8.785 Y107.489
 X8.432 Y107.408
 X8.099 Y107.266
 X7.797 Y107.067
 X7.535 Y106.816
 X7.323 Y106.524
 X7.166 Y106.197
 X7.069 Y105.848
 X7.037 Y105.488
 X7.064 Y105.182
 X7.068 Y105.145
 X7.953 Y105.229
 X7.950 Y105.262
 X7.930 Y105.488
 X7.948 Y105.689
 X8.001 Y105.884
 X8.089 Y106.066
 X8.208 Y106.229
 X8.354 Y106.369
 X8.522 Y106.480
 X8.708 Y106.559
 X8.905 Y106.604
 X9.107 Y106.613
 X9.307 Y106.586
 X9.499 Y106.524
 X9.677 Y106.428
 X9.835 Y106.302
 X9.967 Y106.150
 X10.070 Y105.978
 X10.105 Y105.887
 X10.211 Y105.517
G00 Z5.000
 X11.407 Y108.844
G00 Z0.500
G01 Z-6.300 F2540
 X11.572 Y108.953
 X12.085 Y109.173
 X12.629 Y109.297
 X13.085 Y109.317
G02 X13.3488 Y109.8368 I3.7835 J-1.5954
 X13.5971 Y110.1637 I3.3899 J-2.317
G01 X13.227 Y110.214
 X12.509 Y110.182
 X11.809 Y110.022
 X11.149 Y109.740
 X10.549 Y109.344
 X10.517 Y109.313
G02 X10.67 Y109.2637 I-1.1923 J-3.9292
 X11.3182 Y108.9148 I-1.6138 J-3.7757
 X11.4066 Y108.8443 I-2.5157 J-3.2452
G00 Z5.000
 X12.423 Y108.133
G00 Z0.500
G01 Z-6.300 F2540
 X12.243 Y108.056
 X12.378 Y107.901
 X12.755 Y107.270
G02 X12.7229 Y107.7435 I4.0734 J0.5174
 X12.7753 Y108.2129 I4.1002 J-0.2194
G01 X12.423 Y108.133
G00 Z5.000
 X12.903 Y108.455
G00 Z0.500
G01 Z-6.300 F2540
G03 X12.8811 Y108.2601 I3.9628 J-0.5405
 X12.8233 Y107.7414 I3.9375 J-0.7015
 X12.8563 Y107.26 I3.9986 J0.0326
G01 X12.872 Y107.025
 X12.925 Y106.818
 X13.082 Y106.273
 X13.500 Y106.383
 X13.926 Y106.553
 X13.783 Y107.050
 X13.754 Y107.166
 X13.716 Y107.722
 X13.778 Y108.277
 X13.938 Y108.812
 X14.190 Y109.309
 X14.437 Y109.634
 X14.528 Y109.754
 X14.940 Y110.131
 X15.412 Y110.428
 X15.929 Y110.637
 X16.203 Y110.693
 X16.476 Y110.749
 X17.034 Y110.762
 X17.103 Y110.752
 X17.585 Y110.676
 X18.003 Y110.530
 X18.112 Y110.492
 X18.621 Y110.204
 X19.024 Y109.864
 X19.233 Y109.614
 X19.385 Y109.432
 X19.576 Y109.097
 X19.592 Y109.062
 X20.394 Y109.448
G03 X20.3636 Y109.5105 I-3.6108 J-1.7005
 X20.1184 Y109.9415 I-3.5916 J-1.7584
 X19.9147 Y110.1848 I-3.1654 J-2.4421
 X19.6573 Y110.4924 I-3.1908 J-2.4088
 X19.1964 Y110.8843 I-2.817 J-2.8464
 X19.1068 Y110.9512 I-2.4402 J-3.1754
 X18.4806 Y111.3055 I-2.278 J-3.2952
 X18.2959 Y111.3699 I-1.4084 J-3.7433
 X17.8025 Y111.5419 I-1.5604 J-3.6825
 X17.2415 Y111.63 I-0.9 J-3.898
 X17.0930 Y111.6534 I-0.6953 J-3.9397
 X16.375 Y111.6364 I-0.2647 J-3.9971
 X16.0233 Y111.564 I0.6299 J-3.9479
 X15.6716 Y111.4915 I0.6299 J-3.9479
 X15.0054 Y111.2234 I1.1566 J-3.8353
 X14.3978 Y110.8405 I1.8229 J-3.5671
 X13.8683 Y110.3554 I2.4305 J-3.1843
 X13.7286 Y110.1715 I3.1133 J-2.5096
 X13.4339 Y109.7835 I3.0312 J-2.6082
 X13.1609 Y109.2461 I3.4209 J-2.0760
 X13.1086 Y109.1432 I3.541 J-1.8637
 X12.9029 Y108.4551 I3.7197 J-1.4869
G00 Z5.000
 X14.953 Y108.406
G00 Z0.500
G01 Z-6.300 F2540
 X14.850 Y108.059
 X14.809 Y107.699
 X14.834 Y107.337
 X14.943 Y106.959
 X15.773 Y107.289
 X15.715 Y107.492
 X15.702 Y107.680
 X15.724 Y107.881
 X15.782 Y108.074
 X15.874 Y108.254
 X15.996 Y108.415
 X16.145 Y108.552
 X16.316 Y108.659
 X16.503 Y108.735
 X16.602 Y108.755
 X16.701 Y108.775
 X16.903 Y108.780
 X17.102 Y108.749
 X17.293 Y108.682
 X17.490 Y108.571
 X17.614 Y108.465
 X17.715 Y108.344
 X17.754 Y108.299
 X17.828 Y108.166
 X18.624 Y108.563
 X18.610 Y108.591
 X18.487 Y108.808
 X18.397 Y108.915
 X18.248 Y109.094
 X18.001 Y109.303
 X17.661 Y109.496
 X17.319 Y109.615
 X16.962 Y109.671
 X16.600 Y109.663
 X16.423 Y109.626
 X16.245 Y109.590
 X15.909 Y109.454
 X15.603 Y109.261
 X15.336 Y109.017
 X15.304 Y108.975
 X15.117 Y108.729
 X14.953 Y108.406
G00 Z5.000
 X17.338 Y111.716
G00 Z0.500
G01 Z-6.300 F2540
G02 X17.8269 Y111.6393 I-0.3918 J-4.0873
 X18.2999 Y111.4744 I-1.1125 J-3.9525
G01 X18.577 Y111.739
 X19.043 Y112.047
 X19.556 Y112.266
 X20.030 Y112.374
 X20.155 Y112.829
 X20.379 Y113.293
G03 X19.9802 Y113.275 I-0.0203 J-3.9979
 X19.28 Y113.1152 I0.5377 J-3.9696
 X18.9388 Y112.9694 I1.3989 J-3.7451
 X18.6196 Y112.833 I1.4102 J-3.7408
 X18.0203 Y112.4373 I1.8983 J-3.5276
 X17.5012 Y111.941 I2.4976 J-3.1319
 X17.3378 Y111.7161 I3.151 J-2.4611
G00 Z5.000
 X19.311 Y110.918
G00 Z0.500
G01 Z-6.300 F2540
G02 X19.7286 Y110.5631 I-2.4447 J-3.299
 X19.9628 Y110.2832 I-3.0287 J-2.7726
G01 X20.050 Y110.325
 X19.960 Y110.653
 X19.907 Y111.232
 X19.561 Y111.084
 X19.311 Y110.918
G00 Z5.000
 X19.994 Y111.386
G00 Z0.500
G01 Z-6.300 F2540
 X20.002 Y111.295
 X20.058 Y110.670
 X20.158 Y110.310
 X20.249 Y109.978
 X20.453 Y109.555
G03 X20.4834 Y109.4922 I-3.6841 J-1.8131
G01 X21.085 Y109.793
 X21.274 Y109.900
 X21.254 Y109.941
 X21.085 Y110.292
 X20.937 Y110.830
 X20.887 Y111.386
 X20.937 Y111.942
 X21.085 Y112.480
 X21.307 Y112.939
 X21.327 Y112.982
 X21.656 Y113.434
 X22.059 Y113.820
 X22.525 Y114.127
 X23.038 Y114.346
 X23.582 Y114.471
 X24.005 Y114.490
 X24.139 Y114.496
 X24.693 Y114.421
 X24.770 Y114.396
 X25.223 Y114.248
 X25.572 Y114.061
 X25.715 Y113.984
 X26.123 Y113.659
 X26.532 Y113.199
 X26.658 Y113.004
 X27.421 Y113.462
 X27.241 Y113.739
G03 X26.78 Y114.2575 I-3.2076 J-2.3923
 X26.7644 Y114.2842 I-3.4618 J-2.0065
 X26.2066 Y114.729 I-2.7664 J-2.8969
 X25.9935 Y114.8436 I-2.0005 J-3.4623
 X25.5742 Y115.0693 I-2.1011 J-3.4022
 X25.0447 Y115.2413 I-1.4979 J-3.7092
 X24.8912 Y115.2912 I-1.3127 J-3.7788
 X24.1795 Y115.3876 I-0.8914 J-3.9054
 X23.9647 Y115.378 I0.0719 J-3.9985
 X23.4621 Y115.3554 I-0.0722 J-3.9985
 X23.112 Y115.2755 I0.7137 J-3.9336
 X22.7619 Y115.1956 I0.7137 J-3.9336
 X22.1016 Y114.9133 I1.2379 J-3.8098
 X21.5022 Y114.5177 I1.8983 J-3.5276
 X21.0328 Y114.0689 I2.5226 J-3.1083
 X20.9831 Y114.0214 I2.7414 J-2.9171
 X20.561 Y113.4404 I3.0167 J-2.6356
 X20.5054 Y113.3249 I3.5767 J-1.7935
G01 X20.249 Y112.793
 X20.118 Y112.319
 X20.058 Y112.101
 X19.994 Y111.386
G00 Z5.000
 X22.013 Y111.746
G00 Z0.500
G01 Z-6.300 F2540
 X21.981 Y111.386
 X22.013 Y111.025
 X22.109 Y110.676
 X22.224 Y110.438
 X23.000 Y110.877
 X22.945 Y110.990
 X22.892 Y111.185
 X22.873 Y111.386
 X22.892 Y111.587
 X22.945 Y111.782
 X23.033 Y111.963
 X23.152 Y112.127
 X23.298 Y112.266
 X23.466 Y112.378
 X23.652 Y112.457
 X23.849 Y112.502
 X24.050 Y112.511
 X24.250 Y112.484
 X24.443 Y112.422
 X24.696 Y112.285
 X24.982 Y111.999
 X25.723 Y112.444
 X25.664 Y112.536
 X25.371 Y112.865
 X25.112 Y113.071
 X25.056 Y113.101
 X24.793 Y113.243
 X24.449 Y113.354
 X24.090 Y113.403
 X24.053
 X23.729 Y113.387
 X23.376 Y113.306
 X23.043 Y113.164
 X22.741 Y112.965
 X22.479 Y112.714
 X22.266 Y112.421
 X22.109 Y112.095
 X22.013 Y111.746
G00 Z5.000
 X24.039 Y115.481
G00 Z0.500
G01 Z-6.300 F2540
G02 X24.184 Y115.4879 I0.2567 J-4.0980
 X24.9136 Y115.3891 I-0.1842 J-4.1019
 X25.0411 Y115.3476 I-1.2049 J-3.9253
G01 X25.147 Y115.494
 X25.551 Y115.879
 X26.016 Y116.187
 X26.530 Y116.406
 X27.012 Y116.516
G02 X27.1338 Y116.959 I4.0130 J-0.8693
 X27.3624 Y117.4336 I3.8061 J-1.5406
G03 X26.9539 Y117.4153 I-0.0251 J-3.9979
 X26.2537 Y117.2555 I0.5377 J-3.9696
 X25.5934 Y116.9732 I1.2379 J-3.8098
 X24.994 Y116.5776 I1.8983 J-3.5276
 X24.4749 Y116.0813 I2.4976 J-3.1319
 X24.0391 Y115.4814 I3.0099 J-2.6451
G00 Z5.000
 X26.102 Y114.899
G00 Z0.500
G01 Z-6.300 F2540
G02 X26.262 Y114.8128 I-1.865 J-3.6581
 X26.8345 Y114.3562 I-2.2636 J-3.4258
G01 X26.958 Y114.438
 X27.025 Y114.466
G02 X26.938 Y114.783 I3.9113 J1.2498
 X26.8849 Y115.3735 I4.0523 J0.6624
G01 X26.535 Y115.224
 X26.233 Y115.024
 X26.102 Y114.899
G00 Z5.000
 X26.972 Y115.516
G00 Z0.500
G01 Z-6.300 F2540
G03 X26.9796 Y115.4361 I3.99 J0.3187
 X27.0368 Y114.8009 I4.0025 J0.0401
 X27.1334 Y114.4509 I3.8981 J0.8875
 X27.2278 Y114.1086 I3.8972 J0.8914
 X27.5129 Y113.5167 I3.7373 J1.4352
G01 X28.279 Y113.976
 X28.064 Y114.422
 X27.915 Y114.960
 X27.865 Y115.516
 X27.915 Y116.072
 X28.064 Y116.610
 X28.290 Y117.080
 X28.306 Y117.113
 X28.634 Y117.564
 X29.037 Y117.950
 X29.503 Y118.257
 X30.016 Y118.477
 X30.560 Y118.601
 X30.963 Y118.619
 X31.118 Y118.626
 X31.671 Y118.551
 X31.728 Y118.532
 X32.202 Y118.379
 X32.531 Y118.202
 X32.693 Y118.114
 X33.127 Y117.768
 X33.497 Y117.346
 X33.606 Y117.164
 X34.389 Y117.613
G03 X34.2199 Y117.8699 I-3.4247 J-2.0765
 X33.7545 Y118.4017 I-3.235 J-2.3613
 X33.185 Y118.8594 I-2.7833 J-2.8798
 X32.952 Y118.9848 I-2.0102 J-3.4563
 X32.5527 Y119.1997 I-2.0913 J-3.4078
 X32.0032 Y119.3782 I-1.5078 J-3.7058
 X31.8697 Y119.4216 I-1.3029 J-3.7827
 X31.158 Y119.518 I-0.8914 J-3.9054
 X30.923 Y119.5075 I0.0618 J-3.9983
 X30.4406 Y119.4858 I-0.0621 J-3.9983
 X29.7404 Y119.326 I0.5377 J-3.9696
 X29.080 Y119.0437 I1.2379 J-3.8098
 X28.4807 Y118.6481 I1.8983 J-3.5276
 X27.9616 Y118.1518 I2.4976 J-3.1319
 X27.5395 Y117.5708 I3.0167 J-2.6356
 X27.4888 Y117.4656 I3.5795 J-1.7886
 X27.2278 Y116.9237 I3.4645 J-2.0022
 X27.1001 Y116.4609 I3.7838 J-1.2933
 X27.0368 Y116.2314 I3.8213 J-1.1781
 X26.9724 Y115.5162 I3.9415 J-0.7153
G00 Z5.000
 X28.991 Y115.877
G00 Z0.500
G01 Z-6.300 F2540
 X28.959 Y115.516
 X28.991 Y115.156
 X29.088 Y114.807
 X29.217 Y114.539
 X29.982 Y114.999
 X29.924 Y115.120
 X29.870 Y115.315
 X29.852 Y115.516
 X29.870 Y115.717
 X29.924 Y115.912
 X30.011 Y116.094
 X30.130 Y116.257
 X30.276 Y116.397
 X30.445 Y116.508
 X30.630 Y116.587
 X30.827 Y116.632
 X31.029 Y116.641
 X31.229 Y116.614
 X31.421 Y116.552
 X31.599 Y116.456
 X31.755 Y116.332
 X31.890 Y116.177
 X32.666 Y116.613
 X32.612 Y116.702
 X32.372 Y116.977
 X32.091 Y117.201
 X32.014 Y117.242
 X31.772 Y117.373
 X31.428 Y117.485
 X31.069 Y117.533
 X31.012 Y117.531
 X30.707 Y117.517
 X30.354 Y117.437
 X30.021 Y117.294
 X29.719 Y117.095
 X29.458 Y116.845
 X29.245 Y116.552
 X29.088 Y116.226
 X28.991 Y115.877
G00 Z5.000
 X31.002 Y119.611
G00 Z0.500
G01 Z-6.300 F2540
G02 X31.1625 Y119.6183 I0.2644 J-4.0976
 X31.892 Y119.5195 I-0.1842 J-4.1019
 X31.9996 Y119.4846 I-1.215 J-3.9222
G01 X32.116 Y119.645
 X32.519 Y120.030
 X32.985 Y120.338
 X33.498 Y120.557
 X34.042 Y120.681
 X34.299 Y120.693
G02 X34.6207 Y121.3603 I3.8451 J-1.4406
 X34.7799 Y121.5794 I3.3997 J-2.3026
G01 X34.640 Y121.598
 X33.923 Y121.566
 X33.222 Y121.406
 X32.562 Y121.124
 X31.963 Y120.728
 X31.444 Y120.232
 X31.021 Y119.651
 X31.002 Y119.611
G00 Z5.000
 X33.060 Y119.040
G00 Z0.500
G01 Z-6.300 F2540
G03 X33.2405 Y118.9431 I-1.8549 J-3.6632
 X33.7921 Y118.4998 I-2.287 J-3.4102
G01 X33.926 Y118.588
 X34.076 Y118.652
G02 X34.0395 Y119.2549 I4.0696 J0.5464
 X34.0679 Y119.5699 I4.1007 J-0.2103
G01 X33.836 Y119.517
 X33.503 Y119.375
 X33.201 Y119.175
 X33.060 Y119.040
G00 Z5.000
 X34.140 Y119.253
G00 Z0.500
G01 Z-6.300 F2540
G03 X34.1772 Y118.6289 I4.0110 J-0.0729
 X34.2029 Y118.5438 I3.8537 J1.1154
 X34.3953 Y117.8466 I3.9422 J0.7128
G01 X34.482 Y117.667
 X35.255 Y118.111
 X35.231 Y118.160
 X35.083 Y118.698
 X35.033 Y119.254
 X35.083 Y119.810
 X35.231 Y120.348
 X35.473 Y120.851
 X35.629 Y121.066
 X35.801 Y121.302
 X36.205 Y121.688
 X36.671 Y121.995
 X37.184 Y122.215
 X37.728 Y122.339
 X38.285 Y122.364
 X38.316 Y122.360
 X38.838 Y122.289
 X39.228 Y122.162
 X39.369 Y122.117
 X39.861 Y121.852
 X40.297 Y121.504
 X40.481 Y121.294
 X40.692 Y121.052
 X41.491 Y121.468
 X41.388 Y121.607
G03 X41.1503 Y121.8792 I-3.1265 J-2.4916
 X40.914 Y122.1496 I-3.1257 J-2.4924
 X40.4159 Y122.5469 I-2.7368 J-2.9208
 X40.3526 Y122.5974 I-2.5272 J-3.104
 X39.7201 Y122.9377 I-2.2068 J-3.3432
 X39.503 Y123.0082 I-1.3438 J-3.7664
 X39.0371 Y123.1596 I-1.4664 J-3.7203
 X38.4353 Y123.2412 I-0.8365 J-3.9133
 X38.3254 Y123.256 I-0.5921 J-3.9576
 X37.608 Y123.2238 I-0.1797 J-4.0018
 X36.9078 Y123.0640 I0.5377 J-3.9696
 X36.2475 Y122.7818 I1.2379 J-3.8098
 X35.6481 Y122.3861 I1.8983 J-3.5276
 X35.129 Y121.8898 I2.4976 J-3.1319
 X34.91 Y121.5883 I3.1213 J-2.498
 X34.7069 Y121.3088 I3.1297 J-2.4874
 X34.3953 Y120.6618 I3.4388 J-2.0546
 X34.3869 Y120.6313 I3.856 J-1.0806
 X34.2042 Y119.9695 I3.7547 J-1.3923
 X34.1736 Y119.6294 I3.9628 J-0.528
 X34.1398 Y119.2534 I3.9604 J-0.546
G00 Z5.000
 X36.159 Y119.615
G00 Z0.500
G01 Z-6.300 F2540
 X36.126 Y119.254
 X36.159 Y118.894
 X36.222 Y118.666
 X37.030 Y119.130
 X37.019 Y119.254
 X37.037 Y119.455
 X37.091 Y119.650
 X37.179 Y119.832
 X37.230 Y119.903
 X37.297 Y119.995
 X37.443 Y120.135
 X37.612 Y120.246
 X37.798 Y120.325
 X37.995 Y120.370
 X38.196 Y120.379
 X38.396 Y120.352
 X38.588 Y120.290
 X38.766 Y120.194
 X38.877 Y120.106
 X39.698 Y120.534
 X39.660 Y120.577
 X39.541 Y120.714
 X39.258 Y120.939
 X38.939 Y121.111
 X38.892 Y121.127
 X38.595 Y121.223
 X38.236 Y121.271
 X37.875 Y121.255
 X37.522 Y121.175
 X37.189 Y121.032
 X36.887 Y120.833
 X36.625 Y120.583
 X36.511 Y120.425
 X36.412 Y120.290
 X36.255 Y119.964
 X36.159 Y119.615
G00 Z5.000
 X38.524 Y123.330
G00 Z0.500
G01 Z-6.300 F2540
G02 X39.0595 Y123.2575 I-0.282 J-4.0964
 X39.5025 Y123.1136 I-1.0453 J-3.9708
G01 X39.637 Y123.269
 X40.072 Y123.618
 X40.563 Y123.884
 X41.093 Y124.058
 X41.305 Y124.087
G02 X41.4324 Y124.548 I4.0150 J-0.86
 X41.6615 Y125.0237 I3.8063 J-1.54
G03 X41.6034 Y125.0261 I-0.1969 J-3.9986
 X40.892 Y124.9276 I0.1915 J-4.0013
 X40.2097 Y124.7037 I0.9029 J-3.9028
 X39.5783 Y124.3615 I1.5853 J-3.6789
 X39.0181 Y123.9121 I2.2167 J-3.3367
 X38.5472 Y123.3699 I2.7768 J-2.8873
 X38.5236 Y123.3301 I3.4314 J-2.0633
G00 Z5.000
 X40.527 Y122.586
G00 Z0.500
G01 Z-6.300 F2540
G02 X40.9834 Y122.2222 I-2.3255 J-3.3841
 X41.1994 Y121.975 I-2.9817 J-2.823
G01 X41.327 Y122.044
G02 X41.2366 Y122.372 I3.9094 J1.2555
 X41.1853 Y122.9415 I4.0540 J0.6519
G01 X40.996 Y122.879
 X40.678 Y122.707
 X40.527 Y122.586
G00 Z5.000
 X41.271 Y123.105
G00 Z0.500
G01 Z-6.300 F2540
G03 X41.2793 Y123.0131 I3.99 J0.3127
 X41.3354 Y122.3899 I4.0020 J0.0461
 X41.4341 Y122.0320 I3.899 J0.8835
 X41.527 Y121.6954 I3.8966 J0.8943
G01 X41.592 Y121.521
 X41.691 Y121.572
 X42.410 Y121.913
 X42.362 Y122.011
 X42.214 Y122.549
 X42.164 Y123.105
 X42.214 Y123.661
 X42.362 Y124.199
 X42.586 Y124.663
 X42.605 Y124.702
 X42.933 Y125.153
 X43.336 Y125.539
 X43.802 Y125.846
 X44.315 Y126.066
 X44.859 Y126.190
 X45.417 Y126.215
 X45.816 Y126.161
 X45.970 Y126.140
 X46.500 Y125.968
 X46.992 Y125.703
 X47.428 Y125.355
 X47.795 Y124.935
 X48.082 Y124.456
 X48.154 Y124.262
 X48.994 Y124.555
G03 X48.886 Y124.8433 I-3.7943 J-1.2598
 X48.5177 Y125.4598 I-3.6092 J-1.7381
 X48.0452 Y126.0006 I-3.2408 J-2.3546
 X47.8382 Y126.1657 I-2.5951 J-3.0418
 X47.4837 Y126.4484 I-2.6662 J-2.9797
 X46.9749 Y126.7222 I-2.1453 J-3.377
 X46.8513 Y126.7887 I-1.9574 J-3.4893
 X46.1683 Y127.0106 I-1.5744 J-3.6835
 X45.9351 Y127.0422 I-0.6531 J-3.9451
 X45.4566 Y127.107 I-0.7751 J-3.9229
 X44.7391 Y127.0748 I-0.1797 J-4.0018
 X44.0390 Y126.915 I0.5377 J-3.9696
 X43.3786 Y126.6327 I1.2379 J-3.8098
 X42.7792 Y126.2371 I1.8983 J-3.5276
 X42.2601 Y125.7408 I2.4976 J-3.1319
 X41.838 Y125.1598 I3.0167 J-2.6356
 X41.7845 Y125.0488 I3.5779 J-1.7914
 X41.5264 Y124.5128 I3.466 J-1.9993
 X41.3928 Y124.0287 I3.7806 J-1.3038
 X41.3354 Y123.8205 I3.8248 J-1.1677
 X41.271 Y123.1052 I3.9415 J-0.7153
G00 Z5.000
 X43.276 Y123.332
G00 Z0.500
G01 Z-6.300 F2540
G02 X43.2861 Y122.8 I2.0013 J-0.2263
 X43.4211 Y122.3382 I1.9838 J0.3294
G01 X44.229 Y122.696
G02 X44.1604 Y122.93 I1.0429 J0.4341
 X44.1531 Y123.2243 I1.116 J0.1752
 X44.2219 Y123.5105 I1.1234 J-0.119
 X44.3624 Y123.7692 I1.0545 J-0.4051
 X44.5649 Y123.9828 I0.9141 J-0.6637
 X44.8157 Y124.1369 I0.7117 J-0.8773
 X45.0978 Y124.221 I0.461 J-1.0313
 X45.3921 Y124.2294 I0.179 J-1.1154
 X45.6785 Y124.1615 I-0.1151 J-1.1238
 X45.9377 Y124.0219 I-0.4015 J-1.0559
 X46.152 Y123.8202 I-0.6605 J-0.9164
 X46.2824 Y123.6096 I-0.8895 J-0.6964
G01 X47.120 Y123.902
G02 X46.8846 Y124.3183 I-1.8562 J-0.7734
 X46.5112 Y124.6967 I-1.6077 J-1.2131
 X46.0518 Y124.9642 I-1.2343 J-1.5915
 X45.5384 Y125.1022 I-0.7749 J-1.859
 X45.0067 Y125.101 I-0.2615 J-1.997
 X44.4939 Y124.9608 I0.2701 J-1.9958
 X44.0357 Y124.6913 I0.7829 J-1.8556
 X43.6639 Y124.3113 I1.2412 J-1.5861
 X43.4045 Y123.8473 I1.6129 J-1.2061
 X43.2756 Y123.3315 I1.8723 J-0.7421
G00 Z5.000
 X46.031 Y127.130
G00 Z0.500
G01 Z-6.300 F2540
G02 X46.1906 Y127.1085 I-0.4715 J-4.0789
 X46.8907 Y126.881 I-0.9137 J-4.0031
 X46.9903 Y126.8274 I-1.8958 J-3.6422
G01 X47.133 Y126.964
 X47.599 Y127.272
 X48.112 Y127.491
 X48.656 Y127.615
 X49.214 Y127.640
 X49.343 Y127.623
G02 X49.7452 Y128.2326 I3.6229 J-1.9537
 X49.9425 Y128.439 I3.0720 J-2.7396
G03 X49.254 Y128.5322 I-0.8798 J-3.907
 X48.5366 Y128.5 I-0.1797 J-4.0018
 X47.8364 Y128.3402 I0.5377 J-3.9696
 X47.176 Y128.0579 I1.2379 J-3.8098
 X46.5767 Y127.6623 I1.8983 J-3.5276
 X46.0576 Y127.166 I2.4976 J-3.1319
 X46.0315 Y127.1301 I3.2262 J-2.3714
G00 Z5.000
 X47.954 Y126.201
G00 Z0.500
G01 Z-6.300 F2540
G03 X48.1146 Y126.0732 I-2.4792 J-3.2731
 X48.5737 Y125.5477 I-2.8514 J-2.9545
G01 X48.728 Y125.602
 X48.858 Y125.632
G02 X48.8844 Y126.2187 I4.1146 J0.1093
 X48.9573 Y126.5383 I4.0462 J-0.7553
G01 X48.803 Y126.531
 X48.450 Y126.451
 X48.117 Y126.309
 X47.954 Y126.201
G00 Z5.000
 X48.984 Y126.205
G00 Z0.500
G01 Z-6.300 F2540
G03 X48.9562 Y125.5892 I3.9822 J-0.4874
 X48.9516 Y125.486 I4.0052 J-0.2316
 X49.0484 Y124.7708 I4.0119 J0.1793
G01 X49.094 Y124.590
 X49.946 Y124.887
 X49.919 Y124.971
 X49.844 Y125.526
 X49.869 Y126.085
 X49.993 Y126.631
 X50.213 Y127.146
 X50.522 Y127.613
 X50.716 Y127.816
 X50.909 Y128.018
 X51.326 Y128.321
 X50.968 Y129.144
G03 X50.9037 Y129.1135 I1.7091 J-3.6308
 X50.3212 Y128.6904 I2.0597 J-3.4474
 X50.0730 Y128.4307 I2.7698 J-2.8967
 X49.8237 Y128.17 I2.7692 J-2.8972
 X49.4183 Y127.5487 I3.1455 J-2.4951
 X49.1441 Y126.9071 I3.5407 J-1.8928
 X49.0694 Y126.5801 I3.8666 J-1.0545
 X48.9839 Y126.2052 I3.8601 J-1.0783
G00 Z5.000
 X51.033 Y126.293
G00 Z0.500
G01 Z-6.300 F2540
 X50.952 Y125.939
 X50.936 Y125.575
 X50.984 Y125.249
 X51.854 Y125.455
 X51.844 Y125.497
 X51.828 Y125.615
 X51.837 Y125.819
 X51.883 Y126.017
 X51.963 Y126.205
 X52.075 Y126.375
 X52.146 Y126.449
 X52.216 Y126.522
 X52.344 Y126.615
 X51.908 Y127.352
 X51.886 Y127.382
 X51.628 Y127.194
 X51.503 Y127.063
 X51.377 Y126.931
 X51.176 Y126.628
 X51.033 Y126.293
G00 Z5.000
G00 X0 Y0 (home)
M05
M30
%
