%
(Generated by SketchUcam V1.4d-80c0152)
(Bit diameter: 1,0mm)
(Feed rate: 2540,0mm/min)
(Material Thickness: 6,3mm)
(Material length: 210,0mm X width: 210,0mm)
(Overhead Gantry: false)
(Plunge Depth first)
(Optimization is ON)
(www.PhlatBoyz.com)
G90 G21 G49 G17 F2540
M3 S15000
G00 Z5.000
 X37.832 Y37.832
G00 Z0.500
G01 Z-6.300 F2540
 X40.716 Y40.206
 X44.328 Y42.999
 X47.913 Y45.639
 X51.480 Y48.183
 X55.038 Y50.687
 X58.595 Y53.206
 X62.160 Y55.798
 X65.742 Y58.519
 X69.350 Y61.425
 X72.995 Y64.572
 X76.685 Y68.018
 X80.431 Y71.818
 X84.240 Y76.031
 X88.123 Y80.711
 X92.089 Y85.917
 X96.145 Y91.704
 X100.302 Y98.130
 X103.546 Y103.546
 X98.130 Y100.302
 X91.704 Y96.145
 X85.917 Y92.089
 X80.711 Y88.123
 X76.031 Y84.240
 X71.818 Y80.431
 X68.018 Y76.685
 X64.572 Y72.995
 X61.425 Y69.350
 X58.519 Y65.742
 X55.798 Y62.160
 X53.206 Y58.595
 X50.687 Y55.038
 X48.183 Y51.480
 X45.639 Y47.913
 X42.999 Y44.328
 X40.206 Y40.716
 X37.832 Y37.832
G00 Z5.000
 X56.907 Y31.324
G00 Z0.500
G01 Z-6.300 F2540
 X59.419 Y32.357
 X63.287 Y34.143
 X66.495 Y35.832
 X69.116 Y37.427
 X71.225 Y38.935
 X72.895 Y40.363
 X74.204 Y41.716
 X75.227 Y43.007
 X76.043 Y44.246
 X76.726 Y45.449
 X77.349 Y46.628
 X77.988 Y47.793
 X78.717 Y48.946
 X79.609 Y50.088
 X80.735 Y51.214
 X82.162 Y52.326
 X83.957 Y53.426
 X86.191 Y54.524
 X88.936 Y55.627
 X91.791 Y56.586
 X90.991 Y59.143
 X90.312 Y62.234
 X89.956 Y65.454
 X89.974 Y68.880
 X90.415 Y72.587
 X91.326 Y76.654
 X92.752 Y81.161
 X94.742 Y86.191
 X97.157 Y91.426
 X96.975 Y91.146
 X92.896 Y85.327
 X88.906 Y80.089
 X84.996 Y75.376
 X81.158 Y71.132
 X77.383 Y67.301
 X73.663 Y63.828
 X69.996 Y60.661
 X68.527 Y59.414
 X67.319 Y58.141
 X66.322 Y56.823
 X65.506 Y55.463
 X64.844 Y54.060
 X64.309 Y52.614
 X63.876 Y51.127
 X63.519 Y49.601
 X63.211 Y48.040
 X62.927 Y46.447
 X62.639 Y44.825
 X62.321 Y43.179
 X61.944 Y41.512
 X61.482 Y39.828
 X60.905 Y38.131
 X60.186 Y36.427
 X59.298 Y34.721
 X58.214 Y33.019
 X56.907 Y31.324
G00 Z5.000
 X49.601 Y63.519
G00 Z0.500
G01 Z-6.300 F2540
 X51.127 Y63.876
 X52.614 Y64.309
 X54.060 Y64.844
 X55.463 Y65.506
 X56.823 Y66.322
 X58.141 Y67.319
 X59.414 Y68.527
 X60.661 Y69.996
 X63.828 Y73.663
 X67.301 Y77.383
 X71.132 Y81.158
 X75.376 Y84.996
 X80.089 Y88.906
 X85.327 Y92.896
 X91.146 Y96.975
 X91.426 Y97.157
 X86.191 Y94.742
 X81.161 Y92.752
 X76.654 Y91.326
 X72.587 Y90.415
 X68.880 Y89.974
 X65.454 Y89.956
 X62.234 Y90.312
 X59.143 Y90.991
 X56.586 Y91.791
 X55.627 Y88.936
 X54.524 Y86.191
 X53.426 Y83.957
 X52.326 Y82.162
 X51.214 Y80.735
 X50.088 Y79.609
 X48.946 Y78.717
 X47.793 Y77.988
 X46.628 Y77.349
 X45.449 Y76.726
 X44.246 Y76.043
 X43.007 Y75.227
 X41.716 Y74.204
 X40.363 Y72.895
 X38.935 Y71.225
 X37.427 Y69.116
 X35.832 Y66.495
 X34.143 Y63.287
 X32.357 Y59.419
 X31.324 Y56.907
 X33.019 Y58.214
 X34.721 Y59.298
 X36.427 Y60.186
 X38.131 Y60.905
 X39.828 Y61.482
 X41.512 Y61.944
 X43.179 Y62.321
 X44.825 Y62.639
 X46.447 Y62.927
 X48.040 Y63.211
 X49.601 Y63.519
G00 Z5.000
 X59.400 Y91.958
G00 Z0.500
G01 Z-6.300 F2540
 X62.397 Y91.300
 X65.507 Y90.956
 X68.818 Y90.974
 X72.418 Y91.402
 X76.393 Y92.292
 X80.826 Y93.695
 X85.797 Y95.661
 X91.388 Y98.240
 X97.679 Y101.481
 X103.975 Y105.000
 X97.679 Y108.519
 X91.388 Y111.760
 X85.797 Y114.339
 X80.826 Y116.305
 X76.393 Y117.708
 X72.418 Y118.598
 X68.818 Y119.026
 X65.507 Y119.044
 X62.397 Y118.700
 X59.400 Y118.042
 X56.431 Y117.113
 X53.407 Y115.960
 X50.246 Y114.630
 X46.869 Y113.171
 X43.195 Y111.633
 X39.145 Y110.066
 X34.639 Y108.520
 X29.596 Y107.046
 X23.937 Y105.691
 X20.229 Y105.000
 X23.937 Y104.309
 X29.596 Y102.954
 X34.639 Y101.480
 X39.145 Y99.934
 X43.195 Y98.367
 X46.869 Y96.829
 X50.246 Y95.370
 X53.407 Y94.040
 X56.431 Y92.887
 X59.400 Y91.958
G00 Z5.000
 X56.586 Y118.209
G00 Z0.500
G01 Z-6.300 F2540
 X59.143 Y119.009
 X62.234 Y119.688
 X65.454 Y120.044
 X68.880 Y120.026
 X72.587 Y119.585
 X76.654 Y118.674
 X81.161 Y117.248
 X86.191 Y115.258
 X91.426 Y112.843
 X91.146 Y113.025
 X85.327 Y117.104
 X80.089 Y121.094
 X75.376 Y125.004
 X71.132 Y128.842
 X67.301 Y132.617
 X63.828 Y136.337
 X60.661 Y140.004
 X59.414 Y141.473
 X58.141 Y142.681
 X56.823 Y143.678
 X55.463 Y144.494
 X54.060 Y145.156
 X52.614 Y145.691
 X51.127 Y146.124
 X49.601 Y146.481
 X48.040 Y146.789
 X46.447 Y147.073
 X44.825 Y147.361
 X43.179 Y147.679
 X41.512 Y148.056
 X39.828 Y148.518
 X38.131 Y149.095
 X36.427 Y149.814
 X34.721 Y150.702
 X33.019 Y151.786
 X31.324 Y153.093
 X32.357 Y150.581
 X34.143 Y146.713
 X35.832 Y143.505
 X37.427 Y140.884
 X38.935 Y138.775
 X40.363 Y137.105
 X41.716 Y135.796
 X43.007 Y134.773
 X44.246 Y133.957
 X45.449 Y133.274
 X46.628 Y132.651
 X47.793 Y132.012
 X48.946 Y131.283
 X50.088 Y130.391
 X51.214 Y129.265
 X52.326 Y127.838
 X53.426 Y126.043
 X54.524 Y123.809
 X55.627 Y121.064
 X56.586 Y118.209
G00 Z5.000
 X68.018 Y133.315
G00 Z0.500
G01 Z-6.300 F2540
 X71.818 Y129.569
 X76.031 Y125.760
 X80.711 Y121.877
 X85.917 Y117.911
 X91.704 Y113.855
 X98.130 Y109.698
 X103.546 Y106.454
 X100.302 Y111.870
 X96.145 Y118.296
 X92.089 Y124.083
 X88.123 Y129.289
 X84.240 Y133.969
 X80.431 Y138.182
 X76.685 Y141.982
 X72.995 Y145.428
 X69.350 Y148.575
 X65.742 Y151.481
 X62.160 Y154.202
 X58.595 Y156.794
 X55.038 Y159.313
 X51.480 Y161.817
 X47.913 Y164.361
 X44.328 Y167.001
 X40.716 Y169.794
 X37.832 Y172.168
 X40.206 Y169.284
 X42.999 Y165.672
 X45.639 Y162.087
 X48.183 Y158.520
 X50.687 Y154.962
 X53.206 Y151.405
 X55.798 Y147.840
 X58.519 Y144.258
 X61.425 Y140.650
 X64.572 Y137.005
 X68.018 Y133.315
G00 Z5.000
 X77.383 Y142.699
G00 Z0.500
G01 Z-6.300 F2540
 X81.158 Y138.868
 X84.996 Y134.624
 X88.906 Y129.911
 X92.896 Y124.673
 X96.975 Y118.854
 X97.157 Y118.574
 X94.742 Y123.809
 X92.752 Y128.839
 X91.326 Y133.346
 X90.415 Y137.413
 X89.974 Y141.120
 X89.956 Y144.546
 X90.312 Y147.766
 X90.991 Y150.857
 X91.791 Y153.414
 X88.936 Y154.373
 X86.191 Y155.476
 X83.957 Y156.574
 X82.162 Y157.674
 X80.735 Y158.786
 X79.609 Y159.912
 X78.717 Y161.054
 X77.988 Y162.207
 X77.349 Y163.372
 X76.726 Y164.551
 X76.043 Y165.754
 X75.227 Y166.993
 X74.204 Y168.284
 X72.895 Y169.637
 X71.225 Y171.065
 X69.116 Y172.573
 X66.495 Y174.168
 X63.287 Y175.857
 X59.419 Y177.643
 X56.907 Y178.676
 X58.214 Y176.981
 X59.298 Y175.279
 X60.186 Y173.573
 X60.905 Y171.869
 X61.482 Y170.172
 X61.944 Y168.488
 X62.321 Y166.821
 X62.639 Y165.175
 X62.927 Y163.553
 X63.211 Y161.960
 X63.519 Y160.399
 X63.876 Y158.873
 X64.309 Y157.386
 X64.844 Y155.940
 X65.506 Y154.537
 X66.322 Y153.177
 X67.319 Y151.859
 X68.527 Y150.586
 X69.996 Y149.339
 X73.663 Y146.172
 X77.383 Y142.699
G00 Z5.000
 X90.956 Y144.493
G00 Z0.500
G01 Z-6.300 F2540
 X90.974 Y141.182
 X91.402 Y137.582
 X92.292 Y133.607
 X93.695 Y129.174
 X95.661 Y124.203
 X98.240 Y118.612
 X101.481 Y112.321
 X105.000 Y106.025
 X108.519 Y112.321
 X111.760 Y118.612
 X114.339 Y124.203
 X116.305 Y129.174
 X117.708 Y133.607
 X118.598 Y137.582
 X119.026 Y141.182
 X119.044 Y144.493
 X118.700 Y147.603
 X118.042 Y150.600
 X117.113 Y153.569
 X115.960 Y156.593
 X114.630 Y159.754
 X113.171 Y163.131
 X111.633 Y166.805
 X110.066 Y170.855
 X108.520 Y175.361
 X107.046 Y180.404
 X105.691 Y186.063
 X105.000 Y189.771
 X104.309 Y186.063
 X102.954 Y180.404
 X101.480 Y175.361
 X99.934 Y170.855
 X98.367 Y166.805
 X96.829 Y163.131
 X95.370 Y159.754
 X94.040 Y156.593
 X92.887 Y153.569
 X91.958 Y150.600
 X91.300 Y147.603
 X90.956 Y144.493
G00 Z5.000
 X112.321 Y108.519
G00 Z0.500
G01 Z-6.300 F2540
 X106.025 Y105.000
 X112.321 Y101.481
 X118.612 Y98.240
 X124.203 Y95.661
 X129.174 Y93.695
 X133.607 Y92.292
 X137.582 Y91.402
 X141.182 Y90.974
 X144.493 Y90.956
 X147.603 Y91.300
 X150.600 Y91.958
 X153.569 Y92.887
 X156.593 Y94.040
 X159.754 Y95.370
 X163.131 Y96.829
 X166.805 Y98.367
 X170.855 Y99.934
 X175.361 Y101.480
 X180.404 Y102.954
 X186.063 Y104.309
 X189.771 Y105.000
 X186.063 Y105.691
 X180.404 Y107.046
 X175.361 Y108.520
 X170.855 Y110.066
 X166.805 Y111.633
 X163.131 Y113.171
 X159.754 Y114.630
 X156.593 Y115.960
 X153.569 Y117.113
 X150.600 Y118.042
 X147.603 Y118.700
 X144.493 Y119.044
 X141.182 Y119.026
 X137.582 Y118.598
 X133.607 Y117.708
 X129.174 Y116.305
 X124.203 Y114.339
 X118.612 Y111.760
 X112.321 Y108.519
G00 Z5.000
 X111.870 Y109.698
G00 Z0.500
G01 Z-6.300 F2540
 X118.296 Y113.855
 X124.083 Y117.911
 X129.289 Y121.877
 X133.969 Y125.760
 X138.182 Y129.569
 X141.982 Y133.315
 X145.428 Y137.005
 X148.575 Y140.650
 X151.481 Y144.258
 X154.202 Y147.840
 X156.794 Y151.405
 X159.313 Y154.962
 X161.817 Y158.520
 X164.361 Y162.087
 X167.001 Y165.672
 X169.794 Y169.284
 X172.168 Y172.168
 X169.284 Y169.794
 X165.672 Y167.001
 X162.087 Y164.361
 X158.520 Y161.817
 X154.962 Y159.313
 X151.405 Y156.794
 X147.840 Y154.202
 X144.258 Y151.481
 X140.650 Y148.575
 X137.005 Y145.428
 X133.315 Y141.982
 X129.569 Y138.182
 X125.760 Y133.969
 X121.877 Y129.289
 X117.911 Y124.083
 X113.855 Y118.296
 X109.698 Y111.870
 X106.454 Y106.454
 X111.870 Y109.698
G00 Z5.000
 X112.843 Y118.574
G00 Z0.500
G01 Z-6.300 F2540
 X113.025 Y118.854
 X117.104 Y124.673
 X121.094 Y129.911
 X125.004 Y134.624
 X128.842 Y138.868
 X132.617 Y142.699
 X136.337 Y146.172
 X140.004 Y149.339
 X141.473 Y150.586
 X142.681 Y151.859
 X143.678 Y153.177
 X144.494 Y154.537
 X145.156 Y155.940
 X145.691 Y157.386
 X146.124 Y158.873
 X146.481 Y160.399
 X146.789 Y161.960
 X147.073 Y163.553
 X147.361 Y165.175
 X147.679 Y166.821
 X148.056 Y168.488
 X148.518 Y170.172
 X149.095 Y171.869
 X149.814 Y173.573
 X150.702 Y175.279
 X151.786 Y176.981
 X153.093 Y178.676
 X150.581 Y177.643
 X146.713 Y175.857
 X143.505 Y174.168
 X140.884 Y172.573
 X138.775 Y171.065
 X137.105 Y169.637
 X135.796 Y168.284
 X134.773 Y166.993
 X133.957 Y165.754
 X133.274 Y164.551
 X132.651 Y163.372
 X132.012 Y162.207
 X131.283 Y161.054
 X130.391 Y159.912
 X129.265 Y158.786
 X127.838 Y157.674
 X126.043 Y156.574
 X123.809 Y155.476
 X121.064 Y154.373
 X118.209 Y153.414
 X119.009 Y150.857
 X119.688 Y147.766
 X120.044 Y144.546
 X120.026 Y141.120
 X119.585 Y137.413
 X118.674 Y133.346
 X117.248 Y128.839
 X115.258 Y123.809
 X112.843 Y118.574
G00 Z5.000
 X118.574 Y112.843
G00 Z0.500
G01 Z-6.300 F2540
 X123.809 Y115.258
 X128.839 Y117.248
 X133.346 Y118.674
 X137.413 Y119.585
 X141.120 Y120.026
 X144.546 Y120.044
 X147.766 Y119.688
 X150.857 Y119.009
 X153.414 Y118.209
 X154.373 Y121.064
 X155.476 Y123.809
 X156.574 Y126.043
 X157.674 Y127.838
 X158.786 Y129.265
 X159.912 Y130.391
 X161.054 Y131.283
 X162.207 Y132.012
 X163.372 Y132.651
 X164.551 Y133.274
 X165.754 Y133.957
 X166.993 Y134.773
 X168.284 Y135.796
 X169.637 Y137.105
 X171.065 Y138.775
 X172.573 Y140.884
 X174.168 Y143.505
 X175.857 Y146.713
 X177.643 Y150.581
 X178.676 Y153.093
 X176.981 Y151.786
 X175.279 Y150.702
 X173.573 Y149.814
 X171.869 Y149.095
 X170.172 Y148.518
 X168.488 Y148.056
 X166.821 Y147.679
 X165.175 Y147.361
 X163.553 Y147.073
 X161.960 Y146.789
 X160.399 Y146.481
 X158.873 Y146.124
 X157.386 Y145.691
 X155.940 Y145.156
 X154.537 Y144.494
 X153.177 Y143.678
 X151.859 Y142.681
 X150.586 Y141.473
 X149.339 Y140.004
 X146.172 Y136.337
 X142.699 Y132.617
 X138.868 Y128.842
 X134.624 Y125.004
 X129.911 Y121.094
 X124.673 Y117.104
 X118.854 Y113.025
 X118.574 Y112.843
G00 Z5.000
 Y97.157
G00 Z0.500
G01 Z-6.300 F2540
 X118.854 Y96.975
 X124.673 Y92.896
 X129.911 Y88.906
 X134.624 Y84.996
 X138.868 Y81.158
 X142.699 Y77.383
 X146.172 Y73.663
 X149.339 Y69.996
 X150.586 Y68.527
 X151.859 Y67.319
 X153.177 Y66.322
 X154.537 Y65.506
 X155.940 Y64.844
 X157.386 Y64.309
 X158.873 Y63.876
 X160.399 Y63.519
 X161.960 Y63.211
 X163.553 Y62.927
 X165.175 Y62.639
 X166.821 Y62.321
 X168.488 Y61.944
 X170.172 Y61.482
 X171.869 Y60.905
 X173.573 Y60.186
 X175.279 Y59.298
 X176.981 Y58.214
 X178.676 Y56.907
 X177.643 Y59.419
 X175.857 Y63.287
 X174.168 Y66.495
 X172.573 Y69.116
 X171.065 Y71.225
 X169.637 Y72.895
 X168.284 Y74.204
 X166.993 Y75.227
 X165.754 Y76.043
 X164.551 Y76.726
 X163.372 Y77.349
 X162.207 Y77.988
 X161.054 Y78.717
 X159.912 Y79.609
 X158.786 Y80.735
 X157.674 Y82.162
 X156.574 Y83.957
 X155.476 Y86.191
 X154.373 Y88.936
 X153.414 Y91.791
 X150.857 Y90.991
 X147.766 Y90.312
 X144.546 Y89.956
 X141.120 Y89.974
 X137.413 Y90.415
 X133.346 Y91.326
 X128.839 Y92.752
 X123.809 Y94.742
 X118.574 Y97.157
G00 Z5.000
 X118.296 Y96.145
G00 Z0.500
G01 Z-6.300 F2540
 X111.870 Y100.302
 X106.454 Y103.546
 X109.698 Y98.130
 X113.855 Y91.704
 X117.911 Y85.917
 X121.877 Y80.711
 X125.760 Y76.031
 X129.569 Y71.818
 X133.315 Y68.018
 X137.005 Y64.572
 X140.650 Y61.425
 X144.258 Y58.519
 X147.840 Y55.798
 X151.405 Y53.206
 X154.962 Y50.687
 X158.520 Y48.183
 X162.087 Y45.639
 X165.672 Y42.999
 X169.284 Y40.206
 X172.168 Y37.832
 X169.794 Y40.716
 X167.001 Y44.328
 X164.361 Y47.913
 X161.817 Y51.480
 X159.313 Y55.038
 X156.794 Y58.595
 X154.202 Y62.160
 X151.481 Y65.742
 X148.575 Y69.350
 X145.428 Y72.995
 X141.982 Y76.685
 X138.182 Y80.431
 X133.969 Y84.240
 X129.289 Y88.123
 X124.083 Y92.089
 X118.296 Y96.145
G00 Z5.000
 X112.843 Y91.426
G00 Z0.500
G01 Z-6.300 F2540
 X115.258 Y86.191
 X117.248 Y81.161
 X118.674 Y76.654
 X119.585 Y72.587
 X120.026 Y68.880
 X120.044 Y65.454
 X119.688 Y62.234
 X119.009 Y59.143
 X118.209 Y56.586
 X121.064 Y55.627
 X123.809 Y54.524
 X126.043 Y53.426
 X127.838 Y52.326
 X129.265 Y51.214
 X130.391 Y50.088
 X131.283 Y48.946
 X132.012 Y47.793
 X132.651 Y46.628
 X133.274 Y45.449
 X133.957 Y44.246
 X134.773 Y43.007
 X135.796 Y41.716
 X137.105 Y40.363
 X138.775 Y38.935
 X140.884 Y37.427
 X143.505 Y35.832
 X146.713 Y34.143
 X150.581 Y32.357
 X153.093 Y31.324
 X151.786 Y33.019
 X150.702 Y34.721
 X149.814 Y36.427
 X149.095 Y38.131
 X148.518 Y39.828
 X148.056 Y41.512
 X147.679 Y43.179
 X147.361 Y44.825
 X147.073 Y46.447
 X146.789 Y48.040
 X146.481 Y49.601
 X146.124 Y51.127
 X145.691 Y52.614
 X145.156 Y54.060
 X144.494 Y55.463
 X143.678 Y56.823
 X142.681 Y58.141
 X141.473 Y59.414
 X140.004 Y60.661
 X136.337 Y63.828
 X132.617 Y67.301
 X128.842 Y71.132
 X125.004 Y75.376
 X121.094 Y80.089
 X117.104 Y85.327
 X113.025 Y91.146
 X112.843 Y91.426
G00 Z5.000
 X111.760 Y91.388
G00 Z0.500
G01 Z-6.300 F2540
 X108.519 Y97.679
 X105.000 Y103.975
 X101.481 Y97.679
 X98.240 Y91.388
 X95.661 Y85.797
 X93.695 Y80.826
 X92.292 Y76.393
 X91.402 Y72.418
 X90.974 Y68.818
 X90.956 Y65.507
 X91.300 Y62.397
 X91.958 Y59.400
 X92.887 Y56.431
 X94.040 Y53.407
 X95.370 Y50.246
 X96.829 Y46.869
 X98.367 Y43.195
 X99.934 Y39.145
 X101.480 Y34.639
 X102.954 Y29.596
 X104.309 Y23.937
 X105.000 Y20.229
 X105.691 Y23.937
 X107.046 Y29.596
 X108.520 Y34.639
 X110.066 Y39.145
 X111.633 Y43.195
 X113.171 Y46.869
 X114.630 Y50.246
 X115.960 Y53.407
 X117.113 Y56.431
 X118.042 Y59.400
 X118.700 Y62.397
 X119.044 Y65.507
 X119.026 Y68.818
 X118.598 Y72.418
 X117.708 Y76.393
 X116.305 Y80.826
 X114.339 Y85.797
 X111.760 Y91.388
G00 Z5.000
G00 X0 Y0 (home)
M05
M30
%
