%
(Generated by SketchUcam V1.4d-80c0152)
(File: circulo.skp)
(Bit diameter: 0,1mm)
(Feed rate: 2540,0mm/min)
(Material Thickness: ~ 6,3mm)
(Material length: 210,0mm X width: 210,0mm)
(Overhead Gantry: false)
(Plunge Depth first)
(Optimization is ON)
(www.PhlatBoyz.com)
G90 G21 G49 G17 F2540
M3 S15000
G00 Z5.000
 X41.757 Y37.344
G00 Z0.500
G01 Z-6.350 F2540
G02 X30.8967 Y50.1603 I43.2426 J47.6556
 X23.723 Y65.3504 I54.1033 J34.8397
 X20.7253 Y81.8796 I61.277 J19.6496
 X22.1078 Y98.6214 I64.2747 J3.1204
 X27.7762 Y114.435 I62.8922 J-13.6214
 X37.3444 Y128.2426 I57.2238 J-29.435
 X50.1603 Y139.1033 I47.6556 J-43.2426
 X65.3504 Y146.277 I34.8397 J-54.1033
 X81.8796 Y149.2747 I19.6496 J-61.277
 X98.6214 Y147.8922 I3.1204 J-64.2747
 X114.435 Y142.2238 I-13.6214 J-62.8922
 X128.2426 Y132.6556 I-29.435 J-57.2238
 X139.1033 Y119.8397 I-43.2426 J-47.6556
 X146.277 Y104.6496 I-54.1033 J-34.8397
 X149.2747 Y88.1204 I-61.277 J-19.6496
 X147.8922 Y71.3786 I-64.2747 J-3.1204
 X142.2238 Y55.565 I-62.8922 J13.6214
 X132.6556 Y41.7574 I-57.2238 J29.435
 X119.8397 Y30.8967 I-47.6556 J43.2426
 X104.6496 Y23.723 I-34.8397 J54.1033
 X88.1204 Y20.7253 I-19.6496 J61.277
 X71.3786 Y22.1078 I-3.1204 J64.2747
 X55.565 Y27.7762 I13.6214 J62.8922
 X41.7574 Y37.3444 I29.435 J57.2238
G00 Z5.000
G00 X0 Y0 (home)
M05
M30
%
