%
(Generated by SketchUcam V1.4d-80c0152)
(File: circulo.skp)
(Bit diameter: 0,1mm)
(Feed rate: 2540,0mm/min)
(Material Thickness: ~ 6,3mm)
(Material length: 210,0mm X width: 210,0mm)
(Overhead Gantry: false)
(Plunge Depth first)
(Optimization is ON)
(www.PhlatBoyz.com)
G90 G21 G49 G17 F2540
M3 S15000
G00 Z15.000
 X56.999 Y41.252
G00 Z0.500
G01 Z-6.350 F2540
G03 X60.2333 Y37.4744 I15.9625 J10.3963
 X64.3354 Y34.6631 I12.7278 J14.1735
 X69.0253 Y33.0093 I8.6258 J16.9848
 X73.9834 Y32.6257 I3.9359 J18.6385
 X78.8719 Y33.5385 I-1.0222 J19.0221
 X83.3575 Y35.6853 I-5.9107 J18.1094
 X87.1347 Y38.92 I-10.3963 J15.9625
 X89.9459 Y43.0221 I-14.1735 J12.7278
 X91.5997 Y47.712 I-16.9848 J8.6258
 X91.9833 Y52.6701 I-18.6385 J3.9359
 X91.0706 Y57.5585 I-19.0221 J-1.0222
 X88.9237 Y62.0442 I-18.1094 J-5.9107
 X85.689 Y65.8213 I-15.9625 J-10.3963
 X81.587 Y68.6326 I-12.7278 J-14.1735
 X76.8971 Y70.2864 I-8.6258 J-16.9848
 X71.939 Y70.67 I-3.9359 J-18.6385
 X67.0505 Y69.7572 I1.0222 J-19.0221
 X62.5649 Y67.6104 I5.9107 J-18.1094
 X58.7877 Y64.3757 I10.3963 J-15.9625
 X55.9764 Y60.2736 I14.1735 J-12.7278
 X54.3227 Y55.5837 I16.9848 J-8.6258
 X53.9391 Y50.6256 I18.6385 J-3.9359
 X54.8518 Y45.7372 I19.0221 J1.0222
 X56.9987 Y41.2515 I18.1094 J5.9107
G00 Z15.000
 X70.500 Y78.616
G00 Z0.500
G01 Z-6.350 F2540
G03 X72.9712 Y78.2911 I2.4716 J9.2242
 X75.4428 Y78.6165 I0.0 J9.5496
 X77.746 Y79.5705 I-2.4716 J9.2242
 X79.7237 Y81.0881 I-4.7748 J8.2702
 X81.2414 Y83.0659 I-6.7526 J6.7526
 X82.1954 Y85.3691 I-8.2702 J4.7748
 X82.5208 Y87.8407 I-9.2242 J2.4716
 X82.1954 Y90.3123 I-9.5496 J0.0
 X81.2414 Y92.6154 I-9.2242 J-2.4716
 X79.7237 Y94.5932 I-8.2702 J-4.7748
 X77.746 Y96.1108 I-6.7526 J-6.7526
 X75.4428 Y97.0648 I-4.7748 J-8.2702
 X72.9712 Y97.3902 I-2.4716 J-9.2242
 X70.4996 Y97.0648 I-0.0 J-9.5496
 X68.1964 Y96.1108 I2.4716 J-9.2242
 X66.2186 Y94.5932 I4.7748 J-8.2702
 X64.701 Y92.6154 I6.7526 J-6.7526
 X63.747 Y90.3123 I8.2702 J-4.7748
 X63.4216 Y87.8407 I9.2242 J-2.4716
 X63.747 Y85.3691 I9.5496 J-0.0
 X64.701 Y83.0659 I9.2242 J2.4716
 X66.2186 Y81.0881 I8.2702 J4.7748
 X68.1964 Y79.5705 I6.7526 J6.7526
 X70.4996 Y78.6165 I4.7748 J8.2702
G00 Z15.000
 X60.317 Y100.793
G00 Z0.500
G01 Z-6.350 F2540
G03 X64.1634 Y102.3868 I-4.1281 J15.4061
 X67.4667 Y104.9215 I-7.9748 J13.8127
 X70.0014 Y108.2248 I-11.278 J11.278
 X71.5947 Y112.0715 I-13.8127 J7.9748
 X72.1382 Y116.1996 I-15.4061 J4.1281
 X71.5947 Y120.3276 I-15.9496 J0.0
 X70.0014 Y124.1743 I-15.4061 J-4.1281
 X67.4667 Y127.4776 I-13.8127 J-7.9748
 X64.1634 Y130.0123 I-11.278 J-11.278
 X60.3167 Y131.6057 I-7.9748 J-13.8127
 X56.1886 Y132.1491 I-4.1281 J-15.4061
 X52.0606 Y131.6057 I0.0 J-15.9496
 X48.2139 Y130.0123 I4.1281 J-15.4061
 X44.9106 Y127.4776 I7.9748 J-13.8127
 X42.3759 Y124.1743 I11.278 J-11.278
 X40.7825 Y120.3276 I13.8127 J-7.9748
 X40.2391 Y116.1996 I15.4061 J-4.1281
 X40.7825 Y112.0715 I15.9496 J0.0
 X42.3759 Y108.2248 I15.4061 J4.1281
 X44.9106 Y104.9215 I13.8127 J7.9748
 X48.2139 Y102.3868 I11.278 J11.278
 X52.0606 Y100.7935 I7.9748 J13.8127
 X56.1886 Y100.25 I4.1281 J15.4061
 X60.3167 Y100.7935 I0.0 J15.9496
G00 Z15.000
 X84.572 Y109.812
G00 Z0.500
G01 Z-6.350 F2540
G03 X86.741 Y106.9846 I11.8209 J6.8248
 X89.5679 Y104.8154 I9.6517 J9.6517
 X92.8599 Y103.4519 I6.8248 J11.8209
 X96.3927 Y102.9868 I3.5328 J13.1845
 X99.9254 Y103.4519 I-0.0 J13.6496
 X103.2175 Y104.8154 I-3.5328 J13.1845
 X106.0444 Y106.9846 I-6.8248 J11.8209
 X108.2136 Y109.8115 I-9.6517 J9.6517
 X109.5772 Y113.1036 I-11.8209 J6.8248
 X110.0422 Y116.6363 I-13.1845 J3.5328
 X109.5772 Y120.1691 I-13.6496 J-0.0
 X108.2136 Y123.4611 I-13.1845 J-3.5328
 X106.0444 Y126.288 I-11.8209 J-6.8248
 X103.2175 Y128.4572 I-9.6517 J-9.6517
 X99.9254 Y129.8208 I-6.8248 J-11.8209
 X96.3927 Y130.2859 I-3.5328 J-13.1845
 X92.8599 Y129.8208 I0.0 J-13.6496
 X89.5679 Y128.4572 I3.5328 J-13.1845
 X86.741 Y126.288 I6.8248 J-11.8209
 X84.5718 Y123.4611 I9.6517 J-9.6517
 X83.2082 Y120.1691 I11.8209 J-6.8248
 X82.7431 Y116.6363 I13.1845 J-3.5328
 X83.2082 Y113.1036 I13.6496 J-0.0
 X84.5718 Y109.8115 I13.1845 J3.5328
G00 Z15.000
 X112.123 Y93.178
G00 Z0.500
G01 Z-6.350 F2540
G03 X110.3616 Y90.2011 I10.4246 J-8.1779
 X109.4307 Y86.8699 I12.186 J-5.2011
 X109.3937 Y83.4113 I13.1169 J-1.8699
 X110.2531 Y80.0609 I13.154 J1.5887
 X111.9503 Y77.0472 I12.2946 J4.9391
 X114.3697 Y74.5754 I10.5973 J7.9528
 X117.3465 Y72.814 I8.1779 J10.4246
 X120.6777 Y71.8831 I5.2011 J12.186
 X124.1363 Y71.846 I1.8699 J13.1169
 X127.4867 Y72.7054 I-1.5887 J13.154
 X130.5005 Y74.4027 I-4.9391 J12.2946
 X132.9723 Y76.8221 I-7.9528 J10.5973
 X134.7337 Y79.7989 I-10.4246 J8.1779
 X135.6646 Y83.1301 I-12.186 J5.2011
 X135.7016 Y86.5887 I-13.1169 J1.8699
 X134.8422 Y89.9391 I-13.154 J-1.5887
 X133.145 Y92.9528 I-12.2946 J-4.9391
 X130.7255 Y95.4246 I-10.5973 J-7.9528
 X127.7488 Y97.186 I-8.1779 J-10.4246
 X124.4176 Y98.1169 I-5.2011 J-12.186
 X120.959 Y98.154 I-1.8699 J-13.1169
 X117.6086 Y97.2946 I1.5887 J-13.154
 X114.5948 Y95.5973 I4.9391 J-12.2946
 X112.123 Y93.1779 I7.9528 J-10.5973
G00 Z15.000
 X116.216 Y58.610
G00 Z0.500
G01 Z-6.350 F2540
G03 X112.8686 Y57.9779 I0.7257 J-13.0294
 X109.7986 Y56.5012 I4.0732 J-12.3976
 X107.2155 Y54.2803 I7.1431 J-10.9209
 X105.2952 Y51.4665 I9.7263 J-8.7
 X104.1685 Y48.2516 I11.6466 J-5.8862
 X103.9124 Y44.8546 I12.7732 J-2.6713
 X104.5442 Y41.5071 I13.0294 J0.7257
 X106.0208 Y38.4372 I12.3976 J4.0732
 X108.2417 Y35.854 I10.9209 J7.1431
 X111.0555 Y33.9337 I8.7 J9.7263
 X114.2705 Y32.8071 I5.8862 J11.6466
 X117.6675 Y32.5509 I2.6713 J12.7732
 X121.0150 Y33.1827 I-0.7257 J13.0294
 X124.0849 Y34.6594 I-4.0732 J12.3976
 X126.6681 Y36.8803 I-7.1431 J10.9209
 X128.5884 Y39.6941 I-9.7263 J8.7
 X129.715 Y42.909 I-11.6466 J5.8862
 X129.9712 Y46.306 I-12.7732 J2.6713
 X129.3394 Y49.6535 I-13.0294 J-0.7257
 X127.8627 Y52.7234 I-12.3976 J-4.0732
 X125.6418 Y55.3066 I-10.9209 J-7.1431
 X122.828 Y57.2269 I-8.7 J-9.7263
 X119.6131 Y58.3535 I-5.8862 J-11.6466
 X116.2161 Y58.6097 I-2.6713 J-12.7732
G00 Z15.000
 X134.462 Y35.538
G00 Z0.500
G01 Z-6.350 F2540
G03 X145.5781 Y50.0252 I-49.4618 J49.4618
 X152.5661 Y66.8957 I-60.5781 J34.9748
 X154.9496 Y85.0 I-67.5661 J18.1043
 X152.5661 Y103.1043 I-69.9496 J-0.0
 X145.5781 Y119.9748 I-67.5661 J-18.1043
 X134.4618 Y134.4618 I-60.5781 J-34.9748
 X119.9748 Y145.5781 I-49.4618 J-49.4618
 X103.1043 Y152.5661 I-34.9748 J-60.5781
 X85.0 Y154.9496 I-18.1043 J-67.5661
 X66.8957 Y152.5661 I0.0 J-69.9496
 X50.0252 Y145.5781 I18.1043 J-67.5661
 X35.5382 Y134.4618 I34.9748 J-60.5781
 X24.4219 Y119.9748 I49.4618 J-49.4618
 X17.4339 Y103.1043 I60.5781 J-34.9748
 X15.0504 Y85.0 I67.5661 J-18.1043
 X17.4339 Y66.8957 I69.9496 J-0.0
 X24.4219 Y50.0252 I67.5661 J18.1043
 X35.5382 Y35.5382 I60.5781 J34.9748
 X50.0252 Y24.4219 I49.4618 J49.4618
 X66.8957 Y17.4339 I34.9748 J60.5781
 X85.0 Y15.0504 I18.1043 J67.5661
 X103.1043 Y17.4339 I-0.0 J69.9496
 X119.9748 Y24.4219 I-18.1043 J67.5661
 X134.4618 Y35.5382 I-34.9748 J60.5781
G00 Z15.000
G00 X0 Y0 (home)
M05
M30
%
